shooxitoo/ProjetRobotVision/00_Labo_NE043_TX60L_base_2524/RobotMotionSpySingu1J.txt
J1,J2,J3,J4,J5,J6,empty
3872067.000,21.439,-5.000,80.000,0.055,70.872,-6.645,
3872083.000,21.439,-4.999,80.000,0.055,70.872,-6.645,
3872084.000,21.439,-4.999,80.000,0.055,70.872,-6.645,
3872085.000,21.439,-4.999,80.000,0.055,70.872,-6.645,
3872086.000,21.439,-4.999,80.000,0.055,70.872,-6.645,
3872087.000,21.439,-4.999,80.000,0.055,70.872,-6.645,
3872088.000,21.439,-4.999,80.000,0.055,70.872,-6.645,
3872099.000,21.438,-5.001,80.001,0.056,70.872,-6.649,
3872100.000,21.438,-5.001,80.001,0.056,70.872,-6.649,
3872101.000,21.438,-5.001,80.001,0.056,70.872,-6.649,
3872102.000,21.438,-5.001,80.001,0.056,70.872,-6.649,
3872103.000,21.438,-5.001,80.001,0.056,70.872,-6.649,
3872104.000,21.438,-5.001,80.001,0.056,70.872,-6.649,
3872105.000,21.438,-5.001,80.001,0.056,70.872,-6.649,
3872115.000,21.437,-5.002,80.004,0.058,70.872,-6.654,
3872117.000,21.437,-5.002,80.004,0.058,70.872,-6.654,
3872119.000,21.437,-5.002,80.004,0.058,70.872,-6.654,
3872121.000,21.437,-5.002,80.004,0.058,70.872,-6.654,
3872123.000,21.437,-5.002,80.004,0.058,70.872,-6.654,
3872125.000,21.437,-5.002,80.004,0.058,70.872,-6.654,
3872127.000,21.437,-5.002,80.004,0.058,70.872,-6.654,
3872132.000,21.434,-5.005,80.009,0.061,70.873,-6.662,
3872134.000,21.434,-5.005,80.009,0.061,70.873,-6.662,
3872137.000,21.434,-5.005,80.009,0.061,70.873,-6.662,
3872140.000,21.434,-5.005,80.009,0.061,70.873,-6.662,
3872143.000,21.434,-5.005,80.009,0.061,70.873,-6.662,
3872146.000,21.430,-5.009,80.016,0.066,70.874,-6.675,
3872162.000,21.424,-5.015,80.028,0.074,70.875,-6.696,
3872164.000,21.424,-5.015,80.028,0.074,70.875,-6.696,
3872166.000,21.424,-5.015,80.028,0.074,70.875,-6.696,
3872169.000,21.424,-5.015,80.028,0.074,70.875,-6.696,
3872171.000,21.424,-5.015,80.028,0.074,70.875,-6.696,
3872173.000,21.424,-5.015,80.028,0.074,70.875,-6.696,
3872175.000,21.424,-5.015,80.028,0.074,70.875,-6.696,
3872192.000,21.402,-5.038,80.070,0.103,70.880,-6.770,
3872195.000,21.402,-5.038,80.070,0.103,70.880,-6.770,
3872197.000,21.402,-5.038,80.070,0.103,70.880,-6.770,
3872199.000,21.402,-5.038,80.070,0.103,70.880,-6.770,
3872202.000,21.402,-5.038,80.070,0.103,70.880,-6.770,
3872204.000,21.402,-5.038,80.070,0.103,70.880,-6.770,
3872205.000,21.402,-5.038,80.070,0.103,70.880,-6.770,
3872222.000,21.350,-5.091,80.165,0.167,70.892,-6.940,
3872224.000,21.350,-5.091,80.165,0.167,70.892,-6.940,
3872227.000,21.350,-5.091,80.165,0.167,70.892,-6.940,
3872229.000,21.350,-5.091,80.165,0.167,70.892,-6.940,
3872231.000,21.350,-5.091,80.165,0.167,70.892,-6.940,
3872233.000,21.350,-5.091,80.165,0.167,70.892,-6.940,
3872235.000,21.350,-5.091,80.165,0.167,70.892,-6.940,
3872239.000,21.301,-5.142,80.257,0.230,70.904,-7.105,
3872241.000,21.301,-5.142,80.257,0.230,70.904,-7.105,
3872243.000,21.301,-5.142,80.257,0.230,70.904,-7.105,
3872245.000,21.301,-5.142,80.257,0.230,70.904,-7.105,
3872247.000,21.301,-5.142,80.257,0.230,70.904,-7.105,
3872249.000,21.301,-5.142,80.257,0.230,70.904,-7.105,
3872251.000,21.301,-5.142,80.257,0.230,70.904,-7.105,
3872255.000,21.219,-5.225,80.408,0.332,70.924,-7.376,
3872257.000,21.219,-5.225,80.408,0.332,70.924,-7.376,
3872259.000,21.219,-5.225,80.408,0.332,70.924,-7.376,
3872261.000,21.219,-5.225,80.408,0.332,70.924,-7.376,
3872263.000,21.219,-5.225,80.408,0.332,70.924,-7.376,
3872266.000,21.219,-5.225,80.408,0.332,70.924,-7.376,
3872270.000,21.112,-5.333,80.606,0.465,70.951,-7.732,
3872272.000,21.112,-5.333,80.606,0.465,70.951,-7.732,
3872275.000,21.112,-5.333,80.606,0.465,70.951,-7.732,
3872277.000,21.112,-5.333,80.606,0.465,70.951,-7.732,
3872279.000,21.112,-5.333,80.606,0.465,70.951,-7.732,
3872281.000,21.112,-5.333,80.606,0.465,70.951,-7.732,
3872283.000,21.112,-5.333,80.606,0.465,70.951,-7.732,
3872302.000,20.709,-5.736,81.339,0.958,71.058,-9.063,
3872304.000,20.709,-5.736,81.339,0.958,71.058,-9.063,
3872306.000,20.709,-5.736,81.339,0.958,71.058,-9.063,
3872309.000,20.709,-5.736,81.339,0.958,71.058,-9.063,
3872312.000,20.709,-5.736,81.339,0.958,71.058,-9.063,
3872314.000,20.709,-5.736,81.339,0.958,71.058,-9.063,
3872315.000,20.709,-5.736,81.339,0.958,71.058,-9.063,
3872333.000,20.016,-6.407,82.572,1.771,71.266,-11.340,
3872335.000,20.016,-6.407,82.572,1.771,71.266,-11.340,
3872337.000,20.016,-6.407,82.572,1.771,71.266,-11.340,
3872339.000,20.016,-6.407,82.572,1.771,71.266,-11.340,
3872341.000,20.016,-6.407,82.572,1.771,71.266,-11.340,
3872343.000,20.016,-6.407,82.572,1.771,71.266,-11.340,
3872345.000,20.016,-6.407,82.572,1.771,71.266,-11.340,
3872348.000,19.531,-6.863,83.416,2.316,71.428,-12.926,
3872350.000,19.531,-6.863,83.416,2.316,71.428,-12.926,
3872352.000,19.531,-6.863,83.416,2.316,71.428,-12.926,
3872354.000,19.531,-6.863,83.416,2.316,71.428,-12.926,
3872355.000,19.531,-6.863,83.416,2.316,71.428,-12.926,
3872357.000,19.531,-6.863,83.416,2.316,71.428,-12.926,
3872359.000,19.531,-6.863,83.416,2.316,71.428,-12.926,
3872363.000,18.953,-7.390,84.400,2.938,71.637,-14.802,
3872366.000,18.953,-7.390,84.400,2.938,71.637,-14.802,
3872368.000,18.953,-7.390,84.400,2.938,71.637,-14.802,
3872370.000,18.953,-7.390,84.400,2.938,71.637,-14.802,
3872372.000,18.953,-7.390,84.400,2.938,71.637,-14.802,
3872375.000,18.953,-7.390,84.400,2.938,71.637,-14.802,
3872393.000,17.512,-8.641,86.768,4.362,72.227,-19.443,
3872395.000,17.512,-8.641,86.768,4.362,72.227,-19.443,
3872398.000,17.512,-8.641,86.768,4.362,72.227,-19.443,
3872401.000,17.512,-8.641,86.768,4.362,72.227,-19.443,
3872402.000,17.512,-8.641,86.768,4.362,72.227,-19.443,
3872403.000,17.512,-8.641,86.768,4.362,72.227,-19.443,
3872404.000,17.512,-8.641,86.768,4.362,72.227,-19.443,
3872409.000,16.722,-9.288,88.018,5.064,72.587,-21.957,
3872411.000,16.722,-9.288,88.018,5.064,72.587,-21.957,
3872413.000,16.722,-9.288,88.018,5.064,72.587,-21.957,
3872415.000,16.722,-9.288,88.018,5.064,72.587,-21.957,
3872417.000,16.722,-9.288,88.018,5.064,72.587,-21.957,
3872419.000,16.722,-9.288,88.018,5.064,72.587,-21.957,
3872421.000,16.722,-9.288,88.018,5.064,72.587,-21.957,
3872440.000,14.911,-10.681,90.773,6.468,73.485,-27.659,
3872442.000,14.911,-10.681,90.773,6.468,73.485,-27.659,
3872444.000,14.911,-10.681,90.773,6.468,73.485,-27.659,
3872446.000,14.911,-10.681,90.773,6.468,73.485,-27.659,
3872449.000,14.911,-10.681,90.773,6.468,73.485,-27.659,
3872451.000,14.911,-10.681,90.773,6.468,73.485,-27.659,
3872453.000,14.911,-10.681,90.773,6.468,73.485,-27.659,
3872472.000,13.059,-11.987,93.456,7.606,74.479,-33.406,
3872474.000,13.059,-11.987,93.456,7.606,74.479,-33.406,
3872477.000,13.059,-11.987,93.456,7.606,74.479,-33.406,
3872480.000,13.059,-11.987,93.456,7.606,74.479,-33.406,
3872482.000,13.059,-11.987,93.456,7.606,74.479,-33.406,
3872484.000,13.059,-11.987,93.456,7.606,74.479,-33.406,
3872487.000,13.059,-11.987,93.456,7.606,74.479,-33.406,
3872503.000,11.096,-13.253,96.176,8.487,75.576,-39.418,
3872505.000,11.096,-13.253,96.176,8.487,75.576,-39.418,
3872508.000,11.096,-13.253,96.176,8.487,75.576,-39.418,
3872510.000,11.096,-13.253,96.176,8.487,75.576,-39.418,
3872512.000,11.096,-13.253,96.176,8.487,75.576,-39.418,
3872514.000,11.096,-13.253,96.176,8.487,75.576,-39.418,
3872518.000,10.166,-13.814,97.427,8.789,76.099,-42.242,
3872520.000,10.166,-13.814,97.427,8.789,76.099,-42.242,
3872522.000,10.166,-13.814,97.427,8.789,76.099,-42.242,
3872524.000,10.166,-13.814,97.427,8.789,76.099,-42.242,
3872525.000,10.166,-13.814,97.427,8.789,76.099,-42.242,
3872527.000,10.166,-13.814,97.427,8.789,76.099,-42.242,
3872529.000,10.166,-13.814,97.427,8.789,76.099,-42.242,
3872534.000,9.169,-14.389,98.743,9.031,76.655,-45.252,
3872536.000,9.169,-14.389,98.743,9.031,76.655,-45.252,
3872538.000,9.169,-14.389,98.743,9.031,76.655,-45.252,
3872540.000,9.169,-14.389,98.743,9.031,76.655,-45.252,
3872542.000,9.169,-14.389,98.743,9.031,76.655,-45.252,
3872544.000,9.169,-14.389,98.743,9.031,76.655,-45.252,
3872546.000,9.169,-14.389,98.743,9.031,76.655,-45.252,
3872551.000,8.170,-14.938,100.041,9.189,77.203,-48.258,
3872552.000,8.170,-14.938,100.041,9.189,77.203,-48.258,
3872554.000,8.170,-14.938,100.041,9.189,77.203,-48.258,
3872556.000,8.170,-14.938,100.041,9.189,77.203,-48.258,
3872558.000,8.170,-14.938,100.041,9.189,77.203,-48.258,
3872559.000,8.170,-14.938,100.041,9.189,77.203,-48.258,
3872562.000,8.170,-14.938,100.041,9.189,77.203,-48.258,
3872567.000,7.169,-15.464,101.322,9.265,77.738,-51.257,
3872569.000,7.169,-15.464,101.322,9.265,77.738,-51.257,
3872571.000,7.169,-15.464,101.322,9.265,77.738,-51.257,
3872573.000,7.169,-15.464,101.322,9.265,77.738,-51.257,
3872575.000,7.169,-15.464,101.322,9.265,77.738,-51.257,
3872577.000,7.169,-15.464,101.322,9.265,77.738,-51.257,
3872579.000,7.169,-15.464,101.322,9.265,77.738,-51.257,
3872583.000,6.229,-15.935,102.507,9.262,78.221,-54.062,
3872585.000,6.229,-15.935,102.507,9.262,78.221,-54.062,
3872588.000,6.229,-15.935,102.507,9.262,78.221,-54.062,
3872590.000,6.229,-15.935,102.507,9.262,78.221,-54.062,
3872592.000,6.229,-15.935,102.507,9.262,78.221,-54.062,
3872595.000,6.229,-15.935,102.507,9.262,78.221,-54.062,
3872613.000,4.224,-16.869,104.987,9.017,79.172,-60.017,
3872616.000,4.224,-16.869,104.987,9.017,79.172,-60.017,
3872619.000,4.224,-16.869,104.987,9.017,79.172,-60.017,
3872621.000,4.224,-16.869,104.987,9.017,79.172,-60.017,
3872624.000,4.224,-16.869,104.987,9.017,79.172,-60.017,
3872626.000,4.224,-16.869,104.987,9.017,79.172,-60.017,
3872628.000,3.287,-17.274,106.128,8.795,79.572,-62.792,
3872643.000,2.350,-17.659,107.256,8.507,79.936,-65.555,
3872645.000,2.350,-17.659,107.256,8.507,79.936,-65.555,
3872648.000,2.350,-17.659,107.256,8.507,79.936,-65.555,
3872649.000,2.350,-17.659,107.256,8.507,79.936,-65.555,
3872652.000,2.350,-17.659,107.256,8.507,79.936,-65.555,
3872654.000,2.350,-17.659,107.256,8.507,79.936,-65.555,
3872656.000,2.350,-17.659,107.256,8.507,79.936,-65.555,
3872674.000,0.487,-18.368,109.470,7.740,80.544,-71.033,
3872676.000,0.487,-18.368,109.470,7.740,80.544,-71.033,
3872678.000,0.487,-18.368,109.470,7.740,80.544,-71.033,
3872680.000,0.487,-18.368,109.470,7.740,80.544,-71.033,
3872682.000,0.487,-18.368,109.470,7.740,80.544,-71.033,
3872684.000,0.487,-18.368,109.470,7.740,80.544,-71.033,
3872686.000,0.487,-18.368,109.470,7.740,80.544,-71.033,
3872690.000,-0.499,-18.713,110.627,7.236,80.793,-73.921,
3872692.000,-0.499,-18.713,110.627,7.236,80.793,-73.921,
3872694.000,-0.499,-18.713,110.627,7.236,80.793,-73.921,
3872696.000,-0.499,-18.713,110.627,7.236,80.793,-73.921,
3872698.000,-0.499,-18.713,110.627,7.236,80.793,-73.921,
3872700.000,-0.499,-18.713,110.627,7.236,80.793,-73.921,
3872704.000,-0.499,-18.713,110.627,7.236,80.793,-73.921,
3872706.000,-1.417,-19.015,111.694,6.708,80.976,-76.596,
3872708.000,-1.417,-19.015,111.694,6.708,80.976,-76.596,
3872710.000,-1.417,-19.015,111.694,6.708,80.976,-76.596,
3872712.000,-1.417,-19.015,111.694,6.708,80.976,-76.596,
3872714.000,-1.417,-19.015,111.694,6.708,80.976,-76.596,
3872716.000,-1.417,-19.015,111.694,6.708,80.976,-76.596,
3872734.000,-3.215,-19.553,113.763,5.517,81.185,-81.810,
3872735.000,-3.215,-19.553,113.763,5.517,81.185,-81.810,
3872736.000,-3.215,-19.553,113.763,5.517,81.185,-81.810,
3872737.000,-3.215,-19.553,113.763,5.517,81.185,-81.810,
3872738.000,-3.215,-19.553,113.763,5.517,81.185,-81.810,
3872739.000,-3.215,-19.553,113.763,5.517,81.185,-81.810,
3872740.000,-3.215,-19.553,113.763,5.517,81.185,-81.810,
3872751.000,-4.142,-19.802,114.817,4.828,81.210,-84.475,
3872753.000,-4.142,-19.802,114.817,4.828,81.210,-84.475,
3872755.000,-4.142,-19.802,114.817,4.828,81.210,-84.475,
3872757.000,-4.142,-19.802,114.817,4.828,81.210,-84.475,
3872759.000,-4.142,-19.802,114.817,4.828,81.210,-84.475,
3872763.000,-4.142,-19.802,114.817,4.828,81.210,-84.475,
3872765.000,-4.142,-19.802,114.817,4.828,81.210,-84.475,
3872782.000,-5.820,-20.206,116.703,3.463,81.100,-89.257,
3872784.000,-5.820,-20.206,116.703,3.463,81.100,-89.257,
3872786.000,-5.820,-20.206,116.703,3.463,81.100,-89.257,
3872789.000,-5.820,-20.206,116.703,3.463,81.100,-89.257,
3872791.000,-5.820,-20.206,116.703,3.463,81.100,-89.257,
3872793.000,-5.820,-20.206,116.703,3.463,81.100,-89.257,
3872795.000,-5.820,-20.206,116.703,3.463,81.100,-89.257,
3872797.000,-6.592,-20.370,117.563,2.787,80.981,-91.436,
3872798.000,-6.592,-20.370,117.563,2.787,80.981,-91.436,
3872799.000,-6.592,-20.370,117.563,2.787,80.981,-91.436,
3872800.000,-6.592,-20.370,117.563,2.787,80.981,-91.436,
3872813.000,-7.277,-20.505,118.319,2.165,80.837,-93.353,
3872815.000,-7.277,-20.505,118.319,2.165,80.837,-93.353,
3872817.000,-7.277,-20.505,118.319,2.165,80.837,-93.353,
3872819.000,-7.277,-20.505,118.319,2.165,80.837,-93.353,
3872821.000,-7.277,-20.505,118.319,2.165,80.837,-93.353,
3872823.000,-7.277,-20.505,118.319,2.165,80.837,-93.353,
3872825.000,-7.277,-20.505,118.319,2.165,80.837,-93.353,
3872843.000,-8.274,-20.681,119.412,1.223,80.562,-96.122,
3872845.000,-8.274,-20.681,119.412,1.223,80.562,-96.122,
3872847.000,-8.274,-20.681,119.412,1.223,80.562,-96.122,
3872849.000,-8.274,-20.681,119.412,1.223,80.562,-96.122,
3872851.000,-8.274,-20.681,119.412,1.223,80.562,-96.122,
3872854.000,-8.274,-20.681,119.412,1.223,80.562,-96.122,
3872856.000,-8.274,-20.681,119.412,1.223,80.562,-96.122,
3872874.000,-8.895,-20.779,120.086,0.617,80.353,-97.828,
3872876.000,-8.895,-20.779,120.086,0.617,80.353,-97.828,
3872877.000,-8.895,-20.779,120.086,0.617,80.353,-97.828,
3872880.000,-8.895,-20.779,120.086,0.617,80.353,-97.828,
3872882.000,-8.895,-20.779,120.086,0.617,80.353,-97.828,
3872885.000,-8.895,-20.779,120.086,0.617,80.353,-97.828,
3872887.000,-8.895,-20.779,120.086,0.617,80.353,-97.828,
3872905.000,-9.234,-20.829,120.453,0.280,80.225,-98.754,
3872907.000,-9.234,-20.829,120.453,0.280,80.225,-98.754,
3872909.000,-9.234,-20.829,120.453,0.280,80.225,-98.754,
3872911.000,-9.234,-20.829,120.453,0.280,80.225,-98.754,
3872913.000,-9.234,-20.829,120.453,0.280,80.225,-98.754,
3872915.000,-9.234,-20.829,120.453,0.280,80.225,-98.754,
3872917.000,-9.234,-20.829,120.453,0.280,80.225,-98.754,
3872920.000,-9.327,-20.842,120.553,0.187,80.189,-99.007,
3872922.000,-9.327,-20.842,120.553,0.187,80.189,-99.007,
3872924.000,-9.327,-20.842,120.553,0.187,80.189,-99.007,
3872926.000,-9.327,-20.842,120.553,0.187,80.189,-99.007,
3872929.000,-9.327,-20.842,120.553,0.187,80.189,-99.007,
3872931.000,-9.327,-20.842,120.553,0.187,80.189,-99.007,
3872949.000,-9.390,-20.850,120.621,0.124,80.163,-99.178,
3872951.000,-9.432,-20.856,120.666,0.081,80.146,-99.293,
3872953.000,-9.432,-20.856,120.666,0.081,80.146,-99.293,
3872955.000,-9.432,-20.856,120.666,0.081,80.146,-99.293,
3872957.000,-9.432,-20.856,120.666,0.081,80.146,-99.293,
3872960.000,-9.432,-20.856,120.666,0.081,80.146,-99.293,
3872962.000,-9.432,-20.856,120.666,0.081,80.146,-99.293,
3872980.000,-9.480,-20.863,120.718,0.033,80.127,-99.424,
3872982.000,-9.480,-20.863,120.718,0.033,80.127,-99.424,
3872984.000,-9.480,-20.863,120.718,0.033,80.127,-99.424,
3872986.000,-9.480,-20.863,120.718,0.033,80.127,-99.424,
3872987.000,-9.480,-20.863,120.718,0.033,80.127,-99.424,
3872989.000,-9.480,-20.863,120.718,0.033,80.127,-99.424,
3872991.000,-9.480,-20.863,120.718,0.033,80.127,-99.424,
3872996.000,-9.493,-20.865,120.732,0.020,80.122,-99.458,
3872998.000,-9.493,-20.865,120.732,0.020,80.122,-99.458,
3873000.000,-9.493,-20.865,120.732,0.020,80.122,-99.458,
3873002.000,-9.493,-20.865,120.732,0.020,80.122,-99.458,
3873004.000,-9.493,-20.865,120.732,0.020,80.122,-99.458,
3873007.000,-9.493,-20.865,120.732,0.020,80.122,-99.458,
3873009.000,-9.493,-20.865,120.732,0.020,80.122,-99.458,
3873013.000,-9.501,-20.866,120.740,0.012,80.118,-99.480,
3873015.000,-9.501,-20.866,120.740,0.012,80.118,-99.480,
3873017.000,-9.501,-20.866,120.740,0.012,80.118,-99.480,
3873019.000,-9.501,-20.866,120.740,0.012,80.118,-99.480,
3873021.000,-9.501,-20.866,120.740,0.012,80.118,-99.480,
3873023.000,-9.501,-20.866,120.740,0.012,80.118,-99.480,
3873025.000,-9.501,-20.866,120.740,0.012,80.118,-99.480,
3873043.000,-9.509,-20.867,120.749,0.004,80.115,-99.502,
3873046.000,-9.509,-20.867,120.749,0.004,80.115,-99.502,
3873048.000,-9.509,-20.867,120.749,0.004,80.115,-99.502,
3873051.000,-9.509,-20.867,120.749,0.004,80.115,-99.502,
3873053.000,-9.509,-20.867,120.749,0.004,80.115,-99.502,
3873056.000,-9.509,-20.867,120.749,0.004,80.115,-99.502,
3873072.000,-9.513,-20.867,120.753,0.000,80.113,-99.512,
3873074.000,-9.513,-20.867,120.753,0.000,80.113,-99.512,
3873076.000,-9.513,-20.867,120.753,0.000,80.113,-99.512,
3873078.000,-9.513,-20.867,120.753,0.000,80.113,-99.512,
3873080.000,-9.513,-20.867,120.753,0.000,80.113,-99.512,
3873082.000,-9.513,-20.867,120.753,0.000,80.113,-99.512,
3873084.000,-9.513,-20.867,120.753,0.000,80.113,-99.512,
3873088.000,-9.514,-20.867,120.754,0.000,80.113,-99.514,
3873090.000,-9.514,-20.867,120.754,0.000,80.113,-99.514,
3873092.000,-9.514,-20.867,120.754,0.000,80.113,-99.514,
3873094.000,-9.514,-20.867,120.754,0.000,80.113,-99.514,
3873097.000,-9.514,-20.867,120.754,0.000,80.113,-99.514,
3873099.000,-9.514,-20.867,120.754,0.000,80.113,-99.514,
3873101.000,-9.514,-20.867,120.754,0.000,80.113,-99.514,
3873119.000,-9.514,-20.870,120.755,0.000,80.114,-99.514,
3873121.000,-9.514,-20.870,120.755,0.000,80.114,-99.514,
3873123.000,-9.514,-20.870,120.755,0.000,80.114,-99.514,
3873126.000,-9.514,-20.870,120.755,0.000,80.114,-99.514,
3873128.000,-9.514,-20.870,120.755,0.000,80.114,-99.514,
3873130.000,-9.514,-20.870,120.755,0.000,80.114,-99.514,
3873134.000,-9.515,-20.873,120.758,0.000,80.115,-99.515,
3873136.000,-9.515,-20.873,120.758,0.000,80.115,-99.515,
3873138.000,-9.515,-20.873,120.758,0.000,80.115,-99.515,
3873140.000,-9.515,-20.873,120.758,0.000,80.115,-99.515,
3873142.000,-9.515,-20.873,120.758,0.000,80.115,-99.515,
3873144.000,-9.515,-20.873,120.758,0.000,80.115,-99.515,
3873146.000,-9.515,-20.873,120.758,0.000,80.115,-99.515,
3873151.000,-9.516,-20.879,120.761,0.000,80.117,-99.516,
3873153.000,-9.516,-20.879,120.761,0.000,80.117,-99.516,
3873155.000,-9.516,-20.879,120.761,0.000,80.117,-99.516,
3873158.000,-9.516,-20.879,120.761,0.000,80.117,-99.516,
3873159.000,-9.516,-20.879,120.761,0.000,80.117,-99.516,
3873162.000,-9.516,-20.879,120.761,0.000,80.117,-99.516,
3873166.000,-9.517,-20.886,120.766,0.000,80.119,-99.517,
3873168.000,-9.517,-20.886,120.766,0.000,80.119,-99.517,
3873171.000,-9.517,-20.886,120.766,0.000,80.119,-99.517,
3873173.000,-9.517,-20.886,120.766,0.000,80.119,-99.517,
3873176.000,-9.517,-20.886,120.766,0.000,80.119,-99.517,
3873178.000,-9.517,-20.886,120.766,0.000,80.119,-99.517,
3873180.000,-9.517,-20.886,120.766,0.000,80.119,-99.517,
3873198.000,-9.522,-20.910,120.782,0.000,80.127,-99.522,
3873201.000,-9.522,-20.910,120.782,0.000,80.127,-99.522,
3873203.000,-9.522,-20.910,120.782,0.000,80.127,-99.522,
3873206.000,-9.522,-20.910,120.782,0.000,80.127,-99.522,
3873209.000,-9.522,-20.910,120.782,0.000,80.127,-99.522,
3873211.000,-9.522,-20.910,120.782,0.000,80.127,-99.522,
3873228.000,-9.531,-20.956,120.813,0.000,80.142,-99.531,
3873230.000,-9.531,-20.956,120.813,0.000,80.142,-99.531,
3873232.000,-9.531,-20.956,120.813,0.000,80.142,-99.531,
3873234.000,-9.531,-20.956,120.813,0.000,80.142,-99.531,
3873236.000,-9.531,-20.956,120.813,0.000,80.142,-99.531,
3873238.000,-9.531,-20.956,120.813,0.000,80.142,-99.531,
3873241.000,-9.531,-20.956,120.813,0.000,80.142,-99.531,
3873243.000,-9.538,-20.992,120.838,0.000,80.153,-99.538,
3873244.000,-9.538,-20.992,120.838,0.000,80.153,-99.538,
3873245.000,-9.538,-20.992,120.838,0.000,80.153,-99.538,
3873246.000,-9.538,-20.992,120.838,0.000,80.153,-99.538,
3873258.000,-9.547,-21.041,120.871,0.000,80.169,-99.547,
3873260.000,-9.547,-21.041,120.871,0.000,80.169,-99.547,
3873263.000,-9.547,-21.041,120.871,0.000,80.169,-99.547,
3873265.000,-9.547,-21.041,120.871,0.000,80.169,-99.547,
3873267.000,-9.547,-21.041,120.871,0.000,80.169,-99.547,
3873269.000,-9.547,-21.041,120.871,0.000,80.169,-99.547,
3873271.000,-9.547,-21.041,120.871,0.000,80.169,-99.547,
3873274.000,-9.560,-21.109,120.917,0.000,80.191,-99.560,
3873276.000,-9.560,-21.109,120.917,0.000,80.191,-99.560,
3873279.000,-9.560,-21.109,120.917,0.000,80.191,-99.560,
3873281.000,-9.560,-21.109,120.917,0.000,80.191,-99.560,
3873283.000,-9.560,-21.109,120.917,0.000,80.191,-99.560,
3873286.000,-9.560,-21.109,120.917,0.000,80.191,-99.560,
3873304.000,-9.605,-21.337,121.071,0.000,80.266,-99.605,
3873306.000,-9.605,-21.337,121.071,0.000,80.266,-99.605,
3873308.000,-9.605,-21.337,121.071,0.000,80.266,-99.605,
3873310.000,-9.605,-21.337,121.071,0.000,80.266,-99.605,
3873312.000,-9.605,-21.337,121.071,0.000,80.266,-99.605,
3873314.000,-9.605,-21.337,121.071,0.000,80.266,-99.605,
3873316.000,-9.605,-21.337,121.071,0.000,80.266,-99.605,
3873319.000,-9.639,-21.512,121.188,0.000,80.323,-99.639,
3873321.000,-9.639,-21.512,121.188,0.000,80.323,-99.639,
3873323.000,-9.639,-21.512,121.188,0.000,80.323,-99.639,
3873325.000,-9.639,-21.512,121.188,0.000,80.323,-99.639,
3873327.000,-9.639,-21.512,121.188,0.000,80.323,-99.639,
3873329.000,-9.639,-21.512,121.188,0.000,80.323,-99.639,
3873335.000,-9.689,-21.765,121.357,0.000,80.407,-99.689,
3873337.000,-9.689,-21.765,121.357,0.000,80.407,-99.689,
3873339.000,-9.689,-21.765,121.357,0.000,80.407,-99.689,
3873341.000,-9.689,-21.765,121.357,0.000,80.407,-99.689,
3873343.000,-9.689,-21.765,121.357,0.000,80.407,-99.689,
3873346.000,-9.689,-21.765,121.357,0.000,80.407,-99.689,
3873347.000,-9.689,-21.765,121.357,0.000,80.407,-99.689,
3873352.000,-9.757,-22.108,121.585,0.000,80.523,-99.757,
3873354.000,-9.757,-22.108,121.585,0.000,80.523,-99.757,
3873356.000,-9.757,-22.108,121.585,0.000,80.523,-99.757,
3873358.000,-9.757,-22.108,121.585,0.000,80.523,-99.757,
3873360.000,-9.757,-22.108,121.585,0.000,80.523,-99.757,
3873363.000,-9.757,-22.108,121.585,0.000,80.523,-99.757,
3873367.000,-9.850,-22.568,121.887,0.000,80.681,-99.850,
3873369.000,-9.850,-22.568,121.887,0.000,80.681,-99.850,
3873370.000,-9.850,-22.568,121.887,0.000,80.681,-99.850,
3873372.000,-9.850,-22.568,121.887,0.000,80.681,-99.850,
3873374.000,-9.850,-22.568,121.887,0.000,80.681,-99.850,
3873376.000,-9.850,-22.568,121.887,0.000,80.681,-99.850,
3873378.000,-9.850,-22.568,121.887,0.000,80.681,-99.850,
3873383.000,-9.965,-23.131,122.253,0.000,80.878,-99.965,
3873385.000,-9.965,-23.131,122.253,0.000,80.878,-99.965,
3873387.000,-9.965,-23.131,122.253,0.000,80.878,-99.965,
3873389.000,-9.965,-23.131,122.253,0.000,80.878,-99.965,
3873392.000,-9.965,-23.131,122.253,0.000,80.878,-99.965,
3873394.000,-9.965,-23.131,122.253,0.000,80.878,-99.965,
3873399.000,-10.138,-23.955,122.781,0.000,81.174,-100.138,
3873400.000,-10.138,-23.955,122.781,0.000,81.174,-100.138,
3873402.000,-10.138,-23.955,122.781,0.000,81.174,-100.138,
3873405.000,-10.138,-23.955,122.781,0.000,81.174,-100.138,
3873407.000,-10.138,-23.955,122.781,0.000,81.174,-100.138,
3873410.000,-10.138,-23.955,122.781,0.000,81.174,-100.138,
3873413.000,-10.138,-23.955,122.781,0.000,81.174,-100.138,
3873430.000,-10.584,-25.978,124.037,0.000,81.941,-100.584,
3873432.000,-10.584,-25.978,124.037,0.000,81.941,-100.584,
3873435.000,-10.584,-25.978,124.037,0.000,81.941,-100.584,
3873438.000,-10.584,-25.978,124.037,0.000,81.941,-100.584,
3873440.000,-10.584,-25.978,124.037,0.000,81.941,-100.584,
3873443.000,-10.584,-25.978,124.037,0.000,81.941,-100.584,
3873459.000,-11.263,-28.804,125.697,0.000,83.106,-101.263,
3873461.000,-11.263,-28.804,125.697,0.000,83.106,-101.263,
3873463.000,-11.263,-28.804,125.697,0.000,83.106,-101.263,
3873466.000,-11.263,-28.804,125.697,0.000,83.106,-101.263,
3873468.000,-11.263,-28.804,125.697,0.000,83.106,-101.263,
3873470.000,-11.263,-28.804,125.697,0.000,83.106,-101.263,
3873472.000,-11.263,-28.804,125.697,0.000,83.106,-101.263,
3873475.000,-11.709,-30.513,126.649,0.000,83.863,-101.709,
3873478.000,-11.709,-30.513,126.649,0.000,83.863,-101.709,
3873480.000,-11.709,-30.513,126.649,0.000,83.863,-101.709,
3873482.000,-11.709,-30.513,126.649,0.000,83.863,-101.709,
3873484.000,-11.709,-30.513,126.649,0.000,83.863,-101.709,
3873486.000,-11.709,-30.513,126.649,0.000,83.863,-101.709,
3873490.000,-12.274,-32.534,127.726,0.000,84.807,-102.274,
3873492.000,-12.274,-32.534,127.726,0.000,84.807,-102.274,
3873494.000,-12.274,-32.534,127.726,0.000,84.807,-102.274,
3873496.000,-12.274,-32.534,127.726,0.000,84.807,-102.274,
3873498.000,-12.274,-32.534,127.726,0.000,84.807,-102.274,
3873500.000,-12.274,-32.534,127.726,0.000,84.807,-102.274,
3873501.000,-12.274,-32.534,127.726,0.000,84.807,-102.274,
3873506.000,-12.900,-34.595,128.771,0.000,85.823,-102.900,
3873508.000,-12.900,-34.595,128.771,0.000,85.823,-102.900,
3873510.000,-12.900,-34.595,128.771,0.000,85.823,-102.900,
3873512.000,-12.900,-34.595,128.771,0.000,85.823,-102.900,
3873514.000,-12.900,-34.595,128.771,0.000,85.823,-102.900,
3873516.000,-12.900,-34.595,128.771,0.000,85.823,-102.900,
3873521.000,-13.684,-36.949,129.900,0.000,87.049,-103.684,
3873522.000,-13.684,-36.949,129.900,0.000,87.049,-103.684,
3873524.000,-13.684,-36.949,129.900,0.000,87.049,-103.684,
3873526.000,-13.684,-36.949,129.900,0.000,87.049,-103.684,
3873528.000,-13.684,-36.949,129.900,0.000,87.049,-103.684,
3873530.000,-13.684,-36.949,129.900,0.000,87.049,-103.684,
3873532.000,-13.684,-36.949,129.900,0.000,87.049,-103.684,
3873536.000,-14.544,-39.283,130.952,0.000,88.330,-104.544,
3873538.000,-14.544,-39.283,130.952,0.000,88.330,-104.544,
3873540.000,-14.544,-39.283,130.952,0.000,88.330,-104.544,
3873542.000,-14.544,-39.283,130.952,0.000,88.330,-104.544,
3873544.000,-14.544,-39.283,130.952,0.000,88.330,-104.544,
3873546.000,-14.544,-39.283,130.952,0.000,88.330,-104.544,
3873552.000,-15.622,-41.887,132.050,0.000,89.836,-105.622,
3873553.000,-15.622,-41.887,132.050,0.000,89.836,-105.622,
3873555.000,-15.622,-41.887,132.050,0.000,89.836,-105.622,
3873558.000,-15.622,-41.887,132.050,0.000,89.836,-105.622,
3873560.000,-15.622,-41.887,132.050,0.000,89.836,-105.622,
3873563.000,-15.622,-41.887,132.050,0.000,89.836,-105.622,
3873565.000,-15.622,-41.887,132.050,0.000,89.836,-105.622,
3873568.000,-16.813,-44.420,133.043,0.000,91.376,-106.813,
3873570.000,-16.813,-44.420,133.043,0.000,91.376,-106.813,
3873572.000,-16.813,-44.420,133.043,0.000,91.376,-106.813,
3873574.000,-16.813,-44.420,133.043,0.000,91.376,-106.813,
3873576.000,-16.813,-44.420,133.043,0.000,91.376,-106.813,
3873578.000,-16.813,-44.420,133.043,0.000,91.376,-106.813,
3873582.000,-18.221,-47.027,133.990,0.000,93.037,-108.221,
3873585.000,-18.221,-47.027,133.990,0.000,93.037,-108.221,
3873587.000,-18.221,-47.027,133.990,0.000,93.037,-108.221,
3873589.000,-18.221,-47.027,133.990,0.000,93.037,-108.221,
3873592.000,-18.221,-47.027,133.990,0.000,93.037,-108.221,
3873594.000,-18.221,-47.027,133.990,0.000,93.037,-108.221,
3873595.000,-18.221,-47.027,133.990,0.000,93.037,-108.221,
3873599.000,-20.026,-49.876,134.939,0.000,94.936,-110.026,
3873602.000,-20.026,-49.876,134.939,0.000,94.936,-110.026,
3873604.000,-20.026,-49.876,134.939,0.000,94.936,-110.026,
3873606.000,-20.026,-49.876,134.939,0.000,94.936,-110.026,
3873609.000,-20.026,-49.876,134.939,0.000,94.936,-110.026,
3873611.000,-20.026,-49.876,134.939,0.000,94.936,-110.026,
3873614.000,-22.241,-52.778,135.816,0.000,96.961,-112.241,
3873616.000,-22.241,-52.778,135.816,0.000,96.961,-112.241,
3873618.000,-22.241,-52.778,135.816,0.000,96.961,-112.241,
3873620.000,-22.241,-52.778,135.816,0.000,96.961,-112.241,
3873623.000,-22.241,-52.778,135.816,0.000,96.961,-112.241,
3873625.000,-22.241,-52.778,135.816,0.000,96.961,-112.241,
3873627.000,-22.241,-52.778,135.816,0.000,96.961,-112.241,
3873645.000,-28.311,-58.494,137.286,0.000,101.208,-118.311,
3873648.000,-29.076,-59.050,137.411,0.000,101.639,-119.076,
3873650.000,-29.608,-59.420,137.492,0.000,101.928,-119.608,
3873652.000,-30.160,-59.791,137.572,0.000,102.218,-120.160,
3873655.000,-30.733,-60.161,137.651,0.000,102.510,-120.733,
3873656.000,-31.326,-60.531,137.728,0.000,102.803,-121.326,
3873659.000,-32.260,-61.086,137.841,0.000,103.245,-122.260,
3873661.000,-32.912,-61.455,137.914,0.000,103.541,-122.912,
3873664.000,-33.940,-62.008,138.021,0.000,103.986,-123.940,
3873666.000,-34.660,-62.377,138.091,0.000,104.285,-124.660,
3873668.000,-35.409,-62.744,138.159,0.000,104.585,-125.409,
3873669.000,-35.796,-62.928,138.193,0.000,104.735,-125.796,
3873671.000,-36.593,-63.295,138.259,0.000,105.036,-126.593,
3873673.000,-37.425,-63.661,138.323,0.000,105.337,-127.425,
3873675.000,-38.294,-64.026,138.386,0.000,105.640,-128.294,
3873677.000,-39.201,-64.390,138.447,0.000,105.943,-129.201,
3873679.000,-40.149,-64.753,138.507,0.000,106.246,-130.149,
3873681.000,-41.141,-65.116,138.565,0.000,106.550,-131.141,
3873683.000,-42.180,-65.477,138.622,0.000,106.854,-132.180,
3873685.000,-43.268,-65.836,138.677,0.000,107.159,-133.268,
3873687.000,-44.409,-66.195,138.730,0.000,107.464,-134.409,
3873689.000,-45.607,-66.551,138.782,0.000,107.769,-135.607,
3873691.000,-46.865,-66.906,138.833,0.000,108.073,-136.865,
3873693.000,-48.187,-67.260,138.881,0.000,108.378,-138.187,
3873694.000,-48.874,-67.435,138.905,0.000,108.530,-138.874,
3873697.000,-51.042,-67.960,138.974,0.000,108.985,-141.042,
3873699.000,-52.584,-68.306,139.018,0.000,109.288,-142.584,
3873701.000,-54.210,-68.650,139.060,0.000,109.589,-144.210,
3873703.000,-55.926,-68.991,139.101,0.000,109.890,-145.926,
3873705.000,-57.737,-69.329,139.140,0.000,110.188,-147.737,
3873707.000,-59.649,-69.663,139.177,0.000,110.485,-149.649,
3873709.000,-61.669,-69.993,139.213,0.000,110.780,-151.669,
3873711.000,-63.805,-70.320,139.248,0.000,111.072,-153.805,
3873713.000,-66.062,-70.641,139.280,0.000,111.360,-156.062,
3873715.000,-68.448,-70.957,139.311,0.000,111.646,-158.448,
3873716.000,-69.691,-71.113,139.326,0.000,111.787,-159.691,
3873719.000,-73.632,-71.572,139.368,0.000,112.203,-163.632,
3873720.000,-73.632,-71.572,139.368,0.000,112.203,-163.632,
3873723.000,-79.404,-72.157,139.418,0.000,112.739,-169.404,
3873725.000,-82.520,-72.437,139.441,0.000,112.996,-172.520,
3873727.000,-85.791,-72.707,139.462,0.000,113.244,-175.791,
3873729.000,-89.215,-72.965,139.481,0.000,113.483,-179.215,
3873732.000,-94.623,-73.328,139.507,0.000,113.820,-184.623,
3873733.000,-94.623,-73.328,139.507,0.000,113.820,-184.623,
3873736.000,-102.274,-73.757,139.536,0.000,114.221,-192.274,
3873738.000,-106.242,-73.944,139.547,0.000,114.396,-196.242,
3873740.000,-110.267,-74.110,139.558,0.000,114.552,-200.267,
3873742.000,-114.313,-74.253,139.566,0.000,114.686,-204.313,
3873744.000,-118.340,-74.370,139.573,0.000,114.797,-208.340,
3873745.000,-120.333,-74.419,139.576,0.000,114.843,-210.333,
3873747.000,-124.252,-74.495,139.580,0.000,114.915,-214.252,
3873749.000,-128.046,-74.542,139.582,0.000,114.959,-218.046,
3873752.000,-133.424,-74.555,139.583,0.000,114.971,-223.424,
3873754.000,-136.758,-74.525,139.581,0.000,114.943,-226.758,
3873756.000,-139.867,-74.466,139.578,0.000,114.887,-229.867,
3873757.000,-141.334,-74.425,139.576,0.000,114.849,-231.334,
3873758.000,-142.743,-74.378,139.573,0.000,114.804,-232.743,
3873761.000,-146.619,-74.195,139.563,0.000,114.632,-236.619,
3873763.000,-148.921,-74.042,139.553,0.000,114.488,-238.921,
3873767.000,-152.906,-73.671,139.530,0.000,114.141,-242.906,
3873769.000,-154.622,-73.458,139.516,0.000,113.941,-244.622,
3873771.000,-156.174,-73.228,139.500,0.000,113.727,-246.174,
3873772.000,-156.174,-73.228,139.500,0.000,113.727,-246.174,
3873775.000,-158.856,-72.726,139.463,0.000,113.262,-248.856,
3873777.000,-160.015,-72.457,139.442,0.000,113.014,-250.015,
3873779.000,-161.069,-72.178,139.420,0.000,112.758,-251.069,
3873781.000,-162.030,-71.890,139.396,0.000,112.494,-252.030,
3873784.000,-163.320,-71.443,139.356,0.000,112.086,-253.320,
3873785.000,-163.714,-71.290,139.342,0.000,111.948,-253.714,
3873787.000,-164.453,-70.980,139.313,0.000,111.667,-254.453,
3873789.000,-165.133,-70.665,139.282,0.000,111.382,-255.133,
3873791.000,-165.761,-70.344,139.250,0.000,111.093,-255.761,
3873794.000,-166.616,-69.853,139.198,0.000,110.654,-256.616,
3873796.000,-167.134,-69.521,139.162,0.000,110.359,-257.134,
3873798.000,-167.616,-69.185,139.124,0.000,110.061,-257.616,
3873799.000,-167.845,-69.016,139.104,0.000,109.912,-257.845,
3873802.000,-168.485,-68.504,139.042,0.000,109.461,-258.485,
3873804.000,-168.877,-68.159,138.999,0.000,109.159,-258.877,
3873806.000,-169.244,-67.811,138.955,0.000,108.856,-259.244,
3873808.000,-169.589,-67.461,138.909,0.000,108.552,-259.589,
3873810.000,-169.914,-67.109,138.861,0.000,108.248,-259.914,
3873812.000,-170.219,-66.755,138.811,0.000,107.944,-260.219,
3873814.000,-170.507,-66.400,138.760,0.000,107.639,-260.507,
3873816.000,-170.779,-66.042,138.708,0.000,107.334,-260.779,
3873819.000,-171.160,-65.503,138.626,0.000,106.877,-261.160,
3873821.000,-171.397,-65.142,138.569,0.000,106.573,-261.397,
3873823.000,-171.623,-64.780,138.511,0.000,106.269,-261.623,
3873825.000,-171.837,-64.417,138.452,0.000,105.965,-261.837,
3873826.000,-171.837,-64.417,138.452,0.000,105.965,-261.837,
3873829.000,-172.234,-63.688,138.328,0.000,105.360,-262.234,
3873832.000,-172.508,-63.139,138.231,0.000,104.907,-262.508,
3873834.000,-172.681,-62.771,138.164,0.000,104.607,-262.681,
3873836.000,-172.845,-62.404,138.096,0.000,104.307,-262.845,
3873839.000,-173.079,-61.851,137.991,0.000,103.860,-263.079,
3873840.000,-173.079,-61.851,137.991,0.000,103.860,-263.079,
3873842.000,-173.299,-61.298,137.883,0.000,103.414,-263.299,
3873845.000,-173.504,-60.743,137.771,0.000,102.972,-263.504,
3873847.000,-173.635,-60.373,137.695,0.000,102.678,-263.635,
3873849.000,-173.760,-60.003,137.617,0.000,102.385,-263.760,
3873852.000,-173.939,-59.448,137.498,0.000,101.949,-263.939,
3873853.000,-173.997,-59.262,137.458,0.000,101.804,-263.997,
3873855.000,-174.109,-58.892,137.376,0.000,101.516,-264.109,
3873857.000,-174.216,-58.521,137.292,0.000,101.229,-264.216,
3873859.000,-174.320,-58.151,137.207,0.000,100.943,-264.320,
3873862.000,-174.469,-57.595,137.077,0.000,100.517,-264.469,
3873865.000,-174.610,-57.040,136.944,0.000,100.095,-264.610,
3873867.000,-174.700,-56.670,136.854,0.000,99.815,-264.700,
3873870.000,-174.830,-56.115,136.716,0.000,99.399,-264.830,
3873872.000,-174.913,-55.746,136.622,0.000,99.123,-264.913,
3873874.000,-174.994,-55.377,136.527,0.000,98.849,-264.994,
3873876.000,-175.072,-55.008,136.430,0.000,98.577,-265.072,
3873879.000,-175.184,-54.455,136.283,0.000,98.172,-265.184,
3873882.000,-175.291,-53.904,136.133,0.000,97.771,-265.291,
3873883.000,-175.326,-53.721,136.082,0.000,97.638,-265.326,
3873886.000,-175.427,-53.171,135.928,0.000,97.242,-265.427,
3873888.000,-175.492,-52.805,135.824,0.000,96.980,-265.492,
3873890.000,-175.555,-52.440,135.719,0.000,96.720,-265.555,
3873892.000,-175.616,-52.075,135.612,0.000,96.462,-265.616,
3873895.000,-175.705,-51.529,135.450,0.000,96.079,-265.705,
3873897.000,-175.762,-51.166,135.340,0.000,95.825,-265.762,
3873898.000,-175.790,-50.985,135.285,0.000,95.700,-265.790,
3873901.000,-175.872,-50.443,135.118,0.000,95.325,-265.872,
3873904.000,-175.951,-49.902,134.948,0.000,94.954,-265.951,
3873906.000,-176.001,-49.543,134.833,0.000,94.710,-266.001,
3873908.000,-176.051,-49.184,134.717,0.000,94.467,-266.051,
3873910.000,-176.099,-48.827,134.600,0.000,94.226,-266.099,
3873911.000,-176.123,-48.648,134.541,0.000,94.107,-266.123,
3873915.000,-176.214,-47.937,134.303,0.000,93.634,-266.214,
3873917.000,-176.258,-47.583,134.182,0.000,93.400,-266.258,
3873919.000,-176.301,-47.230,134.060,0.000,93.169,-266.301,
3873922.000,-176.364,-46.702,133.876,0.000,92.825,-266.364,
3873924.000,-176.404,-46.352,133.752,0.000,92.599,-266.404,
3873925.000,-176.424,-46.177,133.690,0.000,92.487,-266.424,
3873926.000,-176.444,-46.002,133.627,0.000,92.375,-266.444,
3873930.000,-176.520,-45.307,133.374,0.000,91.933,-266.520,
3873932.000,-176.557,-44.962,133.246,0.000,91.715,-266.557,
3873935.000,-176.611,-44.446,133.053,0.000,91.392,-266.611,
3873937.000,-176.646,-44.103,132.923,0.000,91.180,-266.646,
3873939.000,-176.680,-43.762,132.792,0.000,90.969,-266.680,
3873940.000,-176.696,-43.592,132.727,0.000,90.865,-266.696,
3873943.000,-176.746,-43.084,132.529,0.000,90.555,-266.746,
3873944.000,-176.762,-42.916,132.462,0.000,90.453,-266.762,
3873947.000,-176.809,-42.412,132.262,0.000,90.149,-266.809,
3873950.000,-176.854,-41.912,132.060,0.000,89.851,-266.854,
3873952.000,-176.884,-41.580,131.925,0.000,89.655,-266.884,
3873954.000,-176.913,-41.250,131.789,0.000,89.461,-266.913,
3873956.000,-176.913,-41.250,131.789,0.000,89.461,-266.913,
3873957.000,-176.955,-40.759,131.584,0.000,89.174,-266.955,
3873960.000,-176.982,-40.433,131.447,0.000,88.985,-266.982,
3873961.000,-177.009,-40.109,131.309,0.000,88.799,-267.009,
3873964.000,-177.048,-39.626,131.102,0.000,88.524,-267.048,
3873966.000,-177.074,-39.307,130.963,0.000,88.343,-267.074,
3873967.000,-177.086,-39.148,130.893,0.000,88.254,-267.086,
3873972.000,-177.147,-38.359,130.544,0.000,87.815,-267.147,
3873974.000,-177.170,-38.047,130.403,0.000,87.644,-267.170,
3873976.000,-177.193,-37.738,130.263,0.000,87.474,-267.193,
3873979.000,-177.227,-37.277,130.052,0.000,87.224,-267.227,
3873980.000,-177.238,-37.124,129.981,0.000,87.142,-267.238,
3873981.000,-177.249,-36.972,129.911,0.000,87.061,-267.249,
3873984.000,-177.280,-36.519,129.699,0.000,86.820,-267.280,
3873987.000,-177.311,-36.071,129.487,0.000,86.584,-267.311,
3873989.000,-177.331,-35.775,129.346,0.000,86.429,-267.331,
3873991.000,-177.351,-35.482,129.205,0.000,86.277,-267.351,
3873993.000,-177.370,-35.191,129.064,0.000,86.127,-267.370,
3873994.000,-177.380,-35.046,128.993,0.000,86.053,-267.380,
3873997.000,-177.408,-34.616,128.782,0.000,85.834,-267.408,
3873999.000,-177.426,-34.332,128.641,0.000,85.691,-267.426,
3874002.000,-177.452,-33.912,128.431,0.000,85.480,-267.452,
3874004.000,-177.469,-33.635,128.291,0.000,85.343,-267.469,
3874005.000,-177.478,-33.497,128.221,0.000,85.275,-267.478,
3874006.000,-177.486,-33.360,128.152,0.000,85.208,-267.486,
3874009.000,-177.511,-32.954,127.944,0.000,85.009,-267.511,
3874012.000,-177.534,-32.553,127.737,0.000,84.816,-267.534,
3874014.000,-177.550,-32.290,127.599,0.000,84.690,-267.550,
3874016.000,-177.565,-32.030,127.463,0.000,84.566,-267.565,
3874017.000,-177.565,-32.030,127.463,0.000,84.566,-267.565,
3874018.000,-177.572,-31.900,127.395,0.000,84.505,-267.572,
3874021.000,-177.601,-31.392,127.124,0.000,84.267,-267.601,
3874023.000,-177.615,-31.142,126.990,0.000,84.151,-267.615,
3874026.000,-177.636,-30.773,126.791,0.000,83.981,-267.636,
3874028.000,-177.649,-30.531,126.659,0.000,83.871,-267.649,
3874030.000,-177.662,-30.292,126.528,0.000,83.763,-267.662,
3874031.000,-177.668,-30.174,126.463,0.000,83.710,-267.668,
3874034.000,-177.687,-29.824,126.270,0.000,83.553,-267.687,
3874037.000,-177.705,-29.482,126.079,0.000,83.402,-267.705,
3874039.000,-177.717,-29.258,125.954,0.000,83.304,-267.717,
3874041.000,-177.728,-29.037,125.829,0.000,83.207,-267.728,
3874042.000,-177.733,-28.928,125.768,0.000,83.160,-267.733,
3874043.000,-177.739,-28.820,125.706,0.000,83.113,-267.739,
3874046.000,-177.755,-28.501,125.524,0.000,82.976,-267.755,
3874050.000,-177.776,-28.088,125.286,0.000,82.801,-267.776,
3874052.000,-177.786,-27.886,125.170,0.000,82.716,-267.786,
3874053.000,-177.791,-27.787,125.112,0.000,82.675,-267.791,
3874054.000,-177.796,-27.689,125.055,0.000,82.634,-267.796,
3874055.000,-177.800,-27.591,124.998,0.000,82.593,-267.800,
3874057.000,-177.810,-27.399,124.885,0.000,82.513,-267.810,
3874061.000,-177.828,-27.025,124.664,0.000,82.360,-267.828,
3874063.000,-177.836,-26.843,124.556,0.000,82.286,-267.836,
3874065.000,-177.845,-26.665,124.450,0.000,82.214,-267.845,
3874066.000,-177.849,-26.578,124.398,0.000,82.179,-267.849,
3874067.000,-177.853,-26.491,124.346,0.000,82.145,-267.853,
3874070.000,-177.865,-26.237,124.193,0.000,82.043,-267.865,
3874074.000,-177.880,-25.910,123.995,0.000,81.914,-267.880,
3874076.000,-177.887,-25.752,123.899,0.000,81.852,-267.887,
3874077.000,-177.887,-25.752,123.899,0.000,81.852,-267.887,
3874078.000,-177.894,-25.598,123.805,0.000,81.792,-267.894,
3874079.000,-177.898,-25.522,123.758,0.000,81.763,-267.898,
3874081.000,-177.904,-25.373,123.667,0.000,81.706,-267.904,
3874084.000,-177.914,-25.156,123.533,0.000,81.622,-267.914,
3874086.000,-177.920,-25.016,123.447,0.000,81.569,-267.920,
3874087.000,-177.923,-24.947,123.404,0.000,81.543,-267.923,
3874088.000,-177.923,-24.947,123.404,0.000,81.543,-267.923,
3874090.000,-177.932,-24.746,123.279,0.000,81.467,-267.932,
3874094.000,-177.943,-24.490,123.119,0.000,81.371,-267.943,
3874096.000,-177.949,-24.367,123.041,0.000,81.325,-267.949,
3874098.000,-177.954,-24.248,122.966,0.000,81.281,-267.954,
3874099.000,-177.957,-24.189,122.929,0.000,81.260,-267.957,
3874100.000,-177.959,-24.131,122.893,0.000,81.238,-267.959,
3874102.000,-177.964,-24.018,122.821,0.000,81.197,-267.964,
3874104.000,-177.969,-23.908,122.751,0.000,81.157,-267.969,
3874108.000,-177.978,-23.698,122.617,0.000,81.080,-267.978,
3874110.000,-177.982,-23.597,122.553,0.000,81.044,-267.982,
3874112.000,-177.986,-23.499,122.490,0.000,81.009,-267.986,
3874113.000,-177.986,-23.499,122.490,0.000,81.009,-267.986,
3874115.000,-177.992,-23.358,122.400,0.000,80.958,-267.992,
3874117.000,-177.996,-23.268,122.341,0.000,80.926,-267.996,
3874121.000,-178.003,-23.095,122.230,0.000,80.865,-268.003,
3874123.000,-178.006,-23.013,122.177,0.000,80.836,-268.006,
3874124.000,-178.008,-22.973,122.151,0.000,80.822,-268.008,
3874125.000,-178.010,-22.934,122.125,0.000,80.808,-268.010,
3874127.000,-178.013,-22.857,122.075,0.000,80.781,-268.013,
3874129.000,-178.016,-22.782,122.027,0.000,80.755,-268.016,
3874133.000,-178.022,-22.641,121.934,0.000,80.706,-268.022,
3874135.000,-178.025,-22.573,121.890,0.000,80.682,-268.025,
3874136.000,-178.025,-22.573,121.890,0.000,80.682,-268.025,
3874137.000,-178.026,-22.540,121.869,0.000,80.671,-268.026,
3874139.000,-178.030,-22.445,121.807,0.000,80.638,-268.030,
3874141.000,-178.032,-22.385,121.767,0.000,80.617,-268.032,
3874145.000,-178.037,-22.270,121.691,0.000,80.578,-268.037,
3874147.000,-178.039,-22.215,121.655,0.000,80.559,-268.039,
3874148.000,-178.040,-22.189,121.638,0.000,80.550,-268.040,
3874149.000,-178.041,-22.163,121.621,0.000,80.542,-268.041,
3874151.000,-178.043,-22.112,121.587,0.000,80.524,-268.043,
3874154.000,-178.046,-22.039,121.539,0.000,80.500,-268.046,
3874158.000,-178.050,-21.949,121.479,0.000,80.469,-268.050,
3874159.000,-178.051,-21.927,121.465,0.000,80.462,-268.051,
3874160.000,-178.051,-21.927,121.465,0.000,80.462,-268.051,
3874162.000,-178.053,-21.864,121.423,0.000,80.441,-268.053,
3874164.000,-178.055,-21.824,121.397,0.000,80.427,-268.055,
3874166.000,-178.056,-21.786,121.371,0.000,80.415,-268.056,
3874168.000,-178.058,-21.749,121.346,0.000,80.402,-268.058,
3874172.000,-178.061,-21.680,121.300,0.000,80.379,-268.061,
3874173.000,-178.061,-21.663,121.289,0.000,80.374,-268.061,
3874175.000,-178.063,-21.631,121.267,0.000,80.363,-268.063,
3874177.000,-178.064,-21.600,121.247,0.000,80.353,-268.064,
3874180.000,-178.066,-21.556,121.217,0.000,80.338,-268.066,
3874183.000,-178.067,-21.514,121.189,0.000,80.324,-268.067,
3874187.000,-178.069,-21.462,121.155,0.000,80.307,-268.069,
3874189.000,-178.070,-21.437,121.138,0.000,80.299,-268.070,
3874192.000,-178.072,-21.403,121.115,0.000,80.287,-268.072,
3874194.000,-178.072,-21.380,121.100,0.000,80.280,-268.072,
3874197.000,-178.074,-21.349,121.079,0.000,80.270,-268.074,
3874200.000,-178.075,-21.319,121.059,0.000,80.260,-268.075,
3874202.000,-178.076,-21.300,121.046,0.000,80.254,-268.076,
3874208.000,-178.078,-21.248,121.011,0.000,80.237,-268.078,
3874211.000,-178.079,-21.225,120.995,0.000,80.229,-268.079,
3874214.000,-178.079,-21.202,120.980,0.000,80.222,-268.079,
3874217.000,-178.080,-21.181,120.966,0.000,80.215,-268.080,
3874220.000,-178.081,-21.162,120.953,0.000,80.208,-268.081,
3874221.000,-178.081,-21.155,120.948,0.000,80.206,-268.081,
3874225.000,-178.082,-21.131,120.932,0.000,80.199,-268.082,
3874228.000,-178.083,-21.115,120.921,0.000,80.193,-268.083,
3874230.000,-178.083,-21.104,120.914,0.000,80.190,-268.083,
3874233.000,-178.084,-21.089,120.904,0.000,80.185,-268.084,
3874235.000,-178.084,-21.080,120.897,0.000,80.182,-268.084,
3874236.000,-178.084,-21.075,120.894,0.000,80.180,-268.084,
3874237.000,-178.084,-21.075,120.894,0.000,80.180,-268.084,
3874241.000,-178.085,-21.053,120.880,0.000,80.173,-268.085,
3874243.000,-178.086,-21.045,120.874,0.000,80.171,-268.086,
3874246.000,-178.086,-21.034,120.866,0.000,80.167,-268.086,
3874249.000,-178.086,-21.023,120.859,0.000,80.163,-268.086,
3874251.000,-178.087,-21.016,120.855,0.000,80.161,-268.087,
3874252.000,-178.087,-21.013,120.852,0.000,80.160,-268.087,
3874256.000,-178.087,-21.001,120.844,0.000,80.156,-268.087,
3874259.000,-178.088,-20.992,120.838,0.000,80.153,-268.088,
3874261.000,-178.088,-20.984,120.833,0.000,80.151,-268.088,
3874264.000,-178.088,-20.979,120.829,0.000,80.149,-268.088,
3874265.000,-178.088,-20.976,120.827,0.000,80.148,-268.088,
3874266.000,-178.088,-20.974,120.826,0.000,80.147,-268.088,
3874267.000,-178.088,-20.971,120.824,0.000,80.147,-268.088,
3874273.000,-178.089,-20.958,120.815,0.000,80.142,-268.089,
3874276.000,-178.089,-20.952,120.811,0.000,80.140,-268.089,
3874278.000,-178.089,-20.948,120.808,0.000,80.139,-268.089,
3874280.000,-178.089,-20.944,120.806,0.000,80.138,-268.089,
3874281.000,-178.089,-20.944,120.806,0.000,80.138,-268.089,
3874283.000,-178.090,-20.939,120.802,0.000,80.136,-268.090,
3874287.000,-178.090,-20.933,120.798,0.000,80.134,-268.090,
3874289.000,-178.090,-20.930,120.796,0.000,80.133,-268.090,
3874291.000,-178.090,-20.927,120.794,0.000,80.132,-268.090,
3874292.000,-178.090,-20.925,120.793,0.000,80.132,-268.090,
3874293.000,-178.090,-20.925,120.793,0.000,80.132,-268.090,
3874295.000,-178.090,-20.921,120.790,0.000,80.131,-268.090,
3874299.000,-178.091,-20.916,120.787,0.000,80.129,-268.091,
3874302.000,-178.091,-20.913,120.785,0.000,80.128,-268.091,
3874305.000,-178.091,-20.910,120.782,0.000,80.127,-268.091,
3874306.000,-178.091,-20.909,120.782,0.000,80.127,-268.091,
3874307.000,-178.091,-20.908,120.781,0.000,80.126,-268.091,
3874308.000,-178.091,-20.908,120.781,0.000,80.126,-268.091,
3874311.000,-178.091,-20.903,120.778,0.000,80.125,-268.091,
3874314.000,-178.091,-20.901,120.777,0.000,80.124,-268.091,
3874317.000,-178.091,-20.899,120.775,0.000,80.123,-268.091,
3874320.000,-178.091,-20.896,120.773,0.000,80.123,-268.091,
3874323.000,-178.091,-20.894,120.772,0.000,80.122,-268.091,
3874324.000,-178.091,-20.893,120.771,0.000,80.122,-268.091,
3874326.000,-178.092,-20.892,120.770,0.000,80.121,-268.092,
3874328.000,-178.092,-20.891,120.769,0.000,80.121,-268.092,
3874331.000,-178.092,-20.889,120.768,0.000,80.120,-268.092,
3874334.000,-178.092,-20.887,120.767,0.000,80.120,-268.092,
3874336.000,-178.092,-20.886,120.766,0.000,80.119,-268.092,
3874339.000,-178.092,-20.884,120.765,0.000,80.119,-268.092,
3874340.000,-178.092,-20.884,120.765,0.000,80.119,-268.092,
3874344.000,-178.092,-20.882,120.764,0.000,80.118,-268.092,
3874346.000,-178.092,-20.881,120.763,0.000,80.118,-268.092,
3874349.000,-178.092,-20.880,120.762,0.000,80.117,-268.092,
3874352.000,-178.092,-20.879,120.761,0.000,80.117,-268.092,
3874354.000,-178.092,-20.878,120.761,0.000,80.117,-268.092,
3874357.000,-178.092,-20.877,120.760,0.000,80.116,-268.092,
3874359.000,-178.092,-20.876,120.760,0.000,80.116,-268.092,
3874361.000,-178.092,-20.876,120.759,0.000,80.116,-268.092,
3874363.000,-178.092,-20.875,120.759,0.000,80.116,-268.092,
3874366.000,-178.092,-20.874,120.758,0.000,80.115,-268.092,
3874369.000,-178.092,-20.873,120.758,0.000,80.115,-268.092,
3874372.000,-178.092,-20.872,120.757,0.000,80.115,-268.092,
3874375.000,-178.092,-20.872,120.757,0.000,80.115,-268.092,
3874377.000,-178.092,-20.871,120.756,0.000,80.115,-268.092,
3874379.000,-178.092,-20.871,120.756,0.000,80.114,-268.092,
3874380.000,-178.092,-20.871,120.756,0.000,80.114,-268.092,
3874381.000,-178.092,-20.870,120.756,0.000,80.114,-268.092,
3874382.000,-178.092,-20.870,120.756,0.000,80.114,-268.092,
3874383.000,-178.092,-20.870,120.755,0.000,80.114,-268.092,
3874386.000,-178.092,-20.869,120.755,0.000,80.114,-268.092,
3874388.000,-178.092,-20.869,120.755,0.000,80.114,-268.092,
3874390.000,-178.092,-20.869,120.755,0.000,80.114,-268.092,
3874393.000,-178.092,-20.868,120.754,0.000,80.114,-268.092,
3874396.000,-178.092,-20.868,120.754,0.000,80.113,-268.092,
3874398.000,-178.092,-20.868,120.754,0.000,80.113,-268.092,
3874399.000,-178.092,-20.867,120.754,0.000,80.113,-268.092,
3874402.000,-178.092,-20.867,120.754,0.000,80.113,-268.092,
3874404.000,-178.092,-20.867,120.754,0.000,80.113,-268.092,
3874407.000,-178.092,-20.867,120.754,0.000,80.113,-268.092,
3874409.000,-178.092,-20.867,120.754,0.000,80.113,-268.092,
3874412.000,-178.092,-20.867,120.754,0.000,80.113,-268.092,
3874413.000,-178.092,-20.867,120.754,0.000,80.113,-268.092,
3874416.000,-178.092,-20.867,120.754,0.000,80.113,-268.092,
3874418.000,-178.092,-20.867,120.754,0.000,80.113,-268.092,
3874421.000,-178.092,-20.867,120.754,0.000,80.113,-268.092,
3874424.000,-178.092,-20.867,120.754,0.000,80.113,-268.092,
3874426.000,-178.092,-20.867,120.754,0.000,80.113,-268.092,
3874429.000,-178.092,-20.867,120.754,0.000,80.113,-268.092,
3874430.000,-178.092,-20.867,120.754,0.000,80.113,-268.092,
3874434.000,-178.092,-20.867,120.754,0.000,80.113,-268.092,
3874437.000,-178.092,-20.867,120.754,0.000,80.113,-268.092,
3874440.000,-178.092,-20.867,120.754,0.000,80.113,-268.092,
3874442.000,-178.092,-20.867,120.754,0.000,80.113,-268.092,
3874444.000,-178.092,-20.867,120.754,0.000,80.113,-268.092,
3874445.000,-178.092,-20.867,120.754,0.000,80.113,-268.092,
3874447.000,-178.092,-20.867,120.754,0.000,80.113,-268.092,
3874450.000,-178.092,-20.867,120.754,0.000,80.113,-268.092,
3874453.000,-178.092,-20.867,120.754,0.000,80.113,-268.092,
3874455.000,-178.092,-20.867,120.754,0.000,80.113,-268.092,
3874458.000,-178.092,-20.867,120.754,0.000,80.113,-268.092,
3874460.000,-178.092,-20.867,120.754,0.000,80.113,-268.092,
3874462.000,-178.092,-20.867,120.754,0.000,80.113,-268.092,
3874464.000,-178.092,-20.867,120.754,0.000,80.113,-268.092,
3874466.000,-178.092,-20.867,120.754,0.000,80.113,-268.092,
3874469.000,-178.092,-20.867,120.754,0.000,80.113,-268.092,
3874471.000,-178.092,-20.867,120.754,0.000,80.113,-268.092,
3874473.000,-178.092,-20.867,120.754,0.000,80.113,-268.092,
3874474.000,-178.092,-20.867,120.754,0.000,80.113,-268.092,
3874477.000,-178.092,-20.867,120.754,0.000,80.113,-268.092,
3874479.000,-178.092,-20.867,120.754,0.000,80.113,-268.092,
3874481.000,-178.092,-20.867,120.754,0.000,80.113,-268.092,
3874484.000,-178.092,-20.867,120.754,0.000,80.113,-268.092,
3874486.000,-178.092,-20.867,120.754,0.000,80.113,-268.092,
3874487.000,-178.092,-20.867,120.754,0.000,80.113,-268.092,
3874489.000,-178.092,-20.867,120.754,0.000,80.113,-268.092,
3874491.000,-178.092,-20.867,120.754,0.000,80.113,-268.092,
3874493.000,-178.092,-20.867,120.754,0.000,80.113,-268.092,
3874496.000,-178.092,-20.867,120.754,0.000,80.113,-268.092,
3874498.000,-178.092,-20.867,120.754,0.000,80.113,-268.092,
3874500.000,-178.092,-20.867,120.754,0.000,80.113,-268.092,
3874501.000,-178.092,-20.867,120.754,0.000,80.113,-268.092,
3874504.000,-178.092,-20.867,120.754,0.000,80.113,-268.092,
3874506.000,-178.092,-20.867,120.754,0.000,80.113,-268.092,
3874508.000,-178.092,-20.867,120.754,0.000,80.113,-268.092,
3874510.000,-178.092,-20.867,120.754,0.000,80.113,-268.092,
3874512.000,-178.092,-20.867,120.754,0.000,80.113,-268.092,
3874513.000,-178.092,-20.867,120.754,0.000,80.113,-268.092,
3874516.000,-178.092,-20.867,120.754,0.000,80.113,-268.092,
3874518.000,-178.092,-20.867,120.754,0.000,80.113,-268.092,
3874521.000,-178.092,-20.867,120.754,0.000,80.113,-268.092,
3874523.000,-178.092,-20.867,120.754,0.000,80.113,-268.092,
3874524.000,-178.092,-20.867,120.754,0.000,80.113,-268.092,
3874525.000,-178.092,-20.867,120.754,0.000,80.113,-268.092,
3874529.000,-178.092,-20.867,120.754,0.000,80.113,-268.092,
3874531.000,-178.092,-20.867,120.754,0.000,80.113,-268.092,
3874534.000,-178.092,-20.867,120.754,0.000,80.113,-268.092,
3874535.000,-178.092,-20.867,120.754,0.000,80.113,-268.092,
3874536.000,-178.092,-20.867,120.754,0.000,80.113,-268.092,
3874538.000,-178.092,-20.867,120.754,0.000,80.113,-268.092,
3874540.000,-178.092,-20.867,120.754,0.000,80.113,-268.092,
3874544.000,-178.092,-20.867,120.754,0.000,80.113,-268.092,
3874546.000,-178.092,-20.867,120.754,0.000,80.113,-268.092,
3874548.000,-178.092,-20.867,120.754,0.000,80.113,-268.092,
3874549.000,-178.092,-20.867,120.754,0.000,80.113,-268.092,
3874551.000,-178.092,-20.867,120.754,0.000,80.113,-268.092,
3874553.000,-178.092,-20.867,120.754,0.000,80.113,-268.092,
3874558.000,-178.092,-20.867,120.754,0.000,80.113,-268.092,
3874559.000,-178.092,-20.867,120.754,0.000,80.113,-268.092,
3874560.000,-178.092,-20.867,120.754,0.000,80.113,-268.092,
3874562.000,-178.092,-20.867,120.754,0.000,80.113,-268.092,
3874564.000,-178.092,-20.867,120.754,0.000,80.113,-268.092,
3874567.000,-178.092,-20.867,120.754,0.000,80.113,-268.092,
3874569.000,-178.092,-20.867,120.754,0.000,80.113,-268.092,
3874570.000,-178.092,-20.867,120.754,0.000,80.113,-268.092,
3874571.000,-178.092,-20.867,120.754,0.000,80.113,-268.092,
3874572.000,-178.092,-20.867,120.754,0.000,80.113,-268.092,
3874574.000,-178.092,-20.867,120.754,0.000,80.113,-268.092,
3874576.000,-178.092,-20.867,120.754,0.000,80.113,-268.092,
3874580.000,-178.092,-20.867,120.754,0.000,80.113,-268.092,
3874582.000,-178.092,-20.867,120.754,0.000,80.113,-268.092,
3874583.000,-178.092,-20.867,120.754,0.000,80.113,-268.092,
3874584.000,-178.092,-20.867,120.754,0.000,80.113,-268.092,
3874586.000,-178.092,-20.867,120.754,0.000,80.113,-268.092,
3874588.000,-178.092,-20.867,120.754,0.000,80.113,-268.092,
3874592.000,-178.092,-20.867,120.754,0.000,80.113,-268.092,
3874593.000,-178.092,-20.867,120.754,0.000,80.113,-268.092,
3874594.000,-178.092,-20.867,120.754,0.000,80.113,-268.092,
3874595.000,-178.092,-20.867,120.754,0.000,80.113,-268.092,
3874598.000,-178.092,-20.867,120.754,0.000,80.113,-268.092,
3874600.000,-178.092,-20.867,120.754,0.000,80.113,-268.092,
3874603.000,-178.092,-20.867,120.754,0.000,80.113,-268.092,
3874604.000,-178.092,-20.867,120.754,0.000,80.113,-268.092,
3874606.000,-178.092,-20.867,120.754,0.000,80.113,-268.092,
3874608.000,-178.092,-20.867,120.754,0.000,80.113,-268.092,
3874610.000,-178.092,-20.867,120.754,0.000,80.113,-268.092,
3874612.000,-178.092,-20.867,120.754,0.000,80.113,-268.092,
3874617.000,-178.092,-20.867,120.754,0.000,80.113,-268.092,
3874618.000,-178.092,-20.867,120.754,0.000,80.113,-268.092,
3874619.000,-178.092,-20.867,120.754,0.000,80.113,-268.092,
3874622.000,-178.092,-20.867,120.754,0.000,80.113,-268.092,
3874624.000,-178.092,-20.867,120.754,0.000,80.113,-268.092,
3874626.000,-178.092,-20.867,120.754,0.000,80.113,-268.092,
3874628.000,-178.092,-20.867,120.754,0.000,80.113,-268.092,
3874630.000,-178.092,-20.867,120.754,0.000,80.113,-268.092,
3874632.000,-178.092,-20.867,120.754,0.000,80.113,-268.092,
3874634.000,-178.092,-20.867,120.754,0.000,80.113,-268.092,
3874636.000,-178.092,-20.867,120.754,0.000,80.113,-268.092,
3874638.000,-178.092,-20.867,120.754,0.000,80.113,-268.092,
3874640.000,-178.092,-20.867,120.754,0.000,80.113,-268.092,
3874644.000,-178.092,-20.867,120.754,0.000,80.113,-268.092,
3874647.000,-178.092,-20.867,120.754,0.000,80.113,-268.092,
3874649.000,-178.092,-20.867,120.754,0.000,80.113,-268.092,
3874652.000,-178.092,-20.867,120.754,0.000,80.113,-268.092,
3874654.000,-178.092,-20.867,120.754,0.000,80.113,-268.092,
3874657.000,-178.092,-20.867,120.754,0.000,80.113,-268.092,
3874661.000,-178.092,-20.867,120.754,0.000,80.113,-268.092,
3874662.000,-178.092,-20.867,120.754,0.000,80.113,-268.092,
3874665.000,-178.092,-20.867,120.754,0.000,80.113,-268.092,
3874667.000,-178.092,-20.867,120.754,0.000,80.113,-268.092,
3874670.000,-178.092,-20.867,120.754,0.000,80.113,-268.092,
3874672.000,-178.092,-20.867,120.754,0.000,80.113,-268.092,
3874674.000,-178.092,-20.867,120.754,0.000,80.113,-268.092,
3874677.000,-178.092,-20.867,120.754,0.000,80.113,-268.092,
3874680.000,-178.092,-20.867,120.754,0.000,80.113,-268.092,
3874682.000,-178.092,-20.867,120.754,0.000,80.113,-268.092,
3874685.000,-178.092,-20.867,120.754,0.000,80.113,-268.092,
3874687.000,-178.092,-20.867,120.754,0.000,80.113,-268.092,
3874689.000,-178.092,-20.867,120.754,0.000,80.113,-268.092,
3874693.000,-178.092,-20.867,120.754,0.000,80.113,-268.092,
3874695.000,-178.092,-20.867,120.754,0.000,80.113,-268.092,
3874697.000,-178.092,-20.867,120.754,0.000,80.113,-268.092,
3874700.000,-178.092,-20.867,120.754,0.000,80.113,-268.092,
3874702.000,-178.092,-20.867,120.754,0.000,80.113,-268.092,
3874703.000,-178.092,-20.867,120.754,0.000,80.113,-268.092,
3874704.000,-178.092,-20.867,120.754,0.000,80.113,-268.092,
3874707.000,-178.092,-20.867,120.754,0.000,80.113,-268.092,
3874708.000,-178.092,-20.867,120.754,0.000,80.113,-268.092,
3874711.000,-178.092,-20.867,120.754,0.000,80.113,-268.092,
3874713.000,-178.092,-20.867,120.754,0.000,80.113,-268.092,
3874715.000,-178.092,-20.867,120.754,0.000,80.113,-268.092,
3874716.000,-178.092,-20.867,120.754,0.000,80.113,-268.092,
3874719.000,-178.092,-20.867,120.754,0.000,80.113,-268.092,
3874721.000,-178.092,-20.867,120.754,0.000,80.113,-268.092,
3874723.000,-178.092,-20.867,120.754,0.000,80.113,-268.092,
3874726.000,-178.092,-20.867,120.754,0.000,80.113,-268.092,
3874729.000,-178.092,-20.867,120.754,0.000,80.113,-268.092,
3874730.000,-178.092,-20.867,120.754,0.000,80.113,-268.092,
3874731.000,-178.092,-20.867,120.754,0.000,80.113,-268.092,
3874735.000,-178.092,-20.867,120.754,0.000,80.113,-268.092,
3874738.000,-178.092,-20.867,120.754,0.000,80.113,-268.092,
3874741.000,-178.092,-20.867,120.754,0.000,80.113,-268.092,
3874742.000,-178.092,-20.867,120.754,0.000,80.113,-268.092,
3874743.000,-178.092,-20.867,120.754,0.000,80.113,-268.092,
3874745.000,-178.092,-20.867,120.754,0.000,80.113,-268.092,
3874749.000,-178.092,-20.867,120.754,0.000,80.113,-268.092,
3874752.000,-178.092,-20.867,120.754,0.000,80.113,-268.092,
3874754.000,-178.092,-20.867,120.754,0.000,80.113,-268.092,
3874756.000,-178.092,-20.867,120.754,0.000,80.113,-268.092,
3874757.000,-178.092,-20.867,120.754,0.000,80.113,-268.092,
3874759.000,-178.092,-20.867,120.754,0.000,80.113,-268.092,
3874764.000,-178.092,-20.867,120.754,0.000,80.113,-268.092,
3874767.000,-178.092,-20.867,120.754,0.000,80.113,-268.092,
3874768.000,-178.092,-20.867,120.754,0.000,80.113,-268.092,
3874769.000,-178.092,-20.867,120.754,0.000,80.113,-268.092,
3874770.000,-178.092,-20.867,120.754,0.000,80.113,-268.092,
3874773.000,-178.092,-20.867,120.754,0.000,80.113,-268.092,
3874777.000,-178.092,-20.867,120.754,0.000,80.113,-268.092,
3874779.000,-178.092,-20.867,120.754,0.000,80.113,-268.092,
3874780.000,-178.092,-20.867,120.754,0.000,80.113,-268.092,
3874781.000,-178.092,-20.867,120.754,0.000,80.113,-268.092,
3874782.000,-178.092,-20.867,120.754,0.000,80.113,-268.092,
3874784.000,-178.092,-20.867,120.754,0.000,80.113,-268.092,
3874786.000,-178.092,-20.867,120.754,0.000,80.113,-268.092,
3874791.000,-178.092,-20.867,120.754,0.000,80.113,-268.092,
3874792.000,-178.092,-20.867,120.754,0.000,80.113,-268.092,
3874793.000,-178.092,-20.867,120.754,0.000,80.113,-268.092,
3874794.000,-178.092,-20.867,120.754,0.000,80.113,-268.092,
3874795.000,-178.092,-20.867,120.754,0.000,80.113,-268.092,
3874798.000,-178.092,-20.867,120.754,0.000,80.113,-268.092,
3874802.000,-178.092,-20.867,120.754,0.000,80.113,-268.092,
3874803.000,-178.092,-20.867,120.754,0.000,80.113,-268.092,
3874804.000,-178.092,-20.867,120.754,0.000,80.113,-268.092,
3874805.000,-178.092,-20.867,120.754,0.000,80.113,-268.092,
3874808.000,-178.092,-20.867,120.754,0.000,80.113,-268.092,
3874811.000,-178.092,-20.867,120.754,0.000,80.113,-268.092,
3874815.000,-178.092,-20.867,120.754,0.000,80.113,-268.092,
3874816.000,-178.092,-20.867,120.754,0.000,80.113,-268.092,
3874817.000,-178.092,-20.867,120.754,0.000,80.113,-268.092,
3874821.000,-178.092,-20.867,120.754,0.000,80.113,-268.092,
3874824.000,-178.092,-20.867,120.754,0.000,80.113,-268.092,
3874827.000,-178.092,-20.867,120.754,0.000,80.113,-268.092,
3874832.000,-178.092,-20.867,120.754,0.000,80.113,-268.092,
3874834.000,-178.092,-20.867,120.754,0.000,80.113,-268.092,
3874836.000,-178.092,-20.867,120.754,0.000,80.113,-268.092,
3874838.000,-178.092,-20.867,120.754,0.000,80.113,-268.092,
3874841.000,-178.092,-20.867,120.754,0.000,80.113,-268.092,
3874843.000,-178.092,-20.867,120.754,0.000,80.113,-268.092,
3874846.000,-178.092,-20.867,120.754,0.000,80.113,-268.092,
3874849.000,-178.092,-20.867,120.754,0.000,80.113,-268.092,
3874852.000,-178.092,-20.867,120.754,0.000,80.113,-268.092,
3874855.000,-178.092,-20.867,120.754,0.000,80.113,-268.092,
3874857.000,-178.092,-20.867,120.754,0.000,80.113,-268.092,
3874859.000,-178.092,-20.867,120.754,0.000,80.113,-268.092,
3874862.000,-178.092,-20.867,120.754,0.000,80.113,-268.092,
3874865.000,-178.092,-20.867,120.754,0.000,80.113,-268.092,
3874867.000,-178.092,-20.867,120.754,0.000,80.113,-268.092,
3874869.000,-178.092,-20.867,120.754,0.000,80.113,-268.092,
3874871.000,-178.092,-20.867,120.754,0.000,80.113,-268.092,
3874874.000,-178.092,-20.867,120.754,0.000,80.113,-268.092,
3874876.000,-178.092,-20.867,120.754,0.000,80.113,-268.092,
3874879.000,-178.092,-20.867,120.754,0.000,80.113,-268.092,
3874883.000,-178.092,-20.867,120.754,0.000,80.113,-268.092,
3874885.000,-178.092,-20.867,120.754,0.000,80.113,-268.092,
3874887.000,-178.092,-20.867,120.754,0.000,80.113,-268.092,
3874889.000,-178.092,-20.867,120.754,0.000,80.113,-268.092,
3874891.000,-178.092,-20.867,120.754,0.000,80.113,-268.092,
3874894.000,-178.092,-20.867,120.754,0.000,80.113,-268.092,
3874897.000,-178.092,-20.867,120.754,0.000,80.113,-268.092,
3874899.000,-178.092,-20.867,120.754,0.000,80.113,-268.092,
3874901.000,-178.092,-20.867,120.754,0.000,80.113,-268.092,
3874903.000,-178.092,-20.867,120.754,0.000,80.113,-268.092,
3874905.000,-178.092,-20.867,120.754,0.000,80.113,-268.092,
3874907.000,-178.092,-20.867,120.754,0.000,80.113,-268.092,
3874910.000,-178.092,-20.867,120.754,0.000,80.113,-268.092,
3874913.000,-178.092,-20.867,120.754,0.000,80.113,-268.092,
3874915.000,-178.092,-20.867,120.754,0.000,80.113,-268.092,
3874917.000,-178.092,-20.867,120.754,0.000,80.113,-268.092,
3874919.000,-178.092,-20.867,120.754,0.000,80.113,-268.092,
3874921.000,-178.092,-20.867,120.754,0.000,80.113,-268.092,
3874923.000,-178.092,-20.867,120.754,0.000,80.113,-268.092,
3874927.000,-178.092,-20.867,120.754,0.000,80.113,-268.092,
3874929.000,-178.092,-20.867,120.754,0.000,80.113,-268.092,
3874931.000,-178.092,-20.867,120.754,0.000,80.113,-268.092,
3874933.000,-178.092,-20.867,120.754,0.000,80.113,-268.092,
3874935.000,-178.092,-20.867,120.754,0.000,80.113,-268.092,
3874937.000,-178.092,-20.867,120.754,0.000,80.113,-268.092,
3874939.000,-178.092,-20.867,120.754,0.000,80.113,-268.092,
3874943.000,-178.092,-20.867,120.754,0.000,80.113,-268.092,
3874945.000,-178.092,-20.867,120.754,0.000,80.113,-268.092,
3874947.000,-178.092,-20.867,120.754,0.000,80.113,-268.092,
3874949.000,-178.092,-20.867,120.754,0.000,80.113,-268.092,
3874951.000,-178.092,-20.867,120.754,0.000,80.113,-268.092,
3874954.000,-178.092,-20.867,120.754,0.000,80.113,-268.092,
3874958.000,-178.092,-20.867,120.754,0.000,80.113,-268.092,
3874961.000,-178.092,-20.867,120.754,0.000,80.113,-268.092,
3874963.000,-178.092,-20.867,120.754,0.000,80.113,-268.092,
3874966.000,-178.092,-20.867,120.754,0.000,80.113,-268.092,
3874968.000,-178.092,-20.867,120.754,0.000,80.113,-268.092,
3874970.000,-178.092,-20.867,120.754,0.000,80.113,-268.092,
3874973.000,-178.092,-20.867,120.754,0.000,80.113,-268.092,
3874977.000,-178.092,-20.867,120.754,0.000,80.113,-268.092,
3874979.000,-178.092,-20.867,120.754,0.000,80.113,-268.092,
3874981.000,-178.092,-20.867,120.754,0.000,80.113,-268.092,
3874984.000,-178.092,-20.867,120.754,0.000,80.113,-268.092,
3874986.000,-178.092,-20.867,120.754,0.000,80.113,-268.092,
3874988.000,-178.092,-20.867,120.754,0.000,80.113,-268.092,
3874991.000,-178.092,-20.867,120.754,0.000,80.113,-268.092,
3874993.000,-178.092,-20.867,120.754,0.000,80.113,-268.092,
3874996.000,-178.092,-20.867,120.754,0.000,80.113,-268.092,
3874998.000,-178.092,-20.867,120.754,0.000,80.113,-268.092,
3875000.000,-178.092,-20.867,120.754,0.000,80.113,-268.092,
3875003.000,-178.092,-20.867,120.754,0.000,80.113,-268.092,
3875005.000,-178.092,-20.867,120.754,0.000,80.113,-268.092,
3875009.000,-178.092,-20.867,120.754,0.000,80.113,-268.092,
3875011.000,-178.092,-20.867,120.754,0.000,80.113,-268.092,
3875013.000,-178.092,-20.867,120.754,0.000,80.113,-268.092,
3875015.000,-178.092,-20.867,120.754,0.000,80.113,-268.092,
3875017.000,-178.092,-20.867,120.754,0.000,80.113,-268.092,
3875019.000,-178.092,-20.867,120.754,0.000,80.113,-268.092,
3875023.000,-178.092,-20.867,120.754,0.000,80.113,-268.092,
3875025.000,-178.092,-20.867,120.754,0.000,80.113,-268.092,
3875028.000,-178.092,-20.867,120.754,0.000,80.113,-268.092,
3875030.000,-178.092,-20.867,120.754,0.000,80.113,-268.092,
3875033.000,-178.092,-20.867,120.754,0.000,80.113,-268.092,
3875034.000,-178.092,-20.867,120.754,0.000,80.113,-268.092,
3875036.000,-178.092,-20.867,120.754,0.000,80.113,-268.092,
3875038.000,-178.092,-20.867,120.754,0.000,80.113,-268.092,
3875040.000,-178.092,-20.867,120.754,0.000,80.113,-268.092,
3875042.000,-178.092,-20.867,120.754,0.000,80.113,-268.092,
3875045.000,-178.092,-20.867,120.754,0.000,80.113,-268.092,
3875047.000,-178.092,-20.867,120.754,0.000,80.113,-268.092,
3875048.000,-178.092,-20.867,120.754,0.000,80.113,-268.092,
3875051.000,-178.092,-20.867,120.754,0.000,80.113,-268.092,
3875053.000,-178.092,-20.867,120.754,0.000,80.113,-268.092,
3875055.000,-178.092,-20.867,120.754,0.000,80.113,-268.092,
3875057.000,-178.092,-20.867,120.754,0.000,80.113,-268.092,
3875059.000,-178.092,-20.867,120.754,0.000,80.113,-268.092,
3875060.000,-178.092,-20.867,120.754,0.000,80.113,-268.092,
3875062.000,-178.092,-20.867,120.754,0.000,80.113,-268.092,
3875064.000,-178.092,-20.867,120.754,0.000,80.113,-268.092,
3875066.000,-178.092,-20.867,120.754,0.000,80.113,-268.092,
3875068.000,-178.092,-20.867,120.754,0.000,80.113,-268.092,
3875070.000,-178.092,-20.867,120.754,0.000,80.113,-268.092,
3875072.000,-178.092,-20.867,120.754,0.000,80.113,-268.092,
3875073.000,-178.092,-20.867,120.754,0.000,80.113,-268.092,
3875076.000,-178.092,-20.867,120.754,0.000,80.113,-268.092,
3875078.000,-178.092,-20.867,120.754,0.000,80.113,-268.092,
3875080.000,-178.092,-20.867,120.754,0.000,80.113,-268.092,
3875082.000,-178.092,-20.867,120.754,0.000,80.113,-268.092,
3875084.000,-178.092,-20.867,120.754,0.000,80.113,-268.092,
3875086.000,-178.092,-20.867,120.754,0.000,80.113,-268.092,
3875088.000,-178.092,-20.867,120.754,0.000,80.113,-268.092,
3875090.000,-178.092,-20.867,120.754,0.000,80.113,-268.092,
3875092.000,-178.092,-20.867,120.754,0.000,80.113,-268.092,
3875094.000,-178.092,-20.867,120.754,0.000,80.113,-268.092,
3875096.000,-178.092,-20.867,120.754,0.000,80.113,-268.092,
3875097.000,-178.092,-20.867,120.754,0.000,80.113,-268.092,
3875098.000,-178.092,-20.867,120.754,0.000,80.113,-268.092,
3875101.000,-178.092,-20.867,120.754,0.000,80.113,-268.092,
3875103.000,-178.092,-20.867,120.754,0.000,80.113,-268.092,
3875105.000,-178.092,-20.867,120.754,0.000,80.113,-268.092,
3875107.000,-178.092,-20.867,120.754,0.000,80.113,-268.092,
3875109.000,-178.092,-20.867,120.754,0.000,80.113,-268.092,
3875110.000,-178.092,-20.867,120.754,0.000,80.113,-268.092,
3875113.000,-178.092,-20.867,120.754,0.000,80.113,-268.092,
3875115.000,-178.092,-20.867,120.754,0.000,80.113,-268.092,
3875118.000,-178.092,-20.867,120.754,0.000,80.113,-268.092,
3875119.000,-178.092,-20.867,120.754,0.000,80.113,-268.092,
3875120.000,-178.092,-20.867,120.754,0.000,80.113,-268.092,
3875121.000,-178.092,-20.867,120.754,0.000,80.113,-268.092,
3875124.000,-178.092,-20.867,120.754,0.000,80.113,-268.092,
3875126.000,-178.092,-20.867,120.754,0.000,80.113,-268.092,
3875128.000,-178.092,-20.867,120.754,0.000,80.113,-268.092,
3875130.000,-178.092,-20.867,120.754,0.000,80.113,-268.092,
3875132.000,-178.092,-20.867,120.754,0.000,80.113,-268.092,
3875133.000,-178.092,-20.867,120.754,0.000,80.113,-268.092,
3875136.000,-178.092,-20.867,120.754,0.000,80.113,-268.092,
3875138.000,-178.092,-20.867,120.754,0.000,80.113,-268.092,
3875141.000,-178.092,-20.867,120.754,0.000,80.113,-268.092,
3875143.000,-178.092,-20.867,120.754,0.000,80.113,-268.092,
3875145.000,-178.092,-20.867,120.754,0.000,80.113,-268.092,
3875146.000,-178.092,-20.867,120.754,0.000,80.113,-268.092,
3875148.000,-178.092,-20.867,120.754,0.000,80.113,-268.092,
3875150.000,-178.092,-20.867,120.754,0.000,80.113,-268.092,
3875152.000,-178.092,-20.867,120.754,0.000,80.113,-268.092,
3875154.000,-178.092,-20.867,120.754,0.000,80.113,-268.092,
3875156.000,-178.092,-20.867,120.754,0.000,80.113,-268.092,
3875158.000,-178.092,-20.867,120.754,0.000,80.113,-268.092,
3875159.000,-178.092,-20.867,120.754,0.000,80.113,-268.092,
3875162.000,-178.092,-20.867,120.754,0.000,80.113,-268.092,
3875163.000,-178.092,-20.867,120.754,0.000,80.113,-268.092,
3875166.000,-178.092,-20.867,120.754,0.000,80.113,-268.092,
3875168.000,-178.092,-20.867,120.754,0.000,80.113,-268.092,
3875170.000,-178.092,-20.867,120.754,0.000,80.113,-268.092,
3875171.000,-178.092,-20.867,120.754,0.000,80.113,-268.092,
3875174.000,-178.092,-20.867,120.754,0.000,80.113,-268.092,
3875176.000,-178.092,-20.867,120.754,0.000,80.113,-268.092,
3875178.000,-178.092,-20.867,120.754,0.000,80.113,-268.092,
3875180.000,-178.092,-20.867,120.754,0.000,80.113,-268.092,
3875183.000,-178.092,-20.867,120.754,0.000,80.113,-268.092,
3875184.000,-178.092,-20.867,120.754,0.000,80.113,-268.092,
3875185.000,-178.092,-20.867,120.754,0.000,80.113,-268.092,
3875188.000,-178.092,-20.867,120.754,0.000,80.113,-268.092,
3875190.000,-178.092,-20.867,120.754,0.000,80.113,-268.092,
3875192.000,-178.092,-20.867,120.754,0.000,80.113,-268.092,
3875194.000,-178.092,-20.867,120.754,0.000,80.113,-268.092,
3875197.000,-178.092,-20.867,120.754,0.000,80.113,-268.092,
3875198.000,-178.092,-20.867,120.754,0.000,80.113,-268.092,
3875200.000,-178.092,-20.867,120.754,0.000,80.113,-268.092,
3875202.000,-178.092,-20.867,120.754,0.000,80.113,-268.092,
3875204.000,-178.092,-20.867,120.754,0.000,80.113,-268.092,
3875206.000,-178.092,-20.867,120.754,0.000,80.113,-268.092,
3875208.000,-178.092,-20.867,120.754,0.000,80.113,-268.092,
3875210.000,-178.092,-20.867,120.754,0.000,80.113,-268.092,
3875212.000,-178.092,-20.867,120.754,0.000,80.113,-268.092,
3875216.000,-178.092,-20.867,120.754,0.000,80.113,-268.092,
3875218.000,-178.092,-20.867,120.754,0.000,80.113,-268.092,
3875220.000,-178.092,-20.867,120.754,0.000,80.113,-268.092,
3875222.000,-178.092,-20.867,120.754,0.000,80.113,-268.092,
3875224.000,-178.092,-20.867,120.754,0.000,80.113,-268.092,
3875226.000,-178.092,-20.867,120.754,0.000,80.113,-268.092,
3875230.000,-178.092,-20.867,120.754,0.000,80.113,-268.092,
3875232.000,-178.092,-20.867,120.754,0.000,80.113,-268.092,
3875234.000,-178.092,-20.867,120.754,0.000,80.113,-268.092,
3875236.000,-178.092,-20.867,120.754,0.000,80.113,-268.092,
3875239.000,-178.092,-20.867,120.754,0.000,80.113,-268.092,
3875242.000,-178.092,-20.867,120.754,0.000,80.113,-268.092,
3875244.000,-178.092,-20.867,120.754,0.000,80.113,-268.092,
3875247.000,-178.092,-20.867,120.754,0.000,80.113,-268.092,
3875250.000,-178.092,-20.867,120.754,0.000,80.113,-268.092,
3875253.000,-178.092,-20.867,120.754,0.000,80.113,-268.092,
3875256.000,-178.092,-20.867,120.754,0.000,80.113,-268.092,
3875259.000,-178.092,-20.867,120.754,0.000,80.113,-268.092,
3875262.000,-178.092,-20.867,120.754,0.000,80.113,-268.092,
3875267.000,-178.092,-20.867,120.754,0.000,80.113,-268.092,
3875270.000,-178.092,-20.867,120.754,0.000,80.113,-268.092,
3875273.000,-178.092,-20.867,120.754,0.000,80.113,-268.092,
3875276.000,-178.092,-20.867,120.754,0.000,80.113,-268.092,
3875278.000,-178.092,-20.867,120.754,0.000,80.113,-268.092,
3875281.000,-178.092,-20.867,120.754,0.000,80.113,-268.092,
3875283.000,-178.092,-20.867,120.754,0.000,80.113,-268.092,
3875286.000,-178.092,-20.867,120.754,0.000,80.113,-268.092,
3875288.000,-178.092,-20.867,120.754,0.000,80.113,-268.092,
3875291.000,-178.092,-20.867,120.754,0.000,80.113,-268.092,
3875293.000,-178.092,-20.867,120.754,0.000,80.113,-268.092,
3875295.000,-178.092,-20.867,120.754,0.000,80.113,-268.092,
3875297.000,-178.092,-20.867,120.754,0.000,80.113,-268.092,
3875299.000,-178.092,-20.867,120.754,0.000,80.113,-268.092,
3875301.000,-178.092,-20.867,120.754,0.000,80.113,-268.092,
3875303.000,-178.092,-20.867,120.754,0.000,80.113,-268.092,
3875305.000,-178.092,-20.867,120.754,0.000,80.113,-268.092,
3875307.000,-178.092,-20.867,120.754,0.000,80.113,-268.092,
3875309.000,-178.092,-20.867,120.754,0.000,80.113,-268.092,
3875310.000,-178.092,-20.867,120.754,0.000,80.113,-268.092,
3875314.000,-178.092,-20.867,120.754,0.000,80.113,-268.092,
3875316.000,-178.092,-20.867,120.754,0.000,80.113,-268.092,
3875318.000,-178.092,-20.867,120.754,0.000,80.113,-268.092,
3875319.000,-178.092,-20.867,120.754,0.000,80.113,-268.092,
3875320.000,-178.092,-20.867,120.754,0.000,80.113,-268.092,
3875323.000,-178.092,-20.867,120.754,0.000,80.113,-268.092,
3875325.000,-178.092,-20.867,120.754,0.000,80.113,-268.092,
3875327.000,-178.092,-20.867,120.754,0.000,80.113,-268.092,
3875330.000,-178.092,-20.867,120.754,0.000,80.113,-268.092,
3875332.000,-178.092,-20.867,120.754,0.000,80.113,-268.092,
3875334.000,-178.092,-20.867,120.754,0.000,80.113,-268.092,
3875335.000,-178.092,-20.867,120.754,0.000,80.113,-268.092,
3875338.000,-178.092,-20.867,120.754,0.000,80.113,-268.092,
3875340.000,-178.092,-20.867,120.754,0.000,80.113,-268.092,
3875342.000,-178.092,-20.867,120.754,0.000,80.113,-268.092,
3875345.000,-178.092,-20.867,120.754,0.000,80.113,-268.092,
3875348.000,-178.092,-20.867,120.754,0.000,80.113,-268.092,
3875349.000,-178.092,-20.867,120.754,0.000,80.113,-268.092,
3875352.000,-178.092,-20.867,120.754,0.000,80.113,-268.092,
3875354.000,-178.092,-20.867,120.754,0.000,80.113,-268.092,
3875357.000,-178.092,-20.867,120.754,0.000,80.113,-268.092,
3875360.000,-178.092,-20.867,120.754,0.000,80.113,-268.092,
3875362.000,-178.092,-20.867,120.754,0.000,80.113,-268.092,
3875364.000,-178.092,-20.867,120.754,0.000,80.113,-268.092,
3875365.000,-178.092,-20.867,120.754,0.000,80.113,-268.092,
3875368.000,-178.092,-20.867,120.754,0.000,80.113,-268.092,
3875370.000,-178.092,-20.867,120.754,0.000,80.113,-268.092,
3875373.000,-178.092,-20.867,120.754,0.000,80.113,-268.092,
3875376.000,-178.092,-20.867,120.754,0.000,80.113,-268.092,
3875378.000,-178.092,-20.867,120.754,0.000,80.113,-268.092,
3875380.000,-178.092,-20.867,120.754,0.000,80.113,-268.092,
3875383.000,-178.092,-20.867,120.754,0.000,80.113,-268.092,
3875385.000,-178.092,-20.867,120.754,0.000,80.113,-268.092,
3875388.000,-178.092,-20.867,120.754,0.000,80.113,-268.092,
3875391.000,-178.092,-20.867,120.754,0.000,80.113,-268.092,
3875392.000,-178.092,-20.867,120.754,0.000,80.113,-268.092,
3875393.000,-178.092,-20.867,120.754,0.000,80.113,-268.092,
3875395.000,-178.092,-20.867,120.754,0.000,80.113,-268.092,
3875399.000,-178.092,-20.867,120.754,0.000,80.113,-268.092,
3875401.000,-178.092,-20.867,120.754,0.000,80.113,-268.092,
3875403.000,-178.092,-20.867,120.754,0.000,80.113,-268.092,
3875404.000,-178.092,-20.867,120.754,0.000,80.113,-268.092,
3875405.000,-178.092,-20.867,120.754,0.000,80.113,-268.092,
3875407.000,-178.092,-20.868,120.754,0.000,80.113,-268.092,
3875411.000,-178.092,-20.868,120.754,0.000,80.114,-268.092,
3875413.000,-178.092,-20.869,120.755,0.000,80.114,-268.092,
3875415.000,-178.092,-20.869,120.755,0.000,80.114,-268.092,
3875416.000,-178.092,-20.869,120.755,0.000,80.114,-268.092,
3875417.000,-178.092,-20.869,120.755,0.000,80.114,-268.092,
3875419.000,-178.092,-20.870,120.755,0.000,80.114,-268.092,
3875423.000,-178.092,-20.871,120.756,0.000,80.114,-268.092,
3875425.000,-178.092,-20.871,120.756,0.000,80.114,-268.092,
3875426.000,-178.092,-20.871,120.756,0.000,80.114,-268.092,
3875427.000,-178.092,-20.871,120.756,0.000,80.115,-268.092,
3875428.000,-178.092,-20.872,120.757,0.000,80.115,-268.092,
3875430.000,-178.092,-20.872,120.757,0.000,80.115,-268.092,
3875433.000,-178.092,-20.873,120.757,0.000,80.115,-268.092,
3875436.000,-178.092,-20.874,120.758,0.000,80.115,-268.092,
3875437.000,-178.092,-20.874,120.758,0.000,80.115,-268.092,
3875438.000,-178.092,-20.874,120.758,0.000,80.115,-268.092,
3875440.000,-178.092,-20.875,120.759,0.000,80.116,-268.092,
3875443.000,-178.092,-20.876,120.759,0.000,80.116,-268.092,
3875446.000,-178.092,-20.877,120.760,0.000,80.116,-268.092,
3875451.000,-178.092,-20.879,120.761,0.000,80.117,-268.092,
3875452.000,-178.092,-20.879,120.761,0.000,80.117,-268.092,
3875454.000,-178.092,-20.880,120.762,0.000,80.117,-268.092,
3875456.000,-178.092,-20.881,120.763,0.000,80.118,-268.092,
3875459.000,-178.092,-20.882,120.764,0.000,80.118,-268.092,
3875461.000,-178.092,-20.883,120.764,0.000,80.118,-268.092,
3875464.000,-178.092,-20.884,120.765,0.000,80.119,-268.092,
3875466.000,-178.092,-20.885,120.766,0.000,80.119,-268.092,
3875467.000,-178.092,-20.886,120.766,0.000,80.119,-268.092,
3875470.000,-178.092,-20.888,120.767,0.000,80.120,-268.092,
3875472.000,-178.092,-20.889,120.768,0.000,80.120,-268.092,
3875474.000,-178.092,-20.890,120.769,0.000,80.121,-268.092,
3875477.000,-178.092,-20.892,120.770,0.000,80.121,-268.092,
3875480.000,-178.091,-20.894,120.772,0.000,80.122,-268.091,
3875481.000,-178.091,-20.894,120.772,0.000,80.122,-268.091,
3875483.000,-178.091,-20.896,120.773,0.000,80.122,-268.091,
3875485.000,-178.091,-20.898,120.774,0.000,80.123,-268.091,
3875487.000,-178.091,-20.899,120.775,0.000,80.124,-268.091,
3875490.000,-178.091,-20.902,120.777,0.000,80.124,-268.091,
3875494.000,-178.091,-20.906,120.780,0.000,80.126,-268.091,
3875495.000,-178.091,-20.906,120.780,0.000,80.126,-268.091,
3875497.000,-178.091,-20.909,120.782,0.000,80.126,-268.091,
3875499.000,-178.091,-20.911,120.783,0.000,80.127,-268.091,
3875501.000,-178.091,-20.913,120.784,0.000,80.128,-268.091,
3875503.000,-178.091,-20.915,120.786,0.000,80.129,-268.091,
3875507.000,-178.090,-20.920,120.789,0.000,80.130,-268.090,
3875508.000,-178.090,-20.920,120.789,0.000,80.130,-268.090,
3875509.000,-178.090,-20.923,120.791,0.000,80.131,-268.090,
3875513.000,-178.090,-20.928,120.795,0.000,80.133,-268.090,
3875515.000,-178.090,-20.931,120.797,0.000,80.134,-268.090,
3875517.000,-178.090,-20.934,120.799,0.000,80.135,-268.090,
3875521.000,-178.090,-20.941,120.803,0.000,80.137,-268.090,
3875522.000,-178.090,-20.941,120.803,0.000,80.137,-268.090,
3875524.000,-178.089,-20.946,120.807,0.000,80.139,-268.089,
3875526.000,-178.089,-20.950,120.809,0.000,80.140,-268.089,
3875528.000,-178.089,-20.954,120.812,0.000,80.141,-268.089,
3875530.000,-178.089,-20.958,120.815,0.000,80.142,-268.089,
3875534.000,-178.089,-20.966,120.821,0.000,80.145,-268.089,
3875535.000,-178.089,-20.966,120.821,0.000,80.145,-268.089,
3875537.000,-178.088,-20.973,120.825,0.000,80.147,-268.088,
3875539.000,-178.088,-20.978,120.829,0.000,80.149,-268.088,
3875541.000,-178.088,-20.983,120.832,0.000,80.151,-268.088,
3875544.000,-178.088,-20.992,120.838,0.000,80.153,-268.088,
3875548.000,-178.087,-21.003,120.846,0.000,80.157,-268.087,
3875549.000,-178.087,-21.003,120.846,0.000,80.157,-268.087,
3875551.000,-178.087,-21.013,120.852,0.000,80.160,-268.087,
3875553.000,-178.087,-21.019,120.857,0.000,80.162,-268.087,
3875555.000,-178.086,-21.026,120.861,0.000,80.164,-268.086,
3875557.000,-178.086,-21.033,120.866,0.000,80.167,-268.086,
3875560.000,-178.086,-21.045,120.874,0.000,80.170,-268.086,
3875562.000,-178.085,-21.053,120.879,0.000,80.173,-268.085,
3875564.000,-178.085,-21.061,120.885,0.000,80.176,-268.085,
3875566.000,-178.085,-21.070,120.891,0.000,80.179,-268.085,
3875569.000,-178.084,-21.084,120.900,0.000,80.183,-268.084,
3875572.000,-178.083,-21.098,120.910,0.000,80.188,-268.083,
3875574.000,-178.083,-21.109,120.917,0.000,80.191,-268.083,
3875577.000,-178.082,-21.125,120.928,0.000,80.196,-268.082,
3875578.000,-178.082,-21.131,120.932,0.000,80.198,-268.082,
3875580.000,-178.082,-21.142,120.940,0.000,80.202,-268.082,
3875582.000,-178.081,-21.154,120.948,0.000,80.206,-268.081,
3875585.000,-178.081,-21.174,120.961,0.000,80.212,-268.081,
3875588.000,-178.080,-21.194,120.975,0.000,80.219,-268.080,
3875592.000,-178.079,-21.223,120.994,0.000,80.229,-268.079,
3875593.000,-178.078,-21.231,121.000,0.000,80.231,-268.078,
3875595.000,-178.078,-21.247,121.010,0.000,80.236,-268.078,
3875598.000,-178.077,-21.272,121.027,0.000,80.245,-268.077,
3875601.000,-178.076,-21.299,121.045,0.000,80.253,-268.076,
3875604.000,-178.075,-21.327,121.064,0.000,80.263,-268.075,
3875609.000,-178.072,-21.379,121.099,0.000,80.280,-268.072,
3875612.000,-178.072,-21.401,121.114,0.000,80.287,-268.072,
3875614.000,-178.070,-21.436,121.137,0.000,80.298,-268.070,
3875616.000,-178.069,-21.460,121.153,0.000,80.306,-268.069,
3875618.000,-178.068,-21.485,121.170,0.000,80.315,-268.068,
3875622.000,-178.066,-21.539,121.206,0.000,80.332,-268.066,
3875625.000,-178.064,-21.583,121.235,0.000,80.347,-268.064,
3875629.000,-178.062,-21.644,121.277,0.000,80.367,-268.062,
3875632.000,-178.060,-21.694,121.310,0.000,80.384,-268.060,
3875634.000,-178.059,-21.729,121.333,0.000,80.395,-268.059,
3875637.000,-178.056,-21.783,121.369,0.000,80.414,-268.056,
3875640.000,-178.054,-21.841,121.408,0.000,80.433,-268.054,
3875642.000,-178.053,-21.882,121.435,0.000,80.447,-268.053,
3875645.000,-178.050,-21.945,121.477,0.000,80.468,-268.050,
3875647.000,-178.048,-21.990,121.506,0.000,80.483,-268.048,
3875650.000,-178.045,-22.060,121.552,0.000,80.507,-268.045,
3875653.000,-178.042,-22.133,121.601,0.000,80.532,-268.042,
3875656.000,-178.039,-22.211,121.653,0.000,80.558,-268.039,
3875659.000,-178.036,-22.294,121.707,0.000,80.586,-268.036,
3875660.000,-178.035,-22.322,121.726,0.000,80.596,-268.035,
3875663.000,-178.031,-22.410,121.784,0.000,80.626,-268.031,
3875666.000,-178.027,-22.503,121.845,0.000,80.658,-268.027,
3875668.000,-178.025,-22.568,121.887,0.000,80.681,-268.025,
3875672.000,-178.019,-22.705,121.976,0.000,80.728,-268.019,
3875674.000,-178.016,-22.777,122.023,0.000,80.753,-268.016,
3875676.000,-178.013,-22.851,122.072,0.000,80.779,-268.013,
3875678.000,-178.010,-22.928,122.121,0.000,80.806,-268.010,
3875680.000,-178.007,-23.007,122.173,0.000,80.834,-268.007,
3875682.000,-178.003,-23.089,122.226,0.000,80.863,-268.003,
3875684.000,-178.000,-23.174,122.281,0.000,80.893,-268.000,
3875686.000,-177.996,-23.261,122.337,0.000,80.924,-267.996,
3875688.000,-177.992,-23.352,122.395,0.000,80.956,-267.992,
3875691.000,-177.986,-23.492,122.486,0.000,81.006,-267.986,
3875695.000,-177.978,-23.690,122.612,0.000,81.077,-267.978,
3875697.000,-177.974,-23.794,122.678,0.000,81.115,-267.974,
3875700.000,-177.967,-23.955,122.781,0.000,81.174,-267.967,
3875703.000,-177.959,-24.123,122.887,0.000,81.235,-267.959,
3875706.000,-177.952,-24.298,122.998,0.000,81.300,-267.952,
3875709.000,-177.944,-24.481,123.113,0.000,81.368,-267.944,
3875713.000,-177.933,-24.737,123.273,0.000,81.463,-267.933,
3875715.000,-177.927,-24.870,123.356,0.000,81.513,-267.927,
3875718.000,-177.918,-25.075,123.483,0.000,81.592,-267.918,
3875721.000,-177.911,-25.217,123.571,0.000,81.646,-267.911,
3875723.000,-177.901,-25.436,123.706,0.000,81.730,-267.901,
3875725.000,-177.895,-25.586,123.798,0.000,81.788,-267.895,
3875726.000,-177.895,-25.586,123.798,0.000,81.788,-267.895,
3875729.000,-177.880,-25.898,123.988,0.000,81.910,-267.880,
3875732.000,-177.869,-26.141,124.136,0.000,82.005,-267.869,
3875735.000,-177.857,-26.393,124.287,0.000,82.105,-267.857,
3875737.000,-177.849,-26.565,124.390,0.000,82.174,-267.849,
3875740.000,-177.837,-26.830,124.549,0.000,82.281,-267.837,
3875741.000,-177.833,-26.920,124.602,0.000,82.317,-267.833,
3875744.000,-177.819,-27.196,124.766,0.000,82.430,-267.819,
3875747.000,-177.806,-27.480,124.933,0.000,82.547,-267.806,
3875749.000,-177.796,-27.674,125.046,0.000,82.627,-267.796,
3875752.000,-177.782,-27.972,125.219,0.000,82.752,-267.782,
3875754.000,-177.772,-28.174,125.336,0.000,82.837,-267.772,
3875757.000,-177.756,-28.485,125.515,0.000,82.970,-267.756,
3875758.000,-177.751,-28.591,125.575,0.000,83.015,-267.751,
3875761.000,-177.734,-28.912,125.758,0.000,83.153,-267.734,
3875764.000,-177.717,-29.241,125.944,0.000,83.296,-267.717,
3875766.000,-177.706,-29.465,126.070,0.000,83.394,-267.706,
3875769.000,-177.688,-29.807,126.261,0.000,83.546,-267.688,
3875772.000,-177.669,-30.156,126.454,0.000,83.702,-267.669,
3875773.000,-177.669,-30.156,126.454,0.000,83.702,-267.669,
3875776.000,-177.643,-30.633,126.715,0.000,83.918,-267.643,
3875778.000,-177.630,-30.877,126.847,0.000,84.029,-267.630,
3875781.000,-177.609,-31.248,127.047,0.000,84.200,-267.609,
3875783.000,-177.595,-31.499,127.182,0.000,84.317,-267.595,
3875785.000,-177.581,-31.753,127.317,0.000,84.436,-267.581,
3875786.000,-177.573,-31.881,127.385,0.000,84.496,-267.573,
3875789.000,-177.551,-32.271,127.589,0.000,84.681,-267.551,
3875791.000,-177.535,-32.534,127.726,0.000,84.807,-267.535,
3875793.000,-177.520,-32.800,127.864,0.000,84.935,-267.520,
3875795.000,-177.504,-33.068,128.003,0.000,85.065,-267.504,
3875798.000,-177.479,-33.477,128.211,0.000,85.265,-267.479,
3875799.000,-177.470,-33.614,128.281,0.000,85.333,-267.470,
3875800.000,-177.462,-33.752,128.351,0.000,85.401,-267.462,
3875803.000,-177.436,-34.171,128.561,0.000,85.610,-267.436,
3875805.000,-177.418,-34.453,128.701,0.000,85.751,-267.418,
3875808.000,-177.390,-34.881,128.912,0.000,85.968,-267.390,
3875810.000,-177.372,-35.169,129.053,0.000,86.116,-267.372,
3875813.000,-177.343,-35.607,129.265,0.000,86.341,-267.343,
3875814.000,-177.333,-35.753,129.335,0.000,86.418,-267.333,
3875817.000,-177.303,-36.198,129.547,0.000,86.650,-267.303,
3875818.000,-177.292,-36.347,129.618,0.000,86.729,-267.292,
3875819.000,-177.282,-36.497,129.688,0.000,86.808,-267.282,
3875820.000,-177.271,-36.647,129.759,0.000,86.888,-267.271,
3875821.000,-177.261,-36.798,129.830,0.000,86.968,-267.261,
3875822.000,-177.250,-36.949,129.900,0.000,87.049,-267.250,
3875823.000,-177.250,-36.949,129.900,0.000,87.049,-267.250,
3875827.000,-177.195,-37.715,130.252,0.000,87.462,-267.195,
3875830.000,-177.160,-38.180,130.463,0.000,87.716,-267.160,
3875832.000,-177.137,-38.493,130.603,0.000,87.889,-267.137,
3875835.000,-177.100,-38.965,130.813,0.000,88.152,-267.100,
3875837.000,-177.076,-39.283,130.952,0.000,88.330,-267.076,
3875838.000,-177.063,-39.443,131.022,0.000,88.420,-267.063,
3875841.000,-177.024,-39.924,131.230,0.000,88.693,-267.024,
3875843.000,-176.998,-40.247,131.368,0.000,88.878,-266.998,
3875846.000,-176.957,-40.735,131.574,0.000,89.160,-266.957,
3875849.000,-176.915,-41.226,131.779,0.000,89.446,-266.915,
3875851.000,-176.886,-41.556,131.915,0.000,89.640,-266.886,
3875853.000,-176.856,-41.887,132.050,0.000,89.836,-266.856,
3875854.000,-176.841,-42.054,132.118,0.000,89.935,-266.841,
3875859.000,-176.764,-42.891,132.453,0.000,90.438,-266.764,
3875861.000,-176.732,-43.228,132.585,0.000,90.642,-266.732,
3875864.000,-176.682,-43.737,132.783,0.000,90.954,-266.682,
3875867.000,-176.631,-44.249,132.979,0.000,91.270,-266.631,
3875868.000,-176.613,-44.420,133.043,0.000,91.376,-266.613,
3875869.000,-176.596,-44.592,133.108,0.000,91.483,-266.596,
3875873.000,-176.523,-45.282,133.365,0.000,91.917,-266.523,
3875875.000,-176.485,-45.628,133.492,0.000,92.136,-266.485,
3875877.000,-176.447,-45.976,133.618,0.000,92.358,-266.447,
3875879.000,-176.407,-46.326,133.743,0.000,92.582,-266.407,
3875880.000,-176.387,-46.501,133.805,0.000,92.695,-266.387,
3875881.000,-176.387,-46.501,133.805,0.000,92.695,-266.387,
3875884.000,-176.304,-47.204,134.051,0.000,93.152,-266.304,
3875886.000,-176.261,-47.557,134.173,0.000,93.383,-266.261,
3875889.000,-176.195,-48.088,134.354,0.000,93.734,-266.195,
3875890.000,-176.172,-48.266,134.414,0.000,93.852,-266.172,
3875891.000,-176.149,-48.444,134.473,0.000,93.970,-266.149,
3875893.000,-176.102,-48.800,134.591,0.000,94.209,-266.102,
3875896.000,-176.030,-49.337,134.766,0.000,94.570,-266.030,
3875900.000,-175.929,-50.056,134.996,0.000,95.059,-265.929,
3875902.000,-175.876,-50.416,135.109,0.000,95.306,-265.876,
3875903.000,-175.876,-50.416,135.109,0.000,95.306,-265.876,
3875905.000,-175.794,-50.958,135.277,0.000,95.681,-265.794,
3875907.000,-175.738,-51.321,135.387,0.000,95.933,-265.738,
3875909.000,-175.680,-51.684,135.496,0.000,96.187,-265.680,
3875914.000,-175.528,-52.595,135.764,0.000,96.831,-265.528,
3875915.000,-175.528,-52.595,135.764,0.000,96.831,-265.528,
3875917.000,-175.432,-53.144,135.921,0.000,97.222,-265.432,
3875920.000,-175.331,-53.693,136.075,0.000,97.618,-265.331,
3875922.000,-175.261,-54.061,136.176,0.000,97.884,-265.261,
3875925.000,-175.153,-54.612,136.325,0.000,98.287,-265.153,
3875928.000,-175.039,-55.165,136.471,0.000,98.693,-265.039,
3875929.000,-175.000,-55.349,136.520,0.000,98.829,-265.000,
3875932.000,-174.878,-55.903,136.662,0.000,99.240,-264.878,
3875934.000,-174.794,-56.272,136.755,0.000,99.517,-264.794,
3875937.000,-174.662,-56.827,136.893,0.000,99.934,-264.662,
3875939.000,-174.571,-57.197,136.982,0.000,100.215,-264.571,
3875943.000,-174.378,-57.938,137.158,0.000,100.780,-264.378,
3875944.000,-174.378,-57.938,137.158,0.000,100.780,-264.378,
3875946.000,-174.224,-58.494,137.286,0.000,101.208,-264.224,
3875948.000,-174.117,-58.864,137.369,0.000,101.495,-264.117,
3875950.000,-174.005,-59.235,137.452,0.000,101.783,-264.005,
3875952.000,-173.890,-59.605,137.532,0.000,102.073,-263.890,
3875957.000,-173.580,-60.531,137.728,0.000,102.803,-263.580,
3875958.000,-173.580,-60.531,137.728,0.000,102.803,-263.580,
3875959.000,-173.447,-60.901,137.803,0.000,103.097,-263.447,
3875960.000,-173.379,-61.086,137.841,0.000,103.245,-263.379,
3875961.000,-173.309,-61.270,137.877,0.000,103.392,-263.309,
3875962.000,-173.238,-61.455,137.914,0.000,103.541,-263.238,
3875965.000,-173.014,-62.008,138.021,0.000,103.986,-263.014,
3875966.000,-173.014,-62.008,138.021,0.000,103.986,-263.014,
3875967.000,-172.857,-62.377,138.091,0.000,104.285,-262.857,
3875971.000,-172.521,-63.111,138.226,0.000,104.885,-262.521,
3875973.000,-172.341,-63.478,138.291,0.000,105.186,-262.341,
3875976.000,-172.055,-64.026,138.386,0.000,105.640,-262.055,
3875978.000,-171.852,-64.390,138.447,0.000,105.943,-261.852,
3875980.000,-171.639,-64.753,138.507,0.000,106.246,-261.639,
3875982.000,-171.414,-65.116,138.565,0.000,106.550,-261.414,
3875985.000,-171.055,-65.657,138.649,0.000,107.007,-261.055,
3875987.000,-170.799,-66.016,138.704,0.000,107.312,-260.799,
3875989.000,-170.528,-66.373,138.756,0.000,107.616,-260.528,
3875992.000,-170.091,-66.906,138.833,0.000,108.073,-260.091,
3875995.000,-169.614,-67.435,138.905,0.000,108.530,-259.614,
3875996.000,-169.614,-67.435,138.905,0.000,108.530,-259.614,
3875998.000,-169.091,-67.960,138.974,0.000,108.985,-259.091,
3876000.000,-168.713,-68.306,139.018,0.000,109.288,-258.713,
3876002.000,-168.310,-68.650,139.060,0.000,109.589,-258.310,
3876005.000,-167.651,-69.160,139.121,0.000,110.039,-257.651,
3876009.000,-166.656,-69.829,139.196,0.000,110.633,-256.656,
3876010.000,-166.656,-69.829,139.196,0.000,110.633,-256.656,
3876012.000,-165.806,-70.320,139.248,0.000,111.072,-255.806,
3876014.000,-165.182,-70.641,139.280,0.000,111.360,-255.182,
3876018.000,-163.771,-71.268,139.340,0.000,111.927,-253.771,
3876020.000,-162.971,-71.572,139.368,0.000,112.203,-252.971,
3876022.000,-162.098,-71.869,139.394,0.000,112.474,-252.098,
3876024.000,-161.143,-72.157,139.418,0.000,112.739,-251.143,
3876026.000,-160.096,-72.437,139.441,0.000,112.996,-250.096,
3876029.000,-158.328,-72.837,139.472,0.000,113.365,-248.328,
3876031.000,-156.999,-73.089,139.490,0.000,113.599,-246.999,
3876034.000,-154.742,-73.441,139.515,0.000,113.926,-244.742,
3876036.000,-153.039,-73.656,139.529,0.000,114.127,-243.039,
3876040.000,-149.083,-74.030,139.553,0.000,114.477,-239.083,
3876041.000,-149.083,-74.030,139.553,0.000,114.477,-239.083,
3876043.000,-145.571,-74.253,139.566,0.000,114.686,-235.571,
3876045.000,-142.947,-74.370,139.573,0.000,114.797,-232.947,
3876047.000,-140.088,-74.461,139.578,0.000,114.882,-230.088,
3876050.000,-135.364,-74.542,139.582,0.000,114.959,-225.364,
3876052.000,-131.941,-74.558,139.583,0.000,114.974,-221.941,
3876056.000,-124.538,-74.499,139.580,0.000,114.919,-214.538,
3876059.000,-118.636,-74.378,139.573,0.000,114.804,-208.636,
3876061.000,-114.612,-74.262,139.567,0.000,114.695,-204.612,
3876063.000,-110.566,-74.121,139.558,0.000,114.563,-200.566,
3876065.000,-106.539,-73.957,139.548,0.000,114.408,-196.539,
3876068.000,-100.609,-73.671,139.530,0.000,114.141,-190.609,
3876071.000,-94.898,-73.345,139.508,0.000,113.836,-184.898,
3876072.000,-94.898,-73.345,139.508,0.000,113.836,-184.898,
3876073.000,-89.474,-72.983,139.482,0.000,113.501,-179.474,
3876075.000,-87.738,-72.856,139.473,0.000,113.383,-177.738,
3876078.000,-82.757,-72.457,139.442,0.000,113.014,-172.757,
3876081.000,-78.123,-72.035,139.408,0.000,112.627,-168.123,
3876083.000,-75.227,-71.743,139.383,0.000,112.360,-165.227,
3876086.000,-71.161,-71.290,139.342,0.000,111.948,-161.161,
3876088.000,-68.630,-70.980,139.313,0.000,111.667,-158.630,
3876090.000,-66.234,-70.665,139.282,0.000,111.382,-156.234,
3876093.000,-62.881,-70.181,139.233,0.000,110.948,-152.881,
3876096.000,-59.795,-69.688,139.180,0.000,110.507,-149.795,
3876099.000,-56.953,-69.185,139.124,0.000,110.061,-146.953,
3876102.000,-54.334,-68.675,139.063,0.000,109.612,-144.334,
3876103.000,-53.507,-68.504,139.042,0.000,109.461,-143.507,
3876105.000,-51.918,-68.159,138.999,0.000,109.159,-141.918,
3876107.000,-49.684,-67.637,138.932,0.000,108.704,-139.684,
3876110.000,-48.288,-67.286,138.885,0.000,108.400,-138.288,
3876113.000,-46.322,-66.755,138.811,0.000,107.944,-136.322,
3876118.000,-43.351,-65.863,138.681,0.000,107.182,-133.351,
3876119.000,-42.798,-65.683,138.653,0.000,107.029,-132.798,
3876121.000,-41.732,-65.323,138.598,0.000,106.725,-131.732,
3876124.000,-40.221,-64.780,138.511,0.000,106.269,-130.221,
3876126.000,-39.270,-64.417,138.452,0.000,105.965,-129.270,
3876129.000,-37.919,-63.870,138.359,0.000,105.511,-127.919,
3876133.000,-36.250,-63.139,138.231,0.000,104.907,-126.250,
3876134.000,-35.854,-62.955,138.198,0.000,104.757,-125.854,
3876136.000,-35.086,-62.588,138.130,0.000,104.457,-125.086,
3876138.000,-34.349,-62.220,138.062,0.000,104.158,-124.349,
3876141.000,-33.298,-61.667,137.955,0.000,103.711,-123.298,
3876144.000,-32.307,-61.113,137.846,0.000,103.266,-122.307,
3876147.000,-31.071,-60.373,137.695,0.000,102.678,-121.071,
3876152.000,-29.923,-59.633,137.538,0.000,102.094,-119.923,
3876155.000,-29.115,-59.077,137.417,0.000,101.660,-119.115,
3876158.000,-28.348,-58.521,137.292,0.000,101.229,-118.348,
3876160.000,-27.858,-58.151,137.207,0.000,100.943,-117.858,
3876163.000,-27.154,-57.595,137.077,0.000,100.517,-117.154,
3876166.000,-26.484,-57.040,136.944,0.000,100.095,-116.484,
3876169.000,-25.846,-56.485,136.808,0.000,99.676,-115.846,
3876170.000,-25.640,-56.300,136.762,0.000,99.537,-115.640,
3876172.000,-25.237,-55.930,136.669,0.000,99.261,-115.237,
3876174.000,-24.847,-55.561,136.574,0.000,98.986,-114.847,
3876177.000,-24.284,-55.008,136.430,0.000,98.577,-114.284,
3876179.000,-23.922,-54.639,136.332,0.000,98.307,-113.922,
3876181.000,-23.571,-54.272,136.233,0.000,98.038,-113.571,
3876183.000,-23.230,-53.904,136.133,0.000,97.771,-113.230,
3876185.000,-22.899,-53.537,136.031,0.000,97.505,-112.899,
3876187.000,-22.577,-53.171,135.928,0.000,97.242,-112.577,
3876190.000,-22.111,-52.622,135.772,0.000,96.850,-112.111,
3876192.000,-21.811,-52.257,135.666,0.000,96.591,-111.811,
3876194.000,-21.519,-51.893,135.558,0.000,96.334,-111.519,
3876198.000,-20.958,-51.166,135.340,0.000,95.825,-110.958,
3876200.000,-20.689,-50.804,135.230,0.000,95.574,-110.689,
3876202.000,-20.426,-50.443,135.118,0.000,95.325,-110.426,
3876204.000,-20.170,-50.082,135.005,0.000,95.077,-110.170,
3876206.000,-19.921,-49.722,134.890,0.000,94.832,-109.921,
3876209.000,-19.559,-49.184,134.717,0.000,94.467,-109.559,
3876213.000,-19.096,-48.470,134.482,0.000,93.988,-109.096,
3876215.000,-18.873,-48.114,134.363,0.000,93.751,-108.873,
3876217.000,-18.656,-47.760,134.243,0.000,93.517,-108.656,
3876219.000,-18.444,-47.406,134.121,0.000,93.284,-108.444,
3876223.000,-18.034,-46.702,133.876,0.000,92.825,-108.034,
3876224.000,-17.934,-46.527,133.814,0.000,92.712,-107.934,
3876225.000,-17.836,-46.352,133.752,0.000,92.599,-107.836,
3876228.000,-17.548,-45.828,133.564,0.000,92.264,-107.548,
3876230.000,-17.361,-45.481,133.438,0.000,92.043,-107.361,
3876232.000,-17.179,-45.134,133.310,0.000,91.824,-107.179,
3876234.000,-17.000,-44.789,133.182,0.000,91.607,-107.000,
3876237.000,-16.740,-44.274,132.988,0.000,91.286,-106.740,
3876239.000,-16.571,-43.933,132.858,0.000,91.074,-106.571,
3876241.000,-16.406,-43.592,132.727,0.000,90.865,-106.406,
3876243.000,-16.245,-43.253,132.595,0.000,90.658,-106.245,
3876245.000,-16.087,-42.916,132.462,0.000,90.453,-106.087,
3876247.000,-15.932,-42.580,132.329,0.000,90.250,-105.932,
3876250.000,-15.706,-42.078,132.128,0.000,89.950,-105.706,
3876252.000,-15.560,-41.746,131.993,0.000,89.753,-105.560,
3876254.000,-15.416,-41.415,131.857,0.000,89.557,-105.416,
3876257.000,-15.206,-40.922,131.653,0.000,89.269,-105.206,
3876259.000,-15.070,-40.596,131.516,0.000,89.079,-105.070,
3876262.000,-14.871,-40.109,131.309,0.000,88.799,-104.871,
3876264.000,-14.742,-39.787,131.171,0.000,88.615,-104.742,
3876267.000,-14.553,-39.307,130.963,0.000,88.343,-104.553,
3876269.000,-14.431,-38.989,130.823,0.000,88.165,-104.431,
3876273.000,-14.193,-38.359,130.544,0.000,87.815,-104.193,
3876275.000,-14.077,-38.047,130.403,0.000,87.644,-104.077,
3876277.000,-13.964,-37.738,130.263,0.000,87.474,-103.964,
3876280.000,-13.799,-37.277,130.052,0.000,87.224,-103.799,
3876283.000,-13.638,-36.820,129.840,0.000,86.980,-103.638,
3876285.000,-13.534,-36.519,129.699,0.000,86.820,-103.534,
3876288.000,-13.382,-36.071,129.487,0.000,86.584,-103.382,
3876292.000,-13.186,-35.482,129.205,0.000,86.277,-103.186,
3876294.000,-13.091,-35.191,129.064,0.000,86.127,-103.091,
3876296.000,-12.998,-34.902,128.923,0.000,85.979,-102.998,
3876298.000,-12.907,-34.616,128.782,0.000,85.834,-102.907,
3876301.000,-12.773,-34.192,128.571,0.000,85.620,-102.773,
3876302.000,-12.773,-34.192,128.571,0.000,85.620,-102.773,
3876304.000,-12.644,-33.773,128.361,0.000,85.411,-102.644,
3876307.000,-12.519,-33.360,128.152,0.000,85.208,-102.519,
3876309.000,-12.438,-33.088,128.013,0.000,85.075,-102.438,
3876311.000,-12.358,-32.819,127.875,0.000,84.944,-102.358,
3876313.000,-12.280,-32.553,127.737,0.000,84.816,-102.280,
3876315.000,-12.204,-32.290,127.599,0.000,84.690,-102.204,
3876316.000,-12.204,-32.290,127.599,0.000,84.690,-102.204,
3876320.000,-12.020,-31.644,127.259,0.000,84.385,-102.020,
3876322.000,-11.949,-31.392,127.124,0.000,84.267,-101.949,
3876324.000,-11.880,-31.142,126.990,0.000,84.151,-101.880,
3876326.000,-11.812,-30.895,126.857,0.000,84.037,-101.812,
3876328.000,-11.746,-30.651,126.725,0.000,83.926,-101.746,
3876329.000,-11.713,-30.531,126.659,0.000,83.871,-101.713,
3876332.000,-11.618,-30.174,126.463,0.000,83.710,-101.618,
3876335.000,-11.525,-29.824,126.270,0.000,83.553,-101.525,
3876336.000,-11.495,-29.709,126.206,0.000,83.502,-101.495,
3876337.000,-11.466,-29.595,126.143,0.000,83.452,-101.466,
3876338.000,-11.436,-29.482,126.079,0.000,83.402,-101.436,
3876339.000,-11.436,-29.482,126.079,0.000,83.402,-101.436,
3876341.000,-11.350,-29.147,125.891,0.000,83.255,-101.350,
3876343.000,-11.294,-28.928,125.768,0.000,83.160,-101.294,
3876346.000,-11.213,-28.606,125.584,0.000,83.021,-101.213,
3876348.000,-11.161,-28.396,125.464,0.000,82.932,-101.161,
3876350.000,-11.109,-28.190,125.345,0.000,82.844,-101.109,
3876352.000,-11.084,-28.088,125.286,0.000,82.801,-101.084,
3876354.000,-11.011,-27.787,125.112,0.000,82.675,-101.011,
3876356.000,-10.963,-27.591,124.998,0.000,82.593,-100.963,
3876358.000,-10.917,-27.399,124.885,0.000,82.513,-100.917,
3876360.000,-10.872,-27.210,124.774,0.000,82.436,-100.872,
