shooxitoo/ProjetRobotVision/00_Labo_NE043_TX60L_base_2524/RobotMotionSpySingu3J.txt
J1,J2,J3,J4,J5,J6,empty
4925477.000,21.439,-5.000,80.000,0.055,70.872,-6.645,
4925495.000,21.439,-5.000,80.000,0.055,70.872,-6.645,
4925497.000,21.439,-5.000,80.000,0.055,70.872,-6.645,
4925499.000,21.439,-5.000,80.000,0.055,70.872,-6.645,
4925501.000,21.439,-5.000,80.000,0.055,70.872,-6.645,
4925504.000,21.439,-5.000,80.000,0.055,70.872,-6.645,
4925507.000,21.439,-5.000,80.000,0.055,70.872,-6.645,
4925525.000,21.439,-5.003,80.008,0.054,70.863,-6.644,
4925528.000,21.439,-5.003,80.008,0.054,70.863,-6.644,
4925531.000,21.439,-5.003,80.008,0.054,70.863,-6.644,
4925533.000,21.439,-5.003,80.008,0.054,70.863,-6.644,
4925536.000,21.439,-5.003,80.008,0.054,70.863,-6.644,
4925538.000,21.439,-5.003,80.008,0.054,70.863,-6.644,
4925540.000,21.438,-5.007,80.016,0.053,70.855,-6.643,
4925557.000,21.437,-5.012,80.027,0.052,70.844,-6.642,
4925560.000,21.437,-5.012,80.027,0.052,70.844,-6.642,
4925563.000,21.437,-5.012,80.027,0.052,70.844,-6.642,
4925565.000,21.437,-5.012,80.027,0.052,70.844,-6.642,
4925569.000,21.437,-5.012,80.027,0.052,70.844,-6.642,
4925572.000,21.436,-5.019,80.043,0.051,70.828,-6.641,
4925574.000,21.436,-5.019,80.043,0.051,70.828,-6.641,
4925589.000,21.434,-5.029,80.065,0.049,70.806,-6.639,
4925591.000,21.434,-5.029,80.065,0.049,70.806,-6.639,
4925594.000,21.434,-5.029,80.065,0.049,70.806,-6.639,
4925597.000,21.434,-5.029,80.065,0.049,70.806,-6.639,
4925600.000,21.434,-5.029,80.065,0.049,70.806,-6.639,
4925603.000,21.431,-5.044,80.098,0.045,70.772,-6.635,
4925619.000,21.427,-5.066,80.147,0.041,70.722,-6.631,
4925622.000,21.427,-5.066,80.147,0.041,70.722,-6.631,
4925625.000,21.427,-5.066,80.147,0.041,70.722,-6.631,
4925629.000,21.427,-5.066,80.147,0.041,70.722,-6.631,
4925632.000,21.427,-5.066,80.147,0.041,70.722,-6.631,
4925635.000,21.422,-5.095,80.212,0.035,70.656,-6.624,
4925638.000,21.422,-5.095,80.212,0.035,70.656,-6.624,
4925649.000,21.415,-5.136,80.304,0.026,70.563,-6.615,
4925651.000,21.415,-5.136,80.304,0.026,70.563,-6.615,
4925654.000,21.415,-5.136,80.304,0.026,70.563,-6.615,
4925657.000,21.415,-5.136,80.304,0.026,70.563,-6.615,
4925659.000,21.415,-5.136,80.304,0.026,70.563,-6.615,
4925662.000,21.415,-5.136,80.304,0.026,70.563,-6.615,
4925665.000,21.404,-5.194,80.434,0.013,70.431,-6.602,
4925681.000,21.389,-5.281,80.629,-0.004,70.233,-6.582,
4925684.000,21.389,-5.281,80.629,-0.004,70.233,-6.582,
4925688.000,21.389,-5.281,80.629,-0.004,70.233,-6.582,
4925691.000,21.389,-5.281,80.629,-0.004,70.233,-6.582,
4925695.000,21.389,-5.281,80.629,-0.004,70.233,-6.582,
4925698.000,21.366,-5.404,80.906,-0.031,69.951,-6.554,
4925699.000,21.366,-5.404,80.906,-0.031,69.951,-6.554,
4925712.000,21.337,-5.564,81.266,-0.066,69.584,-6.517,
4925714.000,21.337,-5.564,81.266,-0.066,69.584,-6.517,
4925716.000,21.337,-5.564,81.266,-0.066,69.584,-6.517,
4925719.000,21.337,-5.564,81.266,-0.066,69.584,-6.517,
4925721.000,21.337,-5.564,81.266,-0.066,69.584,-6.517,
4925723.000,21.337,-5.564,81.266,-0.066,69.584,-6.517,
4925725.000,21.337,-5.564,81.266,-0.066,69.584,-6.517,
4925744.000,21.240,-6.086,82.446,-0.183,68.374,-6.392,
4925747.000,21.240,-6.086,82.446,-0.183,68.374,-6.392,
4925751.000,21.240,-6.086,82.446,-0.183,68.374,-6.392,
4925755.000,21.240,-6.086,82.446,-0.183,68.374,-6.392,
4925758.000,21.163,-6.488,83.361,-0.275,67.428,-6.291,
4925762.000,21.163,-6.488,83.361,-0.275,67.428,-6.291,
4925774.000,21.063,-6.998,84.529,-0.396,66.211,-6.158,
4925777.000,21.063,-6.998,84.529,-0.396,66.211,-6.158,
4925781.000,21.063,-6.998,84.529,-0.396,66.211,-6.158,
4925784.000,21.063,-6.998,84.529,-0.396,66.211,-6.158,
4925787.000,21.063,-6.998,84.529,-0.396,66.211,-6.158,
4925790.000,20.947,-7.578,85.870,-0.540,64.801,-5.996,
4925793.000,20.947,-7.578,85.870,-0.540,64.801,-5.996,
4925806.000,20.797,-8.300,87.562,-0.727,63.001,-5.781,
4925810.000,20.797,-8.300,87.562,-0.727,63.001,-5.781,
4925814.000,20.797,-8.300,87.562,-0.727,63.001,-5.781,
4925818.000,20.797,-8.300,87.562,-0.727,63.001,-5.781,
4925822.000,20.619,-9.116,89.502,-0.953,60.910,-5.516,
4925827.000,20.619,-9.116,89.502,-0.953,60.910,-5.516,
4925828.000,20.619,-9.116,89.502,-0.953,60.910,-5.516,
4925837.000,20.430,-9.946,91.512,-1.202,58.710,-5.220,
4925841.000,20.430,-9.946,91.512,-1.202,58.710,-5.220,
4925844.000,20.430,-9.946,91.512,-1.202,58.710,-5.220,
4925848.000,20.430,-9.946,91.512,-1.202,58.710,-5.220,
4925851.000,20.220,-10.816,93.665,-1.486,56.314,-4.876,
4925855.000,20.220,-10.816,93.665,-1.486,56.314,-4.876,
4925858.000,20.220,-10.816,93.665,-1.486,56.314,-4.876,
4925868.000,19.992,-11.706,95.924,-1.807,53.757,-4.481,
4925872.000,19.992,-11.706,95.924,-1.807,53.757,-4.481,
4925876.000,19.992,-11.706,95.924,-1.807,53.757,-4.481,
4925880.000,19.992,-11.706,95.924,-1.807,53.757,-4.481,
4925883.000,19.732,-12.654,98.407,-2.194,50.890,-4.001,
4925888.000,19.732,-12.654,98.407,-2.194,50.890,-4.001,
4925898.000,19.457,-13.582,100.931,-2.632,47.912,-3.456,
4925900.000,19.457,-13.582,100.931,-2.632,47.912,-3.456,
4925903.000,19.457,-13.582,100.931,-2.632,47.912,-3.456,
4925906.000,19.457,-13.582,100.931,-2.632,47.912,-3.456,
4925908.000,19.457,-13.582,100.931,-2.632,47.912,-3.456,
4925911.000,19.457,-13.582,100.931,-2.632,47.912,-3.456,
4925914.000,19.188,-14.420,103.311,-3.095,45.043,-2.879,
4925929.000,18.889,-15.267,105.843,-3.656,41.920,-2.182,
4925931.000,18.889,-15.267,105.843,-3.656,41.920,-2.182,
4925933.000,18.889,-15.267,105.843,-3.656,41.920,-2.182,
4925936.000,18.889,-15.267,105.843,-3.656,41.920,-2.182,
4925939.000,18.889,-15.267,105.843,-3.656,41.920,-2.182,
4925942.000,18.889,-15.267,105.843,-3.656,41.920,-2.182,
4925945.000,18.580,-16.056,108.354,-4.303,38.744,-1.385,
4925962.000,18.261,-16.780,110.835,-5.060,35.526,-0.466,
4925965.000,18.261,-16.780,110.835,-5.060,35.526,-0.466,
4925968.000,18.261,-16.780,110.835,-5.060,35.526,-0.466,
4925972.000,18.261,-16.780,110.835,-5.060,35.526,-0.466,
4925974.000,18.261,-16.780,110.835,-5.060,35.526,-0.466,
4925977.000,17.933,-17.430,113.279,-5.960,32.269,0.611,
4925979.000,17.933,-17.430,113.279,-5.960,32.269,0.611,
4925993.000,17.618,-17.966,115.531,-6.982,29.185,1.810,
4925996.000,17.618,-17.966,115.531,-6.982,29.185,1.810,
4925998.000,17.618,-17.966,115.531,-6.982,29.185,1.810,
4926001.000,17.618,-17.966,115.531,-6.982,29.185,1.810,
4926004.000,17.618,-17.966,115.531,-6.982,29.185,1.810,
4926006.000,17.618,-17.966,115.531,-6.982,29.185,1.810,
4926008.000,17.273,-18.454,117.888,-8.337,25.864,3.367,
4926026.000,16.920,-18.847,120.197,-10.091,22.514,5.337,
4926029.000,16.920,-18.847,120.197,-10.091,22.514,5.337,
4926032.000,16.920,-18.847,120.197,-10.091,22.514,5.337,
4926035.000,16.920,-18.847,120.197,-10.091,22.514,5.337,
4926038.000,16.920,-18.847,120.197,-10.091,22.514,5.337,
4926041.000,16.581,-19.124,122.315,-12.296,19.352,7.756,
4926054.000,16.234,-19.303,124.387,-15.383,16.180,11.069,
4926057.000,16.234,-19.303,124.387,-15.383,16.180,11.069,
4926061.000,16.234,-19.303,124.387,-15.383,16.180,11.069,
4926063.000,16.234,-19.303,124.387,-15.383,16.180,11.069,
4926067.000,16.234,-19.303,124.387,-15.383,16.180,11.069,
4926071.000,15.879,-19.378,126.409,-20.015,13.024,15.939,
4926073.000,15.879,-19.378,126.409,-20.015,13.024,15.939,
4926085.000,15.492,-19.332,128.508,-28.340,9.753,24.534,
4926088.000,15.492,-19.332,128.508,-28.340,9.753,24.534,
4926091.000,15.492,-19.332,128.508,-28.340,9.753,24.534,
4926094.000,15.492,-19.332,128.508,-28.340,9.753,24.534,
4926097.000,15.492,-19.332,128.508,-28.340,9.753,24.534,
4926100.000,15.120,-19.161,130.420,-43.247,6.986,39.706,
4926103.000,15.120,-19.161,130.420,-43.247,6.986,39.706,
4926117.000,14.715,-18.830,132.394,-75.491,5.114,72.249,
4926121.000,14.715,-18.830,132.394,-75.491,5.114,72.249,
4926124.000,14.715,-18.830,132.394,-75.491,5.114,72.249,
4926127.000,14.715,-18.830,132.394,-75.491,5.114,72.249,
4926130.000,14.715,-18.830,132.394,-75.491,5.114,72.249,
4926132.000,14.327,-18.370,134.180,-114.923,5.627,111.976,
4926135.000,14.327,-18.370,134.180,-114.923,5.627,111.976,
4926148.000,13.904,-17.703,136.010,-140.403,8.259,137.788,
4926151.000,13.904,-17.703,136.010,-140.403,8.259,137.788,
4926154.000,13.904,-17.703,136.010,-140.403,8.259,137.788,
4926157.000,13.904,-17.703,136.010,-140.403,8.259,137.788,
4926160.000,13.904,-17.703,136.010,-140.403,8.259,137.788,
4926163.000,13.499,-16.900,137.650,-152.046,11.552,149.760,
4926166.000,13.499,-16.900,137.650,-152.046,11.552,149.760,
4926180.000,13.058,-15.839,139.311,-158.841,15.453,156.923,
4926183.000,13.058,-15.839,139.311,-158.841,15.453,156.923,
4926186.000,13.058,-15.839,139.311,-158.841,15.453,156.923,
4926189.000,13.058,-15.839,139.311,-158.841,15.453,156.923,
4926192.000,13.058,-15.839,139.311,-158.841,15.453,156.923,
4926195.000,12.609,-14.552,140.873,-162.957,19.598,161.428,
4926209.000,12.180,-13.128,142.238,-165.543,23.651,164.398,
4926212.000,12.180,-13.128,142.238,-165.543,23.651,164.398,
4926214.000,12.180,-13.128,142.238,-165.543,23.651,164.398,
4926218.000,12.180,-13.128,142.238,-165.543,23.651,164.398,
4926221.000,12.180,-13.128,142.238,-165.543,23.651,164.398,
4926224.000,11.745,-11.486,143.500,-167.402,27.839,166.661,
4926227.000,11.745,-11.486,143.500,-167.402,27.839,166.661,
4926240.000,11.276,-9.490,144.720,-168.872,32.433,168.582,
4926244.000,11.276,-9.490,144.720,-168.872,32.433,168.582,
4926247.000,11.276,-9.490,144.720,-168.872,32.433,168.582,
4926251.000,11.276,-9.490,144.720,-168.872,32.433,168.582,
4926254.000,11.276,-9.490,144.720,-168.872,32.433,168.582,
4926257.000,10.802,-7.247,145.800,-169.982,37.128,170.165,
4926259.000,10.802,-7.247,145.800,-169.982,37.128,170.165,
4926273.000,10.328,-4.775,146.732,-170.835,41.883,171.511,
4926276.000,10.328,-4.775,146.732,-170.835,41.883,171.511,
4926279.000,10.328,-4.775,146.732,-170.835,41.883,171.511,
4926282.000,10.328,-4.775,146.732,-170.835,41.883,171.511,
4926285.000,10.328,-4.775,146.732,-170.835,41.883,171.511,
4926287.000,9.887,-2.282,147.463,-171.460,46.348,172.613,
4926290.000,9.887,-2.282,147.463,-171.460,46.348,172.613,
4926303.000,9.453,0.336,148.054,-171.952,50.757,173.591,
4926306.000,9.453,0.336,148.054,-171.952,50.757,173.591,
4926309.000,9.453,0.336,148.054,-171.952,50.757,173.591,
4926313.000,9.453,0.336,148.054,-171.952,50.757,173.591,
4926316.000,9.453,0.336,148.054,-171.952,50.757,173.591,
4926319.000,9.005,3.198,148.533,-172.358,55.316,174.518,
4926322.000,9.005,3.198,148.533,-172.358,55.316,174.518,
4926335.000,8.606,5.864,148.849,-172.650,59.367,175.290,
4926337.000,8.606,5.864,148.849,-172.650,59.367,175.290,
4926340.000,8.606,5.864,148.849,-172.650,59.367,175.290,
4926343.000,8.606,5.864,148.849,-172.650,59.367,175.290,
4926346.000,8.606,5.864,148.849,-172.650,59.367,175.290,
4926348.000,8.234,8.430,149.051,-172.870,63.115,175.971,
4926363.000,7.898,10.813,149.160,-173.032,66.483,176.563,
4926366.000,7.898,10.813,149.160,-173.032,66.483,176.563,
4926370.000,7.898,10.813,149.160,-173.032,66.483,176.563,
4926373.000,7.898,10.813,149.160,-173.032,66.483,176.563,
4926376.000,7.898,10.813,149.160,-173.032,66.483,176.563,
4926380.000,7.584,13.076,149.198,-173.155,69.595,177.098,
4926383.000,7.584,13.076,149.198,-173.155,69.595,177.098,
4926395.000,7.320,15.001,149.186,-173.240,72.181,177.536,
4926398.000,7.320,15.001,149.186,-173.240,72.181,177.536,
4926401.000,7.320,15.001,149.186,-173.240,72.181,177.536,
4926404.000,7.320,15.001,149.186,-173.240,72.181,177.536,
4926407.000,7.320,15.001,149.186,-173.240,72.181,177.536,
4926410.000,7.118,16.483,149.149,-173.294,74.137,177.865,
4926412.000,7.118,16.483,149.149,-173.294,74.137,177.865,
4926426.000,6.958,17.667,149.103,-173.330,75.679,178.123,
4926429.000,6.958,17.667,149.103,-173.330,75.679,178.123,
4926432.000,6.958,17.667,149.103,-173.330,75.679,178.123,
4926435.000,6.958,17.667,149.103,-173.330,75.679,178.123,
4926438.000,6.958,17.667,149.103,-173.330,75.679,178.123,
4926441.000,6.827,18.638,149.056,-173.356,76.931,178.333,
4926443.000,6.827,18.638,149.056,-173.356,76.931,178.333,
4926459.000,6.729,19.359,149.014,-173.373,77.853,178.487,
4926462.000,6.729,19.359,149.014,-173.373,77.853,178.487,
4926465.000,6.729,19.359,149.014,-173.373,77.853,178.487,
4926469.000,6.729,19.359,149.014,-173.373,77.853,178.487,
4926472.000,6.729,19.359,149.014,-173.373,77.853,178.487,
4926474.000,6.659,19.882,148.981,-173.384,78.519,178.598,
4926476.000,6.659,19.882,148.981,-173.384,78.519,178.598,
4926490.000,6.611,20.237,148.957,-173.391,78.968,178.673,
4926493.000,6.611,20.237,148.957,-173.391,78.968,178.673,
4926495.000,6.611,20.237,148.957,-173.391,78.968,178.673,
4926498.000,6.611,20.237,148.957,-173.391,78.968,178.673,
4926501.000,6.611,20.237,148.957,-173.391,78.968,178.673,
4926504.000,6.574,20.506,148.937,-173.396,79.308,178.730,
4926520.000,6.549,20.695,148.924,-173.400,79.546,178.770,
4926523.000,6.549,20.695,148.924,-173.400,79.546,178.770,
4926526.000,6.549,20.695,148.924,-173.400,79.546,178.770,
4926529.000,6.549,20.695,148.924,-173.400,79.546,178.770,
4926532.000,6.549,20.695,148.924,-173.400,79.546,178.770,
4926535.000,6.532,20.819,148.914,-173.402,79.703,178.797,
4926538.000,6.532,20.819,148.914,-173.402,79.703,178.797,
4926551.000,6.520,20.907,148.908,-173.403,79.814,178.815,
4926554.000,6.520,20.907,148.908,-173.403,79.814,178.815,
4926557.000,6.520,20.907,148.908,-173.403,79.814,178.815,
4926560.000,6.520,20.907,148.908,-173.403,79.814,178.815,
4926563.000,6.520,20.907,148.908,-173.403,79.814,178.815,
4926565.000,6.512,20.969,148.903,-173.404,79.892,178.828,
4926568.000,6.512,20.969,148.903,-173.404,79.892,178.828,
4926582.000,6.506,21.016,148.899,-173.405,79.950,178.838,
4926585.000,6.506,21.016,148.899,-173.405,79.950,178.838,
4926587.000,6.506,21.016,148.899,-173.405,79.950,178.838,
4926589.000,6.506,21.016,148.899,-173.405,79.950,178.838,
4926591.000,6.506,21.016,148.899,-173.405,79.950,178.838,
4926594.000,6.506,21.016,148.899,-173.405,79.950,178.838,
4926596.000,6.506,21.016,148.899,-173.405,79.950,178.838,
4926613.000,6.498,21.068,148.895,-173.406,80.016,178.849,
4926616.000,6.498,21.068,148.895,-173.406,80.016,178.849,
4926620.000,6.498,21.068,148.895,-173.406,80.016,178.849,
4926623.000,6.498,21.068,148.895,-173.406,80.016,178.849,
4926626.000,6.498,21.068,148.895,-173.406,80.016,178.849,
4926628.000,6.496,21.084,148.894,-173.406,80.035,178.852,
4926631.000,6.496,21.084,148.894,-173.406,80.035,178.852,
4926646.000,6.495,21.094,148.893,-173.406,80.048,178.854,
4926649.000,6.495,21.094,148.893,-173.406,80.048,178.854,
4926652.000,6.495,21.094,148.893,-173.406,80.048,178.854,
4926654.000,6.495,21.094,148.893,-173.406,80.048,178.854,
4926657.000,6.495,21.094,148.893,-173.406,80.048,178.854,
4926661.000,6.494,21.102,148.893,-173.406,80.058,178.856,
4926676.000,6.493,21.106,148.892,-173.406,80.064,178.857,
4926680.000,6.493,21.106,148.892,-173.406,80.064,178.857,
4926683.000,6.493,21.106,148.892,-173.406,80.064,178.857,
4926688.000,6.493,21.106,148.892,-173.406,80.064,178.857,
4926692.000,6.493,21.107,148.892,-173.406,80.064,178.857,
4926696.000,6.493,21.107,148.892,-173.406,80.064,178.857,
4926698.000,6.493,21.107,148.892,-173.406,80.064,178.857,
4926708.000,6.493,21.107,148.892,-173.406,80.064,178.857,
4926712.000,6.493,21.107,148.892,-173.406,80.064,178.857,
4926716.000,6.493,21.107,148.892,-173.406,80.064,178.857,
4926720.000,6.493,21.107,148.892,-173.406,80.064,178.857,
4926724.000,6.493,21.107,148.890,-173.407,80.063,178.857,
4926728.000,6.493,21.107,148.890,-173.407,80.063,178.857,
4926729.000,6.493,21.107,148.890,-173.407,80.063,178.857,
4926740.000,6.492,21.108,148.887,-173.407,80.061,178.857,
4926744.000,6.492,21.108,148.887,-173.407,80.061,178.857,
4926748.000,6.492,21.108,148.887,-173.407,80.061,178.857,
4926752.000,6.492,21.108,148.887,-173.407,80.061,178.857,
4926756.000,6.491,21.110,148.883,-173.408,80.058,178.857,
4926760.000,6.491,21.110,148.883,-173.408,80.058,178.857,
4926761.000,6.491,21.110,148.883,-173.408,80.058,178.857,
4926772.000,6.490,21.112,148.877,-173.410,80.054,178.856,
4926775.000,6.490,21.112,148.877,-173.410,80.054,178.856,
4926777.000,6.490,21.112,148.877,-173.410,80.054,178.856,
4926780.000,6.490,21.112,148.877,-173.410,80.054,178.856,
4926782.000,6.490,21.112,148.877,-173.410,80.054,178.856,
4926784.000,6.490,21.112,148.877,-173.410,80.054,178.856,
4926785.000,6.490,21.112,148.877,-173.410,80.054,178.856,
4926803.000,6.486,21.118,148.859,-173.413,80.042,178.856,
4926805.000,6.486,21.118,148.859,-173.413,80.042,178.856,
4926807.000,6.486,21.118,148.859,-173.413,80.042,178.856,
4926809.000,6.486,21.118,148.859,-173.413,80.042,178.856,
4926810.000,6.486,21.118,148.859,-173.413,80.042,178.856,
4926814.000,6.486,21.118,148.859,-173.413,80.042,178.856,
4926817.000,6.483,21.124,148.843,-173.417,80.032,178.855,
4926819.000,6.483,21.124,148.843,-173.417,80.032,178.855,
4926821.000,6.483,21.124,148.843,-173.417,80.032,178.855,
4926824.000,6.483,21.124,148.843,-173.417,80.032,178.855,
4926826.000,6.483,21.124,148.843,-173.417,80.032,178.855,
4926829.000,6.483,21.124,148.843,-173.417,80.032,178.855,
4926831.000,6.483,21.124,148.843,-173.417,80.032,178.855,
4926833.000,6.478,21.132,148.821,-173.421,80.018,178.854,
4926835.000,6.478,21.132,148.821,-173.421,80.018,178.854,
4926837.000,6.478,21.132,148.821,-173.421,80.018,178.854,
4926840.000,6.478,21.132,148.821,-173.421,80.018,178.854,
4926842.000,6.478,21.132,148.821,-173.421,80.018,178.854,
4926844.000,6.478,21.132,148.821,-173.421,80.018,178.854,
4926846.000,6.478,21.132,148.821,-173.421,80.018,178.854,
4926850.000,6.471,21.142,148.791,-173.427,79.998,178.853,
4926852.000,6.471,21.142,148.791,-173.427,79.998,178.853,
4926855.000,6.471,21.142,148.791,-173.427,79.998,178.853,
4926857.000,6.471,21.142,148.791,-173.427,79.998,178.853,
4926859.000,6.471,21.142,148.791,-173.427,79.998,178.853,
4926861.000,6.471,21.142,148.791,-173.427,79.998,178.853,
4926862.000,6.471,21.142,148.791,-173.427,79.998,178.853,
4926880.000,6.451,21.175,148.697,-173.446,79.938,178.850,
4926882.000,6.451,21.175,148.697,-173.446,79.938,178.850,
4926884.000,6.451,21.175,148.697,-173.446,79.938,178.850,
4926887.000,6.451,21.175,148.697,-173.446,79.938,178.850,
4926890.000,6.451,21.175,148.697,-173.446,79.938,178.850,
4926893.000,6.451,21.175,148.697,-173.446,79.938,178.850,
4926894.000,6.451,21.175,148.697,-173.446,79.938,178.850,
4926913.000,6.411,21.242,148.510,-173.484,79.817,178.843,
4926915.000,6.411,21.242,148.510,-173.484,79.817,178.843,
4926918.000,6.411,21.242,148.510,-173.484,79.817,178.843,
4926920.000,6.411,21.242,148.510,-173.484,79.817,178.843,
4926923.000,6.411,21.242,148.510,-173.484,79.817,178.843,
4926926.000,6.382,21.292,148.371,-173.512,79.728,178.838,
4926942.000,6.341,21.363,148.171,-173.552,79.599,178.831,
4926945.000,6.341,21.363,148.171,-173.552,79.599,178.831,
4926947.000,6.341,21.363,148.171,-173.552,79.599,178.831,
4926950.000,6.341,21.363,148.171,-173.552,79.599,178.831,
4926953.000,6.341,21.363,148.171,-173.552,79.599,178.831,
4926955.000,6.341,21.363,148.171,-173.552,79.599,178.831,
4926958.000,6.286,21.461,147.901,-173.604,79.427,178.821,
4926974.000,6.214,21.592,147.541,-173.673,79.198,178.809,
4926978.000,6.214,21.592,147.541,-173.673,79.198,178.809,
4926981.000,6.214,21.592,147.541,-173.673,79.198,178.809,
4926984.000,6.214,21.592,147.541,-173.673,79.198,178.809,
4926988.000,6.214,21.592,147.541,-173.673,79.198,178.809,
4926990.000,6.129,21.753,147.102,-173.753,78.920,178.795,
4926991.000,6.129,21.753,147.102,-173.753,78.920,178.795,
4927006.000,6.016,21.976,146.504,-173.860,78.544,178.776,
4927008.000,6.016,21.976,146.504,-173.860,78.544,178.776,
4927011.000,6.016,21.976,146.504,-173.860,78.544,178.776,
4927013.000,6.016,21.976,146.504,-173.860,78.544,178.776,
4927016.000,6.016,21.976,146.504,-173.860,78.544,178.776,
4927018.000,6.016,21.976,146.504,-173.860,78.544,178.776,
4927019.000,6.016,21.976,146.504,-173.860,78.544,178.776,
4927022.000,5.881,22.261,145.751,-173.988,78.076,178.753,
4927025.000,5.881,22.261,145.751,-173.988,78.076,178.753,
4927027.000,5.881,22.261,145.751,-173.988,78.076,178.753,
4927029.000,5.881,22.261,145.751,-173.988,78.076,178.753,
4927032.000,5.881,22.261,145.751,-173.988,78.076,178.753,
4927034.000,5.881,22.261,145.751,-173.988,78.076,178.753,
4927036.000,5.881,22.261,145.751,-173.988,78.076,178.753,
4927055.000,5.547,23.050,143.723,-174.302,76.837,178.698,
4927058.000,5.547,23.050,143.723,-174.302,76.837,178.698,
4927061.000,5.547,23.050,143.723,-174.302,76.837,178.698,
4927064.000,5.547,23.050,143.723,-174.302,76.837,178.698,
4927067.000,5.547,23.050,143.723,-174.302,76.837,178.698,
4927068.000,5.368,23.530,142.526,-174.469,76.118,178.669,
4927083.000,5.182,24.079,141.180,-174.642,75.321,178.638,
4927084.000,5.182,24.079,141.180,-174.642,75.321,178.638,
4927085.000,5.182,24.079,141.180,-174.642,75.321,178.638,
4927087.000,5.182,24.079,141.180,-174.642,75.321,178.638,
4927088.000,5.182,24.079,141.180,-174.642,75.321,178.638,
4927089.000,5.182,24.079,141.180,-174.642,75.321,178.638,
4927090.000,5.182,24.079,141.180,-174.642,75.321,178.638,
4927100.000,4.979,24.740,139.593,-174.829,74.395,178.605,
4927103.000,4.979,24.740,139.593,-174.829,74.395,178.605,
4927105.000,4.979,24.740,139.593,-174.829,74.395,178.605,
4927108.000,4.979,24.740,139.593,-174.829,74.395,178.605,
4927111.000,4.979,24.740,139.593,-174.829,74.395,178.605,
4927113.000,4.979,24.740,139.593,-174.829,74.395,178.605,
4927114.000,4.979,24.740,139.593,-174.829,74.395,178.605,
4927133.000,4.580,26.266,136.034,-175.192,72.358,178.539,
4927136.000,4.580,26.266,136.034,-175.192,72.358,178.539,
4927138.000,4.580,26.266,136.034,-175.192,72.358,178.539,
4927140.000,4.580,26.266,136.034,-175.192,72.358,178.539,
4927142.000,4.580,26.266,136.034,-175.192,72.358,178.539,
4927144.000,4.580,26.266,136.034,-175.192,72.358,178.539,
4927162.000,4.223,27.957,132.213,-175.511,70.226,178.478,
4927164.000,4.223,27.957,132.213,-175.511,70.226,178.478,
4927166.000,4.223,27.957,132.213,-175.511,70.226,178.478,
4927169.000,4.223,27.957,132.213,-175.511,70.226,178.478,
4927171.000,4.223,27.957,132.213,-175.511,70.226,178.478,
4927174.000,4.223,27.957,132.213,-175.511,70.226,178.478,
4927176.000,4.223,27.957,132.213,-175.511,70.226,178.478,
4927178.000,4.054,28.895,130.135,-175.659,69.086,178.448,
4927180.000,4.054,28.895,130.135,-175.659,69.086,178.448,
4927182.000,4.054,28.895,130.135,-175.659,69.086,178.448,
4927185.000,4.054,28.895,130.135,-175.659,69.086,178.448,
4927186.000,4.054,28.895,130.135,-175.659,69.086,178.448,
4927189.000,4.054,28.895,130.135,-175.659,69.086,178.448,
4927190.000,4.054,28.895,130.135,-175.659,69.086,178.448,
4927194.000,3.904,29.809,128.135,-175.788,67.999,178.419,
4927196.000,3.904,29.809,128.135,-175.788,67.999,178.419,
4927198.000,3.904,29.809,128.135,-175.788,67.999,178.419,
4927200.000,3.904,29.809,128.135,-175.788,67.999,178.419,
4927202.000,3.904,29.809,128.135,-175.788,67.999,178.419,
4927204.000,3.904,29.809,128.135,-175.788,67.999,178.419,
4927207.000,3.904,29.809,128.135,-175.788,67.999,178.419,
4927210.000,3.754,30.817,125.954,-175.914,66.824,178.390,
4927213.000,3.754,30.817,125.954,-175.914,66.824,178.390,
4927215.000,3.754,30.817,125.954,-175.914,66.824,178.390,
4927217.000,3.754,30.817,125.954,-175.914,66.824,178.390,
4927220.000,3.754,30.817,125.954,-175.914,66.824,178.390,
4927222.000,3.754,30.817,125.954,-175.914,66.824,178.390,
4927223.000,3.754,30.817,125.954,-175.914,66.824,178.390,
4927242.000,3.492,32.853,121.605,-176.130,64.509,178.332,
4927244.000,3.492,32.853,121.605,-176.130,64.509,178.332,
4927246.000,3.492,32.853,121.605,-176.130,64.509,178.332,
4927249.000,3.492,32.853,121.605,-176.130,64.509,178.332,
4927251.000,3.492,32.853,121.605,-176.130,64.509,178.332,
4927254.000,3.492,32.853,121.605,-176.130,64.509,178.332,
4927270.000,3.268,34.919,117.258,-176.304,62.227,178.276,
4927272.000,3.268,34.919,117.258,-176.304,62.227,178.276,
4927274.000,3.268,34.919,117.258,-176.304,62.227,178.276,
4927276.000,3.268,34.919,117.258,-176.304,62.227,178.276,
4927279.000,3.268,34.919,117.258,-176.304,62.227,178.276,
4927281.000,3.268,34.919,117.258,-176.304,62.227,178.276,
4927283.000,3.268,34.919,117.258,-176.304,62.227,178.276,
4927301.000,3.065,37.148,112.628,-176.453,59.824,178.215,
4927304.000,3.065,37.148,112.628,-176.453,59.824,178.215,
4927306.000,3.065,37.148,112.628,-176.453,59.824,178.215,
4927308.000,3.065,37.148,112.628,-176.453,59.824,178.215,
4927310.000,3.065,37.148,112.628,-176.453,59.824,178.215,
4927313.000,3.065,37.148,112.628,-176.453,59.824,178.215,
4927316.000,2.975,38.260,110.335,-176.515,58.643,178.185,
4927333.000,2.884,39.471,107.851,-176.573,57.369,178.150,
4927335.000,2.884,39.471,107.851,-176.573,57.369,178.150,
4927337.000,2.884,39.471,107.851,-176.573,57.369,178.150,
4927340.000,2.884,39.471,107.851,-176.573,57.369,178.150,
4927342.000,2.884,39.471,107.851,-176.573,57.369,178.150,
4927345.000,2.884,39.471,107.851,-176.573,57.369,178.150,
4927346.000,2.884,39.471,107.851,-176.573,57.369,178.150,
4927350.000,2.794,40.787,105.163,-176.628,55.997,178.113,
4927351.000,2.794,40.787,105.163,-176.628,55.997,178.113,
4927353.000,2.794,40.787,105.163,-176.628,55.997,178.113,
4927355.000,2.794,40.787,105.163,-176.628,55.997,178.113,
4927357.000,2.794,40.787,105.163,-176.628,55.997,178.113,
4927360.000,2.794,40.787,105.163,-176.628,55.997,178.113,
4927362.000,2.794,40.787,105.163,-176.628,55.997,178.113,
4927381.000,2.648,43.187,100.293,-176.706,53.526,178.040,
4927383.000,2.648,43.187,100.293,-176.706,53.526,178.040,
4927386.000,2.648,43.187,100.293,-176.706,53.526,178.040,
4927389.000,2.648,43.187,100.293,-176.706,53.526,178.040,
4927391.000,2.648,43.187,100.293,-176.706,53.526,178.040,
4927394.000,2.648,43.187,100.293,-176.706,53.526,178.040,
4927410.000,2.512,45.779,95.069,-176.761,50.893,177.956,
4927412.000,2.512,45.779,95.069,-176.761,50.893,177.956,
4927414.000,2.512,45.779,95.069,-176.761,50.893,177.956,
4927416.000,2.512,45.779,95.069,-176.761,50.893,177.956,
4927419.000,2.512,45.779,95.069,-176.761,50.893,177.956,
4927420.000,2.512,45.779,95.069,-176.761,50.893,177.956,
4927423.000,2.512,45.779,95.069,-176.761,50.893,177.956,
4927440.000,2.393,48.409,89.801,-176.791,48.255,177.862,
4927443.000,2.393,48.409,89.801,-176.791,48.255,177.862,
4927445.000,2.393,48.409,89.801,-176.791,48.255,177.862,
4927448.000,2.393,48.409,89.801,-176.791,48.255,177.862,
4927450.000,2.393,48.409,89.801,-176.791,48.255,177.862,
4927453.000,2.393,48.409,89.801,-176.791,48.255,177.862,
4927454.000,2.393,48.409,89.801,-176.791,48.255,177.862,
4927457.000,2.334,49.866,86.895,-176.796,46.806,177.806,
4927459.000,2.334,49.866,86.895,-176.796,46.806,177.806,
4927461.000,2.334,49.866,86.895,-176.796,46.806,177.806,
4927463.000,2.334,49.866,86.895,-176.796,46.806,177.806,
4927465.000,2.334,49.866,86.895,-176.796,46.806,177.806,
4927468.000,2.334,49.866,86.895,-176.796,46.806,177.806,
4927470.000,2.334,49.866,86.895,-176.796,46.806,177.806,
4927473.000,2.278,51.365,83.913,-176.794,45.323,177.744,
4927475.000,2.278,51.365,83.913,-176.794,45.323,177.744,
4927477.000,2.278,51.365,83.913,-176.794,45.323,177.744,
4927480.000,2.278,51.365,83.913,-176.794,45.323,177.744,
4927482.000,2.278,51.365,83.913,-176.794,45.323,177.744,
4927484.000,2.278,51.365,83.913,-176.794,45.323,177.744,
4927485.000,2.278,51.365,83.913,-176.794,45.323,177.744,
4927489.000,2.229,52.811,81.043,-176.784,43.900,177.681,
4927491.000,2.229,52.811,81.043,-176.784,43.900,177.681,
4927493.000,2.229,52.811,81.043,-176.784,43.900,177.681,
4927495.000,2.229,52.811,81.043,-176.784,43.900,177.681,
4927497.000,2.229,52.811,81.043,-176.784,43.900,177.681,
4927500.000,2.229,52.811,81.043,-176.784,43.900,177.681,
4927518.000,2.133,55.937,74.862,-176.737,40.845,177.530,
4927520.000,2.133,55.937,74.862,-176.737,40.845,177.530,
4927522.000,2.133,55.937,74.862,-176.737,40.845,177.530,
4927525.000,2.133,55.937,74.862,-176.737,40.845,177.530,
4927527.000,2.133,55.937,74.862,-176.737,40.845,177.530,
4927530.000,2.133,55.937,74.862,-176.737,40.845,177.530,
4927532.000,2.133,55.937,74.862,-176.737,40.845,177.530,
4927548.000,2.048,59.160,68.518,-176.650,37.726,177.349,
4927550.000,2.048,59.160,68.518,-176.650,37.726,177.349,
4927553.000,2.048,59.160,68.518,-176.650,37.726,177.349,
4927555.000,2.048,59.160,68.518,-176.650,37.726,177.349,
4927557.000,2.048,59.160,68.518,-176.650,37.726,177.349,
4927560.000,2.048,59.160,68.518,-176.650,37.726,177.349,
4927562.000,2.048,59.160,68.518,-176.650,37.726,177.349,
4927580.000,1.970,62.715,61.550,-176.503,34.315,177.110,
4927582.000,1.970,62.715,61.550,-176.503,34.315,177.110,
4927584.000,1.970,62.715,61.550,-176.503,34.315,177.110,
4927587.000,1.970,62.715,61.550,-176.503,34.315,177.110,
4927589.000,1.970,62.715,61.550,-176.503,34.315,177.110,
4927591.000,1.970,62.715,61.550,-176.503,34.315,177.110,
4927593.000,1.970,62.715,61.550,-176.503,34.315,177.110,
4927611.000,1.901,66.505,54.153,-176.275,30.711,176.796,
4927614.000,1.901,66.505,54.153,-176.275,30.711,176.796,
4927616.000,1.901,66.505,54.153,-176.275,30.711,176.796,
4927618.000,1.901,66.505,54.153,-176.275,30.711,176.796,
4927621.000,1.901,66.505,54.153,-176.275,30.711,176.796,
4927623.000,1.901,66.505,54.153,-176.275,30.711,176.796,
4927625.000,1.870,68.414,50.437,-176.127,28.908,176.608,
4927627.000,1.870,68.414,50.437,-176.127,28.908,176.608,
4927630.000,1.870,68.414,50.437,-176.127,28.908,176.608,
4927632.000,1.870,68.414,50.437,-176.127,28.908,176.608,
4927635.000,1.870,68.414,50.437,-176.127,28.908,176.608,
4927637.000,1.870,68.414,50.437,-176.127,28.908,176.608,
4927639.000,1.870,68.414,50.437,-176.127,28.908,176.608,
4927641.000,1.841,70.493,46.402,-175.935,26.954,176.375,
4927643.000,1.841,70.493,46.402,-175.935,26.954,176.375,
4927646.000,1.841,70.493,46.402,-175.935,26.954,176.375,
4927648.000,1.841,70.493,46.402,-175.935,26.954,176.375,
4927651.000,1.841,70.493,46.402,-175.935,26.954,176.375,
4927653.000,1.841,70.493,46.402,-175.935,26.954,176.375,
4927655.000,1.841,70.493,46.402,-175.935,26.954,176.375,
4927658.000,1.814,72.596,42.327,-175.700,24.985,176.101,
4927660.000,1.814,72.596,42.327,-175.700,24.985,176.101,
4927663.000,1.814,72.596,42.327,-175.700,24.985,176.101,
4927666.000,1.814,72.596,42.327,-175.700,24.985,176.101,
4927669.000,1.814,72.596,42.327,-175.700,24.985,176.101,
4927671.000,1.814,72.596,42.327,-175.700,24.985,176.101,
4927672.000,1.814,72.596,42.327,-175.700,24.985,176.101,
4927689.000,1.771,76.645,34.507,-175.100,21.223,175.431,
4927692.000,1.771,76.645,34.507,-175.100,21.223,175.431,
4927694.000,1.771,76.645,34.507,-175.100,21.223,175.431,
4927697.000,1.771,76.645,34.507,-175.100,21.223,175.431,
4927699.000,1.771,76.645,34.507,-175.100,21.223,175.431,
4927702.000,1.771,76.645,34.507,-175.100,21.223,175.431,
4927703.000,1.771,76.645,34.507,-175.100,21.223,175.431,
4927721.000,1.740,80.459,27.170,-174.270,17.713,174.540,
4927723.000,1.740,80.459,27.170,-174.270,17.713,174.540,
4927725.000,1.740,80.459,27.170,-174.270,17.713,174.540,
4927727.000,1.740,80.459,27.170,-174.270,17.713,174.540,
4927730.000,1.740,80.459,27.170,-174.270,17.713,174.540,
4927732.000,1.740,80.459,27.170,-174.270,17.713,174.540,
4927749.000,1.720,83.713,20.935,-173.226,14.747,173.447,
4927751.000,1.720,83.713,20.935,-173.226,14.747,173.447,
4927753.000,1.720,83.713,20.935,-173.226,14.747,173.447,
4927755.000,1.720,83.713,20.935,-173.226,14.747,173.447,
4927758.000,1.720,83.713,20.935,-173.226,14.747,173.447,
4927759.000,1.720,83.713,20.935,-173.226,14.747,173.447,
4927761.000,1.720,83.713,20.935,-173.226,14.747,173.447,
4927764.000,1.713,85.135,18.216,-172.619,13.459,172.819,
4927766.000,1.713,85.135,18.216,-172.619,13.459,172.819,
4927769.000,1.713,85.135,18.216,-172.619,13.459,172.819,
4927771.000,1.713,85.135,18.216,-172.619,13.459,172.819,
4927773.000,1.713,85.135,18.216,-172.619,13.459,172.819,
4927775.000,1.713,85.135,18.216,-172.619,13.459,172.819,
4927776.000,1.713,85.135,18.216,-172.619,13.459,172.819,
4927781.000,1.707,86.493,15.624,-171.916,12.235,172.098,
4927782.000,1.707,86.493,15.624,-171.916,12.235,172.098,
4927784.000,1.707,86.493,15.624,-171.916,12.235,172.098,
4927787.000,1.707,86.493,15.624,-171.916,12.235,172.098,
4927788.000,1.707,86.493,15.624,-171.916,12.235,172.098,
4927790.000,1.707,86.493,15.624,-171.916,12.235,172.098,
4927792.000,1.707,86.493,15.624,-171.916,12.235,172.098,
4927797.000,1.703,87.689,13.343,-171.167,11.162,171.332,
4927800.000,1.703,87.689,13.343,-171.167,11.162,171.332,
4927802.000,1.703,87.689,13.343,-171.167,11.162,171.332,
4927804.000,1.703,87.689,13.343,-171.167,11.162,171.332,
4927806.000,1.703,87.689,13.343,-171.167,11.162,171.332,
4927809.000,1.703,87.689,13.343,-171.167,11.162,171.332,
4927811.000,1.703,87.689,13.343,-171.167,11.162,171.332,
4927813.000,1.700,88.672,11.472,-170.434,10.285,170.584,
4927815.000,1.700,88.672,11.472,-170.434,10.285,170.584,
4927817.000,1.700,88.672,11.472,-170.434,10.285,170.584,
4927820.000,1.700,88.672,11.472,-170.434,10.285,170.584,
4927822.000,1.700,88.672,11.472,-170.434,10.285,170.584,
4927824.000,1.700,88.672,11.472,-170.434,10.285,170.584,
4927827.000,1.697,89.585,9.737,-169.630,9.474,169.768,
4927830.000,1.697,89.585,9.737,-169.630,9.474,169.768,
4927832.000,1.697,89.585,9.737,-169.630,9.474,169.768,
4927835.000,1.697,89.585,9.737,-169.630,9.474,169.768,
4927837.000,1.697,89.585,9.737,-169.630,9.474,169.768,
4927840.000,1.697,89.585,9.737,-169.630,9.474,169.768,
4927841.000,1.697,89.585,9.737,-169.630,9.474,169.768,
4927859.000,1.694,91.006,7.038,-168.061,8.220,168.180,
4927861.000,1.694,91.006,7.038,-168.061,8.220,168.180,
4927863.000,1.694,91.006,7.038,-168.061,8.220,168.180,
4927866.000,1.694,91.006,7.038,-168.061,8.220,168.180,
4927869.000,1.694,91.006,7.038,-168.061,8.220,168.180,
4927871.000,1.694,91.006,7.038,-168.061,8.220,168.180,
4927873.000,1.694,91.006,7.038,-168.061,8.220,168.180,
4927891.000,1.693,92.058,5.043,-166.551,7.299,166.656,
4927893.000,1.693,92.058,5.043,-166.551,7.299,166.656,
4927894.000,1.693,92.058,5.043,-166.551,7.299,166.656,
4927897.000,1.693,92.058,5.043,-166.551,7.299,166.656,
4927900.000,1.693,92.058,5.043,-166.551,7.299,166.656,
4927902.000,1.693,92.058,5.043,-166.551,7.299,166.656,
4927903.000,1.693,92.058,5.043,-166.551,7.299,166.656,
4927923.000,1.692,92.857,3.529,-165.124,6.606,165.219,
4927925.000,1.692,92.857,3.529,-165.124,6.606,165.219,
4927927.000,1.692,92.857,3.529,-165.124,6.606,165.219,
4927930.000,1.692,92.857,3.529,-165.124,6.606,165.219,
4927932.000,1.692,92.857,3.529,-165.124,6.606,165.219,
4927934.000,1.692,92.857,3.529,-165.124,6.606,165.219,
4927952.000,1.692,93.432,2.441,-163.897,6.111,163.984,
4927954.000,1.692,93.432,2.441,-163.897,6.111,163.984,
4927956.000,1.692,93.432,2.441,-163.897,6.111,163.984,
4927958.000,1.692,93.432,2.441,-163.897,6.111,163.984,
4927960.000,1.692,93.432,2.441,-163.897,6.111,163.984,
4927963.000,1.692,93.432,2.441,-163.897,6.111,163.984,
4927965.000,1.692,93.432,2.441,-163.897,6.111,163.984,
4927983.000,1.691,93.875,1.603,-162.808,5.733,162.889,
4927986.000,1.691,93.875,1.603,-162.808,5.733,162.889,
4927987.000,1.691,93.875,1.603,-162.808,5.733,162.889,
4927990.000,1.691,93.875,1.603,-162.808,5.733,162.889,
4927992.000,1.691,93.875,1.603,-162.808,5.733,162.889,
4927995.000,1.691,93.875,1.603,-162.808,5.733,162.889,
4927997.000,1.691,93.875,1.603,-162.808,5.733,162.889,
4928015.000,1.691,94.248,0.897,-161.774,5.416,161.850,
4928017.000,1.691,94.248,0.897,-161.774,5.416,161.850,
4928019.000,1.691,94.248,0.897,-161.774,5.416,161.850,
4928021.000,1.691,94.248,0.897,-161.774,5.416,161.850,
4928023.000,1.691,94.248,0.897,-161.774,5.416,161.850,
4928025.000,1.691,94.248,0.897,-161.774,5.416,161.850,
4928027.000,1.691,94.248,0.897,-161.774,5.416,161.850,
4928031.000,1.691,94.455,0.507,-161.149,5.242,161.222,
4928033.000,1.691,94.455,0.507,-161.149,5.242,161.222,
4928036.000,1.691,94.455,0.507,-161.149,5.242,161.222,
4928038.000,1.691,94.455,0.507,-161.149,5.242,161.222,
4928040.000,1.691,94.455,0.507,-161.149,5.242,161.222,
4928043.000,1.691,94.455,0.507,-161.149,5.242,161.222,
4928044.000,1.691,94.455,0.507,-161.149,5.242,161.222,
4928063.000,1.691,94.514,0.395,-160.960,5.192,161.033,
4928065.000,1.691,94.514,0.395,-160.960,5.192,161.033,
4928068.000,1.691,94.514,0.395,-160.960,5.192,161.033,
4928070.000,1.691,94.514,0.395,-160.960,5.192,161.033,
4928073.000,1.691,94.514,0.395,-160.960,5.192,161.033,
4928075.000,1.691,94.514,0.395,-160.960,5.192,161.033,
4928092.000,1.691,94.514,0.395,-160.960,5.192,161.033,
4928094.000,1.691,94.514,0.395,-160.960,5.192,161.033,
4928097.000,1.691,94.514,0.395,-160.960,5.192,161.033,
4928099.000,1.691,94.514,0.395,-160.960,5.192,161.033,
4928101.000,1.691,94.514,0.395,-160.960,5.192,161.033,
4928104.000,1.691,94.514,0.395,-160.960,5.192,161.033,
4928106.000,1.691,94.514,0.395,-160.960,5.192,161.033,
4928122.000,1.691,94.514,0.395,-160.960,5.192,161.033,
4928125.000,1.691,94.514,0.395,-160.960,5.192,161.033,
4928128.000,1.691,94.514,0.395,-160.960,5.192,161.033,
4928131.000,1.691,94.514,0.395,-160.960,5.192,161.033,
4928133.000,1.691,94.514,0.395,-160.960,5.192,161.033,
4928136.000,1.691,94.514,0.395,-160.960,5.192,161.033,
4928139.000,1.691,94.514,0.395,-160.960,5.192,161.033,
4928155.000,1.691,94.514,0.395,-160.960,5.192,161.033,
4928157.000,1.691,94.514,0.395,-160.960,5.192,161.033,
4928160.000,1.691,94.514,0.395,-160.960,5.192,161.033,
4928163.000,1.691,94.514,0.395,-160.960,5.192,161.033,
4928167.000,1.691,94.514,0.395,-160.960,5.192,161.033,
4928171.000,1.691,94.514,0.395,-160.960,5.192,161.033,
4928185.000,1.691,94.514,0.395,-160.960,5.192,161.033,
4928187.000,1.691,94.514,0.395,-160.960,5.192,161.033,
4928189.000,1.691,94.514,0.395,-160.960,5.192,161.033,
4928191.000,1.691,94.514,0.395,-160.960,5.192,161.033,
4928193.000,1.691,94.514,0.395,-160.960,5.192,161.033,
4928196.000,1.691,94.514,0.395,-160.960,5.192,161.033,
4928197.000,1.691,94.514,0.395,-160.960,5.192,161.033,
4928200.000,1.691,94.514,0.395,-160.960,5.192,161.033,
4928202.000,1.691,94.514,0.395,-160.960,5.192,161.033,
4928204.000,1.691,94.514,0.395,-160.960,5.192,161.033,
4928206.000,1.691,94.514,0.395,-160.960,5.192,161.033,
4928208.000,1.691,94.514,0.395,-160.960,5.192,161.033,
4928211.000,1.691,94.514,0.395,-160.960,5.192,161.033,
4928213.000,1.691,94.514,0.395,-160.960,5.192,161.033,
4928216.000,1.691,94.514,0.395,-160.960,5.192,161.033,
4928219.000,1.691,94.514,0.395,-160.960,5.192,161.033,
4928221.000,1.691,94.514,0.395,-160.960,5.192,161.033,
4928223.000,1.691,94.514,0.395,-160.960,5.192,161.033,
4928225.000,1.691,94.514,0.395,-160.960,5.192,161.033,
4928227.000,1.691,94.514,0.395,-160.960,5.192,161.033,
4928229.000,1.691,94.514,0.395,-160.960,5.192,161.033,
4928247.000,1.691,94.514,0.395,-160.960,5.192,161.033,
4928249.000,1.691,94.514,0.395,-160.960,5.192,161.033,
4928252.000,1.691,94.514,0.395,-160.960,5.192,161.033,
4928254.000,1.691,94.514,0.395,-160.960,5.192,161.033,
4928256.000,1.691,94.514,0.395,-160.960,5.192,161.033,
4928258.000,1.691,94.514,0.395,-160.960,5.192,161.033,
4928260.000,1.691,94.514,0.395,-160.960,5.192,161.033,
4928277.000,1.691,94.514,0.395,-160.960,5.192,161.033,
4928280.000,1.691,94.514,0.395,-160.960,5.192,161.033,
4928282.000,1.691,94.514,0.395,-160.960,5.192,161.033,
4928284.000,1.691,94.514,0.395,-160.960,5.192,161.033,
4928287.000,1.691,94.514,0.395,-160.960,5.192,161.033,
4928289.000,1.691,94.514,0.395,-160.960,5.192,161.033,
4928307.000,1.691,94.514,0.395,-160.960,5.192,161.033,
4928309.000,1.691,94.514,0.395,-160.960,5.192,161.033,
4928312.000,1.691,94.514,0.395,-160.960,5.192,161.033,
4928314.000,1.691,94.514,0.395,-160.960,5.192,161.033,
4928316.000,1.691,94.514,0.395,-160.960,5.192,161.033,
4928318.000,1.691,94.514,0.395,-160.960,5.192,161.033,
4928321.000,1.691,94.514,0.395,-160.960,5.192,161.033,
4928338.000,1.691,94.514,0.395,-160.960,5.192,161.033,
4928341.000,1.691,94.514,0.395,-160.960,5.192,161.033,
4928344.000,1.691,94.514,0.395,-160.960,5.192,161.033,
4928347.000,1.691,94.514,0.395,-160.960,5.192,161.033,
4928350.000,1.691,94.514,0.395,-160.960,5.192,161.033,
4928353.000,1.691,94.514,0.395,-160.960,5.192,161.033,
4928355.000,1.691,94.514,0.395,-160.960,5.192,161.033,
4928370.000,1.691,94.514,0.395,-160.960,5.192,161.033,
4928373.000,1.691,94.514,0.395,-160.960,5.192,161.033,
4928375.000,1.691,94.514,0.395,-160.960,5.192,161.033,
4928377.000,1.691,94.514,0.395,-160.960,5.192,161.033,
4928380.000,1.691,94.514,0.395,-160.960,5.192,161.033,
4928382.000,1.691,94.514,0.395,-160.960,5.192,161.033,
4928384.000,1.691,94.514,0.395,-160.960,5.192,161.033,
4928402.000,1.691,94.514,0.395,-160.960,5.192,161.033,
4928405.000,1.691,94.514,0.395,-160.960,5.192,161.033,
4928408.000,1.691,94.514,0.395,-160.960,5.192,161.033,
4928410.000,1.691,94.514,0.395,-160.960,5.192,161.033,
4928413.000,1.691,94.514,0.395,-160.960,5.192,161.033,
4928416.000,1.691,94.514,0.395,-160.960,5.192,161.033,
4928419.000,1.691,94.514,0.395,-160.960,5.192,161.033,
4928434.000,1.691,94.514,0.395,-160.960,5.192,161.033,
4928437.000,1.691,94.514,0.395,-160.960,5.192,161.033,
4928440.000,1.691,94.514,0.395,-160.960,5.192,161.033,
4928443.000,1.691,94.514,0.395,-160.960,5.192,161.033,
4928445.000,1.691,94.514,0.395,-160.960,5.192,161.033,
4928447.000,1.691,94.514,0.395,-160.960,5.192,161.033,
4928463.000,1.691,94.514,0.395,-160.960,5.192,161.033,
4928465.000,1.691,94.514,0.395,-160.960,5.192,161.033,
4928467.000,1.691,94.514,0.395,-160.960,5.192,161.033,
4928469.000,1.691,94.514,0.395,-160.960,5.192,161.033,
4928472.000,1.691,94.514,0.395,-160.960,5.192,161.033,
4928474.000,1.691,94.514,0.395,-160.960,5.192,161.033,
4928476.000,1.691,94.514,0.395,-160.960,5.192,161.033,
4928479.000,1.691,94.514,0.395,-160.960,5.192,161.033,
4928481.000,1.691,94.514,0.395,-160.960,5.192,161.033,
4928483.000,1.691,94.514,0.395,-160.960,5.192,161.033,
4928486.000,1.691,94.514,0.395,-160.960,5.192,161.033,
4928488.000,1.691,94.514,0.395,-160.960,5.192,161.033,
4928490.000,1.691,94.514,0.395,-160.960,5.192,161.033,
4928491.000,1.691,94.514,0.395,-160.960,5.192,161.033,
4928493.000,1.691,94.514,0.395,-160.960,5.192,161.033,
4928496.000,1.691,94.514,0.395,-160.960,5.192,161.033,
4928498.000,1.691,94.514,0.395,-160.960,5.192,161.033,
4928500.000,1.691,94.514,0.395,-160.960,5.192,161.033,
4928502.000,1.691,94.514,0.395,-160.960,5.192,161.033,
4928504.000,1.691,94.514,0.395,-160.960,5.192,161.033,
4928506.000,1.691,94.514,0.395,-160.960,5.192,161.033,
4928509.000,1.691,94.514,0.395,-160.960,5.192,161.033,
4928511.000,1.691,94.514,0.395,-160.960,5.192,161.033,
4928514.000,1.691,94.514,0.395,-160.960,5.192,161.033,
4928516.000,1.691,94.514,0.395,-160.960,5.192,161.033,
4928518.000,1.691,94.514,0.395,-160.960,5.192,161.033,
4928521.000,1.691,94.514,0.395,-160.960,5.192,161.033,
4928523.000,1.691,94.514,0.395,-160.960,5.192,161.033,
4928526.000,1.691,94.514,0.395,-160.960,5.192,161.033,
4928529.000,1.691,94.514,0.395,-160.960,5.192,161.033,
4928531.000,1.691,94.514,0.395,-160.960,5.192,161.033,
4928534.000,1.691,94.514,0.395,-160.960,5.192,161.033,
4928536.000,1.691,94.514,0.395,-160.960,5.192,161.033,
4928539.000,1.691,94.514,0.395,-160.960,5.192,161.033,
4928542.000,1.691,94.514,0.395,-160.960,5.192,161.033,
4928544.000,1.691,94.514,0.395,-160.960,5.192,161.033,
4928546.000,1.691,94.514,0.395,-160.960,5.192,161.033,
4928549.000,1.691,94.514,0.395,-160.960,5.192,161.033,
4928551.000,1.691,94.514,0.395,-160.960,5.192,161.033,
4928554.000,1.691,94.514,0.395,-160.960,5.192,161.033,
4928556.000,1.691,94.514,0.395,-160.960,5.192,161.033,
4928559.000,1.691,94.514,0.395,-160.960,5.192,161.033,
4928562.000,1.691,94.514,0.395,-160.960,5.192,161.033,
4928564.000,1.691,94.514,0.395,-160.960,5.192,161.033,
4928566.000,1.691,94.514,0.395,-160.960,5.192,161.033,
4928568.000,1.691,94.514,0.395,-160.960,5.192,161.033,
4928570.000,1.691,94.514,0.395,-160.960,5.192,161.033,
4928573.000,1.691,94.514,0.395,-160.960,5.192,161.033,
4928576.000,1.691,94.514,0.395,-160.960,5.192,161.033,
4928578.000,1.691,94.514,0.395,-160.960,5.192,161.033,
4928580.000,1.691,94.514,0.395,-160.960,5.192,161.033,
4928583.000,1.691,94.514,0.395,-160.960,5.192,161.033,
4928585.000,1.691,94.514,0.395,-160.960,5.192,161.033,
4928588.000,1.691,94.514,0.395,-160.960,5.192,161.033,
4928590.000,1.691,94.514,0.395,-160.960,5.192,161.033,
4928593.000,1.691,94.514,0.395,-160.960,5.192,161.033,
4928596.000,1.691,94.514,0.395,-160.960,5.192,161.033,
4928598.000,1.691,94.514,0.395,-160.960,5.192,161.033,
4928601.000,1.691,94.514,0.395,-160.960,5.192,161.033,
4928603.000,1.691,94.514,0.395,-160.960,5.192,161.033,
4928605.000,1.691,94.514,0.395,-160.960,5.192,161.033,
4928606.000,1.691,94.514,0.395,-160.960,5.192,161.033,
4928610.000,1.691,94.514,0.395,-160.960,5.192,161.033,
4928612.000,1.691,94.514,0.395,-160.960,5.192,161.033,
4928614.000,1.691,94.514,0.395,-160.960,5.192,161.033,
4928616.000,1.691,94.514,0.395,-160.960,5.192,161.033,
4928617.000,1.691,94.514,0.395,-160.960,5.192,161.033,
4928618.000,1.691,94.514,0.395,-160.960,5.192,161.033,
4928621.000,1.691,94.514,0.395,-160.960,5.192,161.033,
4928623.000,1.691,94.514,0.395,-160.960,5.192,161.033,
4928626.000,1.691,94.514,0.395,-160.960,5.192,161.033,
4928627.000,1.691,94.514,0.395,-160.960,5.192,161.033,
4928628.000,1.691,94.514,0.395,-160.960,5.192,161.033,
4928629.000,1.691,94.514,0.395,-160.960,5.192,161.033,
4928630.000,1.691,94.514,0.395,-160.960,5.192,161.033,
4928634.000,1.691,94.514,0.395,-160.960,5.192,161.033,
4928636.000,1.691,94.514,0.395,-160.960,5.192,161.033,
4928638.000,1.691,94.514,0.395,-160.960,5.192,161.033,
4928639.000,1.691,94.514,0.395,-160.960,5.192,161.033,
4928640.000,1.691,94.514,0.395,-160.960,5.192,161.033,
4928641.000,1.691,94.514,0.395,-160.960,5.192,161.033,
4928646.000,1.691,94.514,0.395,-160.960,5.192,161.033,
4928647.000,1.691,94.514,0.395,-160.960,5.192,161.033,
4928648.000,1.691,94.514,0.395,-160.960,5.192,161.033,
4928649.000,1.691,94.514,0.395,-160.960,5.192,161.033,
4928651.000,1.691,94.514,0.395,-160.960,5.192,161.033,
4928653.000,1.691,94.514,0.395,-160.960,5.192,161.033,
4928655.000,1.691,94.514,0.395,-160.960,5.192,161.033,
4928659.000,1.691,94.514,0.395,-160.960,5.192,161.033,
4928660.000,1.691,94.514,0.395,-160.960,5.192,161.033,
4928662.000,1.691,94.514,0.395,-160.960,5.192,161.033,
4928664.000,1.691,94.514,0.395,-160.960,5.192,161.033,
4928666.000,1.691,94.514,0.395,-160.960,5.192,161.033,
4928669.000,1.691,94.514,0.395,-160.960,5.192,161.033,
4928672.000,1.691,94.514,0.395,-160.960,5.192,161.033,
4928673.000,1.691,94.514,0.395,-160.960,5.192,161.033,
4928675.000,1.691,94.514,0.395,-160.960,5.192,161.033,
4928677.000,1.691,94.514,0.395,-160.960,5.192,161.033,
4928679.000,1.691,94.514,0.395,-160.960,5.192,161.033,
4928681.000,1.691,94.514,0.395,-160.960,5.192,161.033,
4928683.000,1.691,94.514,0.395,-160.960,5.192,161.033,
4928685.000,1.691,94.514,0.395,-160.960,5.192,161.033,
4928686.000,1.691,94.514,0.395,-160.960,5.192,161.033,
4928688.000,1.691,94.514,0.395,-160.960,5.192,161.033,
4928690.000,1.691,94.514,0.395,-160.960,5.192,161.033,
4928692.000,1.691,94.514,0.395,-160.960,5.192,161.033,
4928695.000,1.691,94.514,0.395,-160.960,5.192,161.033,
4928699.000,1.691,94.514,0.395,-160.960,5.192,161.033,
4928702.000,1.691,94.514,0.395,-160.960,5.192,161.033,
4928705.000,1.691,94.514,0.395,-160.960,5.192,161.033,
4928709.000,1.691,94.514,0.395,-160.960,5.192,161.033,
4928712.000,1.691,94.514,0.395,-160.960,5.192,161.033,
4928715.000,1.691,94.514,0.395,-160.960,5.192,161.033,
4928717.000,1.691,94.514,0.395,-160.960,5.192,161.033,
4928720.000,1.691,94.514,0.395,-160.960,5.192,161.033,
4928724.000,1.691,94.514,0.395,-160.960,5.192,161.033,
4928727.000,1.691,94.514,0.395,-160.960,5.192,161.033,
4928730.000,1.691,94.514,0.395,-160.960,5.192,161.033,
4928731.000,1.691,94.514,0.395,-160.960,5.192,161.033,
4928733.000,1.691,94.514,0.395,-160.960,5.192,161.033,
4928735.000,1.691,94.514,0.395,-160.960,5.192,161.033,
4928737.000,1.691,94.514,0.395,-160.960,5.192,161.033,
4928739.000,1.691,94.514,0.395,-160.960,5.192,161.033,
4928742.000,1.691,94.514,0.395,-160.960,5.192,161.033,
4928744.000,1.691,94.514,0.395,-160.960,5.192,161.033,
4928745.000,1.691,94.514,0.395,-160.960,5.192,161.033,
4928749.000,1.691,94.514,0.395,-160.960,5.192,161.033,
4928753.000,1.691,94.514,0.395,-160.960,5.192,161.033,
4928755.000,1.691,94.514,0.395,-160.960,5.192,161.033,
4928757.000,1.691,94.514,0.395,-160.960,5.192,161.033,
4928758.000,1.691,94.514,0.395,-160.960,5.192,161.033,
4928760.000,1.691,94.514,0.395,-160.960,5.192,161.033,
4928765.000,1.691,94.514,0.395,-160.960,5.192,161.033,
4928768.000,1.691,94.514,0.395,-160.960,5.192,161.033,
4928771.000,1.691,94.514,0.395,-160.960,5.192,161.033,
4928772.000,1.691,94.514,0.395,-160.960,5.192,161.033,
4928773.000,1.691,94.514,0.395,-160.960,5.192,161.033,
4928775.000,1.691,94.514,0.395,-160.960,5.192,161.033,
4928780.000,1.691,94.514,0.395,-160.960,5.192,161.033,
4928783.000,1.691,94.514,0.395,-160.960,5.192,161.033,
4928785.000,1.691,94.514,0.395,-160.960,5.192,161.033,
4928786.000,1.691,94.514,0.395,-160.960,5.192,161.033,
4928787.000,1.691,94.514,0.395,-160.960,5.192,161.033,
4928790.000,1.691,94.514,0.395,-160.960,5.192,161.033,
4928793.000,1.691,94.514,0.395,-160.960,5.192,161.033,
4928797.000,1.691,94.514,0.395,-160.960,5.192,161.033,
4928798.000,1.691,94.514,0.395,-160.960,5.192,161.033,
4928799.000,1.691,94.514,0.395,-160.960,5.192,161.033,
4928802.000,1.691,94.514,0.395,-160.960,5.192,161.033,
4928805.000,1.691,94.514,0.395,-160.960,5.192,161.033,
4928809.000,1.691,94.514,0.395,-160.960,5.192,161.033,
4928812.000,1.691,94.514,0.395,-160.960,5.192,161.033,
4928816.000,1.691,94.514,0.395,-160.960,5.192,161.033,
4928817.000,1.691,94.514,0.395,-160.960,5.192,161.033,
4928819.000,1.691,94.514,0.395,-160.960,5.192,161.033,
4928823.000,1.691,94.514,0.395,-160.960,5.192,161.033,
4928825.000,1.691,94.514,0.395,-160.960,5.192,161.033,
4928828.000,1.691,94.514,0.395,-160.960,5.192,161.033,
4928831.000,1.691,94.514,0.395,-160.960,5.192,161.033,
4928836.000,1.691,94.514,0.395,-160.960,5.192,161.033,
4928840.000,1.691,94.514,0.395,-160.960,5.192,161.033,
4928843.000,1.691,94.514,0.395,-160.960,5.192,161.033,
4928846.000,1.691,94.514,0.395,-160.960,5.192,161.033,
4928849.000,1.691,94.514,0.395,-160.960,5.192,161.033,
4928850.000,1.691,94.514,0.395,-160.960,5.192,161.033,
4928853.000,1.691,94.514,0.395,-160.960,5.192,161.033,
4928855.000,1.691,94.514,0.395,-160.960,5.192,161.033,
4928858.000,1.691,94.514,0.395,-160.960,5.192,161.033,
4928862.000,1.691,94.514,0.395,-160.960,5.192,161.033,
4928865.000,1.691,94.514,0.395,-160.960,5.192,161.033,
4928867.000,1.691,94.514,0.395,-160.960,5.192,161.033,
4928870.000,1.691,94.514,0.395,-160.960,5.192,161.033,
4928873.000,1.691,94.514,0.395,-160.960,5.192,161.033,
4928876.000,1.691,94.514,0.395,-160.960,5.192,161.033,
4928878.000,1.691,94.514,0.395,-160.960,5.192,161.033,
4928879.000,1.691,94.514,0.395,-160.960,5.192,161.033,
4928880.000,1.691,94.514,0.395,-160.960,5.192,161.033,
4928883.000,1.691,94.514,0.395,-160.960,5.192,161.033,
4928887.000,1.691,94.514,0.395,-160.960,5.192,161.033,
4928888.000,1.691,94.514,0.395,-160.960,5.192,161.033,
4928889.000,1.691,94.514,0.395,-160.960,5.192,161.033,
4928891.000,1.691,94.514,0.395,-160.960,5.192,161.033,
4928894.000,1.691,94.514,0.395,-160.960,5.192,161.033,
4928897.000,1.691,94.514,0.395,-160.960,5.192,161.033,
4928901.000,1.691,94.514,0.395,-160.960,5.192,161.033,
4928902.000,1.691,94.514,0.395,-160.960,5.192,161.033,
4928903.000,1.691,94.514,0.395,-160.960,5.192,161.033,
4928905.000,1.691,94.514,0.395,-160.960,5.192,161.033,
4928908.000,1.691,94.514,0.395,-160.960,5.192,161.033,
4928911.000,1.691,94.514,0.395,-160.960,5.192,161.033,
4928914.000,1.691,94.514,0.395,-160.960,5.192,161.033,
4928917.000,1.691,94.514,0.395,-160.960,5.192,161.033,
4928918.000,1.691,94.514,0.395,-160.960,5.192,161.033,
4928919.000,1.691,94.514,0.395,-160.960,5.192,161.033,
4928922.000,1.691,94.514,0.395,-160.960,5.192,161.033,
4928925.000,1.691,94.514,0.395,-160.960,5.192,161.033,
4928928.000,1.691,94.514,0.395,-160.960,5.192,161.033,
4928932.000,1.691,94.514,0.395,-160.960,5.192,161.033,
4928933.000,1.691,94.514,0.395,-160.960,5.192,161.033,
4928936.000,1.691,94.514,0.395,-160.960,5.192,161.033,
4928939.000,1.691,94.514,0.395,-160.960,5.192,161.033,
4928942.000,1.691,94.514,0.395,-160.960,5.192,161.033,
4928946.000,1.691,94.514,0.395,-160.960,5.192,161.033,
4928948.000,1.691,94.514,0.395,-160.960,5.192,161.033,
4928953.000,1.691,94.514,0.395,-160.960,5.192,161.033,
4928956.000,1.691,94.514,0.395,-160.960,5.192,161.033,
4928958.000,1.691,94.514,0.395,-160.960,5.192,161.033,
4928960.000,1.691,94.514,0.395,-160.960,5.192,161.033,
4928963.000,1.691,94.514,0.395,-160.960,5.192,161.033,
4928965.000,1.691,94.514,0.395,-160.960,5.192,161.033,
4928966.000,1.691,94.514,0.395,-160.960,5.192,161.033,
4928970.000,1.691,94.514,0.395,-160.960,5.192,161.033,
4928972.000,1.691,94.514,0.395,-160.960,5.192,161.033,
4928974.000,1.691,94.514,0.395,-160.960,5.192,161.033,
4928977.000,1.691,94.514,0.395,-160.960,5.192,161.033,
4928978.000,1.691,94.514,0.395,-160.960,5.192,161.033,
4928980.000,1.691,94.514,0.395,-160.960,5.192,161.033,
4928982.000,1.691,94.514,0.395,-160.960,5.192,161.033,
4928984.000,1.691,94.514,0.395,-160.960,5.192,161.033,
4928986.000,1.691,94.514,0.395,-160.960,5.192,161.033,
4928988.000,1.691,94.514,0.395,-160.960,5.192,161.033,
4928989.000,1.691,94.514,0.395,-160.960,5.192,161.033,
4928990.000,1.691,94.514,0.395,-160.960,5.192,161.033,
4928993.000,1.691,94.514,0.395,-160.960,5.192,161.033,
4928995.000,1.691,94.514,0.395,-160.960,5.192,161.033,
4928997.000,1.691,94.514,0.395,-160.960,5.192,161.033,
4928999.000,1.691,94.514,0.395,-160.960,5.192,161.033,
4929000.000,1.691,94.514,0.395,-160.960,5.192,161.033,
4929001.000,1.691,94.514,0.395,-160.960,5.192,161.033,
4929003.000,1.691,94.514,0.395,-160.960,5.192,161.033,
4929005.000,1.691,94.514,0.395,-160.960,5.192,161.033,
4929007.000,1.691,94.514,0.395,-160.960,5.192,161.033,
4929009.000,1.691,94.514,0.395,-160.960,5.192,161.033,
4929012.000,1.691,94.514,0.395,-160.960,5.192,161.033,
4929013.000,1.691,94.514,0.395,-160.960,5.192,161.033,
4929014.000,1.691,94.514,0.395,-160.960,5.192,161.033,
4929016.000,1.691,94.514,0.395,-160.960,5.192,161.033,
4929019.000,1.691,94.514,0.395,-160.960,5.192,161.033,
4929022.000,1.691,94.514,0.395,-160.960,5.192,161.033,
4929025.000,1.691,94.514,0.395,-160.960,5.192,161.033,
4929028.000,1.691,94.514,0.395,-160.960,5.192,161.033,
4929030.000,1.691,94.514,0.395,-160.960,5.192,161.033,
4929031.000,1.691,94.514,0.395,-160.960,5.192,161.033,
4929035.000,1.691,94.514,0.395,-160.960,5.192,161.033,
4929037.000,1.691,94.514,0.395,-160.960,5.192,161.033,
4929039.000,1.691,94.514,0.395,-160.960,5.192,161.033,
4929040.000,1.691,94.514,0.395,-160.960,5.192,161.033,
4929041.000,1.691,94.514,0.395,-160.960,5.192,161.033,
4929042.000,1.691,94.514,0.395,-160.960,5.192,161.033,
4929045.000,1.691,94.514,0.395,-160.960,5.192,161.033,
4929048.000,1.691,94.514,0.395,-160.960,5.192,161.033,
4929051.000,1.691,94.514,0.395,-160.960,5.192,161.033,
4929054.000,1.691,94.514,0.395,-160.960,5.192,161.033,
4929055.000,1.691,94.514,0.395,-160.960,5.192,161.033,
4929056.000,1.691,94.514,0.395,-160.960,5.192,161.033,
4929057.000,1.691,94.514,0.395,-160.960,5.192,161.033,
4929062.000,1.691,94.514,0.395,-160.960,5.192,161.033,
4929065.000,1.691,94.465,0.488,-161.117,5.233,161.190,
4929068.000,1.691,94.421,0.571,-161.254,5.270,161.327,
4929071.000,1.691,94.380,0.648,-161.379,5.305,161.453,
4929072.000,1.691,94.380,0.648,-161.379,5.305,161.453,
4929076.000,1.691,94.317,0.767,-161.571,5.358,161.646,
4929079.000,1.691,94.280,0.837,-161.680,5.389,161.755,
4929083.000,1.691,94.233,0.927,-161.820,5.429,161.896,
4929085.000,1.691,94.209,0.971,-161.889,5.449,161.965,
4929086.000,1.691,94.197,0.994,-161.923,5.459,161.999,
4929088.000,1.691,94.197,0.994,-161.923,5.459,161.999,
4929091.000,1.691,94.139,1.105,-162.091,5.509,162.168,
4929094.000,1.691,94.103,1.171,-162.190,5.539,162.268,
4929096.000,1.691,94.080,1.216,-162.256,5.559,162.335,
4929098.000,1.691,94.056,1.261,-162.322,5.579,162.401,
4929099.000,1.691,94.044,1.284,-162.355,5.589,162.434,
4929100.000,1.691,94.044,1.284,-162.355,5.589,162.434,
4929103.000,1.691,93.996,1.375,-162.487,5.630,162.567,
4929107.000,1.691,93.947,1.468,-162.619,5.672,162.700,
4929110.000,1.691,93.909,1.538,-162.719,5.704,162.800,
4929112.000,1.691,93.884,1.586,-162.786,5.725,162.867,
4929113.000,1.691,93.871,1.610,-162.819,5.736,162.900,
4929114.000,1.691,93.871,1.610,-162.819,5.736,162.900,
4929118.000,1.691,93.806,1.733,-162.988,5.792,163.070,
4929119.000,1.691,93.793,1.759,-163.022,5.803,163.104,
4929122.000,1.691,93.752,1.835,-163.124,5.837,163.207,
4929124.000,1.691,93.725,1.887,-163.193,5.861,163.276,
4929125.000,1.691,93.711,1.913,-163.228,5.873,163.311,
4929126.000,1.691,93.697,1.939,-163.263,5.884,163.346,
4929127.000,1.691,93.697,1.939,-163.263,5.884,163.346,
4929131.000,1.692,93.626,2.074,-163.438,5.945,163.522,
4929133.000,1.692,93.597,2.129,-163.509,5.970,163.594,
4929136.000,1.692,93.552,2.214,-163.617,6.009,163.702,
4929139.000,1.692,93.506,2.301,-163.725,6.048,163.811,
4929141.000,1.692,93.475,2.360,-163.798,6.075,163.885,
4929142.000,1.692,93.475,2.360,-163.798,6.075,163.885,
4929144.000,1.692,93.427,2.451,-163.909,6.116,163.996,
4929148.000,1.692,93.361,2.575,-164.059,6.172,164.147,
4929150.000,1.692,93.327,2.639,-164.135,6.201,164.223,
4929153.000,1.692,93.276,2.737,-164.250,6.246,164.339,
4929154.000,1.692,93.258,2.770,-164.289,6.261,164.378,
4929155.000,1.692,93.240,2.803,-164.328,6.276,164.417,
4929157.000,1.692,93.204,2.871,-164.406,6.307,164.496,
4929162.000,1.692,93.112,3.047,-164.604,6.386,164.695,
4929165.000,1.692,93.054,3.156,-164.725,6.436,164.816,
4929168.000,1.692,92.995,3.268,-164.847,6.487,164.939,
4929169.000,1.692,92.995,3.268,-164.847,6.487,164.939,
4929170.000,1.692,92.975,3.306,-164.888,6.504,164.981,
4929171.000,1.692,92.934,3.384,-164.971,6.540,165.064,
4929176.000,1.692,92.828,3.583,-165.180,6.631,165.275,
4929178.000,1.692,92.785,3.666,-165.265,6.668,165.360,
4929180.000,1.692,92.740,3.750,-165.350,6.707,165.446,
4929181.000,1.692,92.740,3.750,-165.350,6.707,165.446,
4929184.000,1.692,92.649,3.923,-165.524,6.786,165.621,
4929186.000,1.692,92.602,4.012,-165.611,6.827,165.709,
4929188.000,1.692,92.554,4.103,-165.699,6.868,165.798,
4929191.000,1.692,92.480,4.243,-165.833,6.932,165.932,
4929192.000,1.692,92.455,4.291,-165.877,6.954,165.977,
4929193.000,1.692,92.455,4.291,-165.877,6.954,165.977,
4929195.000,1.693,92.378,4.436,-166.012,7.021,166.113,
4929197.000,1.693,92.326,4.535,-166.103,7.066,166.205,
4929200.000,1.693,92.245,4.687,-166.241,7.136,166.343,
4929204.000,1.693,92.134,4.898,-166.426,7.233,166.530,
4929205.000,1.693,92.106,4.952,-166.473,7.257,166.577,
4929206.000,1.693,92.077,5.006,-166.519,7.282,166.624,
4929207.000,1.693,92.048,5.061,-166.566,7.308,166.672,
4929209.000,1.693,91.959,5.229,-166.708,7.385,166.814,
4929212.000,1.693,91.899,5.344,-166.803,7.438,166.910,
4929216.000,1.693,91.774,5.581,-166.994,7.547,167.103,
4929220.000,1.693,91.644,5.827,-167.188,7.660,167.298,
4929221.000,1.693,91.611,5.890,-167.236,7.689,167.347,
4929222.000,1.693,91.611,5.890,-167.236,7.689,167.347,
4929224.000,1.694,91.509,6.083,-167.383,7.778,167.495,
4929227.000,1.694,91.404,6.282,-167.530,7.870,167.644,
4929229.000,1.694,91.333,6.418,-167.629,7.933,167.743,
4929233.000,1.694,91.185,6.697,-167.827,8.062,167.944,
4929234.000,1.694,91.185,6.697,-167.827,8.062,167.944,
4929235.000,1.694,91.148,6.769,-167.877,8.095,167.994,
4929237.000,1.694,91.032,6.988,-168.027,8.197,168.146,
4929239.000,1.695,90.953,7.138,-168.127,8.266,168.247,
4929242.000,1.695,90.832,7.368,-168.278,8.373,168.399,
4929247.000,1.695,90.622,7.767,-168.530,8.558,168.654,
4929248.000,1.695,90.622,7.767,-168.530,8.558,168.654,
4929250.000,1.695,90.491,8.016,-168.682,8.673,168.808,
4929252.000,1.696,90.401,8.186,-168.783,8.752,168.911,
4929255.000,1.696,90.264,8.447,-168.936,8.873,169.065,
4929258.000,1.696,90.122,8.716,-169.088,8.998,169.219,
4929260.000,1.696,90.025,8.899,-169.190,9.084,169.322,
4929263.000,1.697,89.877,9.181,-169.342,9.215,169.476,
4929264.000,1.697,89.827,9.277,-169.393,9.260,169.528,
4929266.000,1.697,89.724,9.471,-169.494,9.350,169.631,
4929268.000,1.697,89.620,9.669,-169.595,9.442,169.733,
4929271.000,1.698,89.460,9.973,-169.747,9.584,169.887,
4929273.000,1.698,89.351,10.181,-169.848,9.681,169.990,
4929275.000,1.698,89.240,10.392,-169.949,9.780,170.092,
4929280.000,1.699,88.953,10.938,-170.200,10.035,170.347,
4929282.000,1.699,88.834,11.164,-170.300,10.140,170.449,
4929284.000,1.700,88.714,11.393,-170.400,10.248,170.550,
4929286.000,1.700,88.591,11.627,-170.499,10.357,170.651,
4929289.000,1.701,88.402,11.986,-170.648,10.525,170.802,
4929292.000,1.701,88.209,12.355,-170.795,10.698,170.952,
4929295.000,1.702,88.010,12.733,-170.941,10.876,171.102,
4929297.000,1.702,87.874,12.991,-171.038,10.997,171.200,
4929300.000,1.703,87.667,13.386,-171.183,11.183,171.348,
4929302.000,1.703,87.525,13.656,-171.279,11.309,171.446,
4929305.000,1.704,87.309,14.069,-171.421,11.503,171.591,
4929307.000,1.705,87.161,14.350,-171.515,11.635,171.687,
4929309.000,1.705,87.011,14.635,-171.609,11.770,171.783,
4929312.000,1.706,86.782,15.073,-171.748,11.976,171.925,
4929315.000,1.707,86.547,15.522,-171.886,12.187,172.066,
4929317.000,1.708,86.387,15.827,-171.977,12.331,172.159,
4929320.000,1.709,86.142,16.293,-172.111,12.551,172.298,
4929322.000,1.709,85.976,16.611,-172.200,12.701,172.389,
4929323.000,1.710,85.892,16.771,-172.244,12.776,172.434,
4929324.000,1.710,85.807,16.933,-172.288,12.853,172.479,
4929327.000,1.711,85.549,17.426,-172.419,13.086,172.614,
4929329.000,1.712,85.373,17.761,-172.505,13.244,172.702,
4929331.000,1.713,85.196,18.100,-172.590,13.404,172.790,
4929333.000,1.714,85.015,18.445,-172.674,13.567,172.877,
4929336.000,1.715,84.740,18.972,-172.799,13.816,173.005,
4929337.000,1.715,84.646,19.149,-172.840,13.901,173.048,
4929338.000,1.716,84.553,19.329,-172.881,13.986,173.090,
4929341.000,1.717,84.268,19.874,-173.002,14.244,173.216,
4929344.000,1.719,83.977,20.430,-173.122,14.507,173.339,
4929346.000,1.720,83.780,20.807,-173.200,14.686,173.420,
4929348.000,1.721,83.580,21.189,-173.277,14.867,173.500,
4929350.000,1.722,83.378,21.575,-173.353,15.051,173.579,
4929351.000,1.722,83.276,21.770,-173.391,15.143,173.618,
4929352.000,1.723,83.174,21.967,-173.428,15.236,173.657,
4929356.000,1.725,82.757,22.764,-173.576,15.615,173.811,
4929358.000,1.727,82.546,23.170,-173.648,15.808,173.886,
4929360.000,1.728,82.331,23.580,-173.719,16.003,173.960,
4929362.000,1.729,82.115,23.994,-173.789,16.200,174.033,
4929364.000,1.731,81.896,24.414,-173.858,16.400,174.106,
4929365.000,1.731,81.786,24.625,-173.892,16.500,174.141,
4929367.000,1.733,81.564,25.051,-173.959,16.703,174.212,
4929369.000,1.734,81.340,25.481,-174.025,16.908,174.282,
4929372.000,1.736,80.999,26.134,-174.123,17.219,174.384,
4929375.000,1.739,80.654,26.796,-174.218,17.535,174.485,
4929377.000,1.740,80.422,27.243,-174.280,17.748,174.550,
4929378.000,1.741,80.304,27.468,-174.310,17.855,174.583,
4929379.000,1.742,80.187,27.693,-174.341,17.963,174.615,
4929381.000,1.744,79.951,28.147,-174.401,18.179,174.678,
4929384.000,1.747,79.592,28.835,-174.489,18.508,174.772,
4929386.000,1.748,79.352,29.298,-174.546,18.729,174.833,
4929388.000,1.750,79.109,29.765,-174.602,18.952,174.893,
4929391.000,1.753,78.742,30.470,-174.684,19.290,174.981,
4929392.000,1.754,78.619,30.707,-174.711,19.403,175.010,
4929394.000,1.756,78.372,31.183,-174.764,19.630,175.067,
4929396.000,1.758,78.123,31.661,-174.816,19.860,175.123,
4929398.000,1.760,77.873,32.143,-174.867,20.090,175.178,
4929401.000,1.764,77.495,32.870,-174.942,20.438,175.259,
4929403.000,1.766,77.242,33.358,-174.990,20.672,175.311,
4929405.000,1.768,76.987,33.848,-175.038,20.907,175.363,
4929406.000,1.768,76.987,33.848,-175.038,20.907,175.363,
4929409.000,1.773,76.475,34.835,-175.130,21.381,175.464,
4929411.000,1.775,76.218,35.331,-175.175,21.619,175.513,
4929413.000,1.778,75.960,35.829,-175.218,21.858,175.561,
4929415.000,1.780,75.700,36.329,-175.261,22.098,175.608,
4929417.000,1.783,75.441,36.830,-175.303,22.339,175.654,
4929419.000,1.786,75.180,37.333,-175.344,22.580,175.699,
4929420.000,1.786,75.180,37.333,-175.344,22.580,175.699,
4929423.000,1.791,74.658,38.342,-175.423,23.066,175.787,
4929425.000,1.794,74.396,38.848,-175.461,23.309,175.830,
4929427.000,1.797,74.133,39.355,-175.498,23.553,175.872,
4929430.000,1.801,73.739,40.117,-175.553,23.920,175.933,
4929432.000,1.804,73.476,40.626,-175.588,24.165,175.973,
4929433.000,1.804,73.476,40.626,-175.588,24.165,175.973,
4929435.000,1.809,73.081,41.390,-175.639,24.534,176.032,
4929437.000,1.812,72.817,41.900,-175.673,24.779,176.070,
4929440.000,1.816,72.422,42.665,-175.721,25.148,176.125,
4929442.000,1.819,72.158,43.175,-175.753,25.394,176.162,
4929444.000,1.823,71.895,43.685,-175.783,25.641,176.197,
4929445.000,1.823,71.895,43.685,-175.783,25.641,176.197,
4929447.000,1.828,71.500,44.449,-175.828,26.010,176.249,
4929449.000,1.831,71.237,44.959,-175.856,26.256,176.283,
4929451.000,1.834,70.975,45.468,-175.885,26.502,176.316,
4929453.000,1.838,70.712,45.976,-175.912,26.748,176.348,
4929455.000,1.841,70.450,46.484,-175.939,26.994,176.380,
4929456.000,1.843,70.319,46.738,-175.952,27.116,176.396,
4929457.000,1.843,70.319,46.738,-175.952,27.116,176.396,
4929460.000,1.850,69.797,47.751,-176.003,27.607,176.457,
4929462.000,1.854,69.537,48.257,-176.027,27.851,176.486,
4929464.000,1.856,69.407,48.509,-176.039,27.973,176.501,
4929465.000,1.860,69.147,49.013,-176.063,28.217,176.530,
4929466.000,1.861,69.018,49.265,-176.075,28.339,176.544,
4929468.000,1.861,69.018,49.265,-176.075,28.339,176.544,
4929471.000,1.871,68.373,50.519,-176.131,28.947,176.613,
4929473.000,1.875,68.116,51.018,-176.152,29.189,176.639,
4929475.000,1.879,67.859,51.517,-176.173,29.431,176.665,
4929477.000,1.883,67.604,52.014,-176.193,29.672,176.691,
4929478.000,1.883,67.604,52.014,-176.193,29.672,176.691,
4929479.000,1.885,67.476,52.262,-176.203,29.793,176.704,
4929481.000,1.891,67.095,53.003,-176.232,30.153,176.741,
4929483.000,1.895,66.842,53.496,-176.251,30.392,176.765,
4929486.000,1.901,66.464,54.233,-176.278,30.750,176.800,
4929487.000,1.903,66.338,54.477,-176.287,30.869,176.812,
4929489.000,1.908,66.088,54.966,-176.304,31.106,176.835,
4929490.000,1.910,65.963,55.209,-176.313,31.225,176.846,
4929493.000,1.916,65.589,55.937,-176.338,31.579,176.879,
4929495.000,1.920,65.341,56.421,-176.354,31.814,176.900,
4929497.000,1.925,65.094,56.903,-176.369,32.049,176.922,
4929499.000,1.929,64.848,57.383,-176.385,32.283,176.942,
4929500.000,1.932,64.725,57.622,-176.392,32.399,176.953,
4929501.000,1.932,64.725,57.622,-176.392,32.399,176.953,
4929502.000,1.936,64.481,58.100,-176.407,32.632,176.973,
4929506.000,1.945,63.994,59.050,-176.435,33.095,177.012,
4929508.000,1.950,63.752,59.522,-176.448,33.325,177.031,
4929510.000,1.954,63.512,59.992,-176.461,33.555,177.050,
4929512.000,1.959,63.272,60.461,-176.474,33.783,177.068,
4929513.000,1.961,63.152,60.695,-176.480,33.897,177.077,
4929516.000,1.968,62.795,61.393,-176.499,34.238,177.104,
4929518.000,1.973,62.558,61.856,-176.510,34.465,177.122,
4929520.000,1.978,62.322,62.318,-176.522,34.690,177.139,
4929522.000,1.983,62.087,62.778,-176.533,34.915,177.156,
4929524.000,1.988,61.853,63.236,-176.544,35.139,177.172,
4929527.000,1.995,61.504,63.919,-176.559,35.473,177.197,
4929528.000,1.998,61.389,64.146,-176.564,35.584,177.205,
4929530.000,2.003,61.158,64.598,-176.574,35.805,177.220,
4929532.000,2.008,60.928,65.049,-176.584,36.026,177.236,
4929534.000,2.013,60.699,65.498,-176.593,36.245,177.251,
4929537.000,2.020,60.357,66.168,-176.607,36.573,177.274,
4929539.000,2.026,60.131,66.612,-176.615,36.791,177.288,
4929541.000,2.031,59.905,67.054,-176.624,37.008,177.303,
4929542.000,2.033,59.793,67.275,-176.628,37.116,177.310,
4929545.000,2.039,59.569,67.715,-176.636,37.332,177.324,
4929547.000,2.047,59.234,68.371,-176.647,37.654,177.344,
4929549.000,2.052,59.013,68.807,-176.655,37.867,177.358,
4929552.000,2.060,58.682,69.457,-176.665,38.186,177.378,
4929554.000,2.066,58.463,69.888,-176.672,38.398,177.391,
4929555.000,2.066,58.463,69.888,-176.672,38.398,177.391,
4929557.000,2.074,58.136,70.531,-176.682,38.714,177.410,
4929559.000,2.079,57.919,70.958,-176.688,38.924,177.422,
4929561.000,2.085,57.703,71.383,-176.694,39.133,177.435,
4929563.000,2.090,57.488,71.806,-176.700,39.341,177.447,
4929565.000,2.096,57.273,72.228,-176.706,39.548,177.459,
4929567.000,2.102,57.060,72.648,-176.711,39.755,177.470,
4929568.000,2.102,57.060,72.648,-176.711,39.755,177.470,
4929570.000,2.110,56.742,73.275,-176.719,40.064,177.488,
4929572.000,2.116,56.531,73.691,-176.724,40.268,177.499,
4929575.000,2.125,56.216,74.311,-176.731,40.574,177.516,
4929577.000,2.131,56.007,74.723,-176.735,40.777,177.527,
4929579.000,2.137,55.799,75.134,-176.740,40.979,177.537,
4929580.000,2.140,55.696,75.338,-176.742,41.080,177.543,
4929581.000,2.142,55.592,75.542,-176.744,41.181,177.548,
4929584.000,2.151,55.283,76.152,-176.750,41.482,177.564,
4929587.000,2.161,54.976,76.759,-176.755,41.781,177.579,
4929589.000,2.164,54.874,76.961,-176.757,41.881,177.584,
4929592.000,2.176,54.468,77.763,-176.763,42.277,177.604,
4929595.000,2.182,54.267,78.161,-176.766,42.474,177.614,
4929596.000,2.182,54.267,78.161,-176.766,42.474,177.614,
4929598.000,2.194,53.866,78.955,-176.772,42.866,177.633,
4929601.000,2.204,53.567,79.546,-176.776,43.158,177.647,
4929603.000,2.210,53.369,79.938,-176.778,43.352,177.656,
4929606.000,2.220,53.073,80.524,-176.781,43.642,177.670,
4929610.000,2.233,52.681,81.300,-176.785,44.027,177.687,
4929611.000,2.233,52.681,81.300,-176.785,44.027,177.687,
4929613.000,2.243,52.390,81.878,-176.788,44.314,177.700,
4929615.000,2.249,52.196,82.262,-176.789,44.504,177.709,
4929617.000,2.256,52.003,82.645,-176.790,44.694,177.717,
4929620.000,2.266,51.715,83.217,-176.792,44.977,177.729,
4929623.000,2.276,51.429,83.785,-176.794,45.260,177.742,
4929625.000,2.283,51.239,84.163,-176.794,45.447,177.750,
4929626.000,2.286,51.144,84.351,-176.795,45.541,177.754,
4929629.000,2.297,50.861,84.914,-176.796,45.820,177.765,
4929632.000,2.307,50.580,85.474,-176.796,46.099,177.777,
4929634.000,2.314,50.393,85.846,-176.796,46.284,177.785,
4929636.000,2.321,50.206,86.217,-176.796,46.468,177.792,
4929637.000,2.325,50.114,86.401,-176.796,46.560,177.796,
4929638.000,2.325,50.114,86.401,-176.796,46.560,177.796,
4929640.000,2.335,49.836,86.954,-176.796,46.835,177.807,
4929644.000,2.350,49.468,87.687,-176.795,47.201,177.821,
4929646.000,2.357,49.285,88.052,-176.795,47.382,177.829,
4929649.000,2.368,49.012,88.597,-176.794,47.654,177.839,
4929650.000,2.372,48.921,88.778,-176.794,47.745,177.843,
4929651.000,2.372,48.921,88.778,-176.794,47.745,177.843,
4929653.000,2.383,48.650,89.320,-176.792,48.015,177.853,
4929657.000,2.398,48.290,90.039,-176.790,48.374,177.866,
4929660.000,2.409,48.022,90.575,-176.788,48.642,177.876,
4929662.000,2.417,47.844,90.931,-176.787,48.820,177.883,
4929663.000,2.421,47.755,91.108,-176.786,48.908,177.886,
4929664.000,2.425,47.666,91.286,-176.785,48.997,177.889,
4929666.000,2.433,47.489,91.640,-176.783,49.174,177.896,
4929669.000,2.444,47.225,92.169,-176.781,49.439,177.905,
4929673.000,2.460,46.875,92.871,-176.777,49.791,177.918,
4929674.000,2.464,46.787,93.045,-176.776,49.878,177.921,
4929675.000,2.468,46.700,93.220,-176.775,49.966,177.924,
4929676.000,2.468,46.700,93.220,-176.775,49.966,177.924,
4929678.000,2.480,46.440,93.742,-176.771,50.228,177.933,
4929680.000,2.488,46.267,94.089,-176.769,50.402,177.939,
4929684.000,2.505,45.923,94.781,-176.764,50.748,177.951,
4929687.000,2.517,45.666,95.296,-176.759,51.008,177.959,
4929688.000,2.521,45.581,95.468,-176.758,51.094,177.962,
4929689.000,2.521,45.581,95.468,-176.758,51.094,177.962,
4929690.000,2.521,45.581,95.468,-176.758,51.094,177.962,
4929692.000,2.538,45.240,96.152,-176.752,51.438,177.974,
4929694.000,2.547,45.071,96.492,-176.749,51.609,177.979,
4929698.000,2.564,44.734,97.171,-176.742,51.950,177.991,
4929700.000,2.573,44.567,97.508,-176.739,52.120,177.996,
4929701.000,2.577,44.483,97.677,-176.737,52.205,177.999,
4929702.000,2.582,44.399,97.845,-176.735,52.290,178.001,
4929703.000,2.582,44.399,97.845,-176.735,52.290,178.001,
4929705.000,2.595,44.149,98.349,-176.729,52.544,178.010,
4929709.000,2.613,43.818,99.018,-176.722,52.882,178.020,
4929711.000,2.622,43.653,99.351,-176.718,53.050,178.025,
4929713.000,2.631,43.488,99.684,-176.714,53.218,178.031,
4929714.000,2.631,43.488,99.684,-176.714,53.218,178.031,
4929716.000,2.645,43.242,100.181,-176.707,53.469,178.038,
4929718.000,2.654,43.079,100.511,-176.703,53.636,178.043,
4929721.000,2.668,42.835,101.005,-176.696,53.886,178.051,
4929724.000,2.682,42.592,101.498,-176.689,54.136,178.058,
4929725.000,2.682,42.592,101.498,-176.689,54.136,178.058,
4929726.000,2.692,42.430,101.825,-176.684,54.301,178.063,
4929729.000,2.706,42.189,102.314,-176.677,54.549,178.071,
4929731.000,2.716,42.028,102.640,-176.671,54.714,178.076,
4929733.000,2.725,41.869,102.964,-176.666,54.879,178.080,
4929736.000,2.740,41.630,103.450,-176.658,55.126,178.088,
4929737.000,2.740,41.630,103.450,-176.658,55.126,178.088,
4929739.000,2.755,41.392,103.933,-176.650,55.371,178.095,
4929741.000,2.765,41.233,104.255,-176.644,55.535,178.099,
4929743.000,2.775,41.076,104.576,-176.639,55.698,178.104,
4929745.000,2.785,40.919,104.896,-176.633,55.861,178.109,
4929747.000,2.796,40.762,105.215,-176.627,56.024,178.113,
4929749.000,2.806,40.605,105.534,-176.621,56.186,178.118,
4929750.000,2.811,40.527,105.693,-176.618,56.267,178.120,
4929752.000,2.822,40.372,106.010,-176.612,56.429,178.125,
4929754.000,2.832,40.216,106.327,-176.605,56.590,178.129,
4929756.000,2.843,40.062,106.644,-176.599,56.752,178.134,
4929758.000,2.854,39.907,106.959,-176.592,56.913,178.138,
4929763.000,2.881,39.523,107.745,-176.576,57.315,178.149,
4929764.000,2.886,39.446,107.901,-176.572,57.395,178.151,
4929767.000,2.903,39.217,108.370,-176.562,57.635,178.158,
4929769.000,2.914,39.065,108.682,-176.555,57.794,178.162,
4929771.000,2.925,38.913,108.993,-176.547,57.954,178.166,
4929773.000,2.936,38.762,109.304,-176.540,58.113,178.171,
4929775.000,2.948,38.611,109.614,-176.533,58.272,178.175,
4929778.000,2.965,38.385,110.077,-176.521,58.510,178.181,
4929780.000,2.977,38.236,110.385,-176.514,58.668,178.185,
4929782.000,2.988,38.086,110.693,-176.506,58.827,178.189,
4929784.000,3.000,37.937,111.000,-176.498,58.985,178.194,
4929787.000,3.012,37.788,111.306,-176.490,59.142,178.198,
4929788.000,3.024,37.640,111.612,-176.481,59.300,178.202,
4929789.000,3.030,37.566,111.764,-176.477,59.378,178.204,
4929793.000,3.048,37.344,112.221,-176.465,59.614,178.210,
4929794.000,3.061,37.197,112.525,-176.456,59.771,178.214,
4929796.000,3.073,37.051,112.829,-176.448,59.927,178.218,
4929798.000,3.085,36.904,113.131,-176.439,60.084,178.222,
4929801.000,3.104,36.685,113.584,-176.425,60.318,178.228,
4929802.000,3.104,36.685,113.584,-176.425,60.318,178.228,
4929804.000,3.123,36.468,114.035,-176.412,60.552,178.234,
4929806.000,3.136,36.323,114.336,-176.402,60.707,178.238,
4929808.000,3.149,36.178,114.635,-176.393,60.863,178.242,
4929810.000,3.162,36.034,114.934,-176.383,61.018,178.246,
4929813.000,3.182,35.819,115.382,-176.369,61.250,178.251,
4929814.000,3.189,35.748,115.531,-176.364,61.327,178.253,
4929815.000,3.195,35.676,115.680,-176.359,61.405,178.255,
4929817.000,3.209,35.533,115.977,-176.349,61.559,178.259,
4929820.000,3.229,35.320,116.421,-176.334,61.791,178.265,
4929822.000,3.243,35.179,116.716,-176.324,61.945,178.269,
4929824.000,3.257,35.037,117.011,-176.313,62.098,178.273,
4929826.000,3.271,34.896,117.306,-176.303,62.252,178.276,
4929827.000,3.278,34.826,117.453,-176.297,62.329,178.278,
4929828.000,3.278,34.826,117.453,-176.297,62.329,178.278,
4929831.000,3.306,34.546,118.039,-176.276,62.635,178.286,
4929834.000,3.328,34.337,118.478,-176.259,62.864,178.292,
4929836.000,3.342,34.198,118.769,-176.248,63.017,178.295,
4929837.000,3.349,34.129,118.914,-176.242,63.093,178.297,
4929838.000,3.349,34.129,118.914,-176.242,63.093,178.297,
4929840.000,3.372,33.921,119.350,-176.225,63.322,178.303,
4929843.000,3.394,33.715,119.785,-176.208,63.550,178.309,
4929845.000,3.409,33.578,120.073,-176.196,63.702,178.312,
4929848.000,3.432,33.373,120.506,-176.178,63.929,178.318,
4929849.000,3.440,33.305,120.649,-176.172,64.005,178.320,
4929850.000,3.447,33.237,120.793,-176.165,64.081,178.322,
4929851.000,3.447,33.237,120.793,-176.165,64.081,178.322,
4929855.000,3.486,32.898,121.509,-176.134,64.458,178.331,
4929858.000,3.510,32.697,121.937,-176.115,64.685,178.336,
4929860.000,3.526,32.563,122.221,-176.102,64.835,178.340,
4929861.000,3.535,32.496,122.363,-176.096,64.910,178.342,
4929862.000,3.535,32.496,122.363,-176.096,64.910,178.342,
4929863.000,3.543,32.429,122.505,-176.089,64.985,178.344,
4929866.000,3.575,32.163,123.070,-176.062,65.285,178.351,
4929868.000,3.592,32.031,123.352,-176.049,65.435,178.355,
4929870.000,3.609,31.899,123.634,-176.035,65.585,178.359,
4929873.000,3.634,31.702,124.054,-176.014,65.809,178.364,
4929875.000,3.651,31.571,124.334,-176.000,65.958,178.368,
4929876.000,3.660,31.506,124.474,-175.993,66.032,178.370,
4929877.000,3.669,31.441,124.613,-175.986,66.107,178.372,
4929879.000,3.686,31.311,124.892,-175.971,66.255,178.375,
4929882.000,3.713,31.117,125.308,-175.949,66.478,178.381,
4929884.000,3.730,30.988,125.585,-175.935,66.626,178.385,
4929887.000,3.757,30.796,125.999,-175.912,66.848,178.390,
4929889.000,3.766,30.732,126.136,-175.904,66.922,178.392,
4929891.000,3.794,30.541,126.548,-175.881,67.143,178.398,
4929892.000,3.803,30.478,126.685,-175.873,67.217,178.399,
4929895.000,3.831,30.288,127.095,-175.850,67.437,178.405,
4929897.000,3.850,30.163,127.367,-175.834,67.584,178.409,
4929900.000,3.878,29.975,127.774,-175.810,67.803,178.414,
4929902.000,3.898,29.851,128.044,-175.793,67.950,178.418,
4929905.000,3.927,29.666,128.448,-175.768,68.168,178.424,
4929906.000,3.936,29.604,128.583,-175.760,68.241,178.425,
4929909.000,3.966,29.420,128.984,-175.735,68.459,178.431,
4929911.000,3.986,29.298,129.251,-175.717,68.604,178.435,
4929914.000,4.016,29.116,129.649,-175.691,68.821,178.441,
4929916.000,4.036,28.996,129.914,-175.674,68.965,178.444,
4929919.000,4.067,28.816,130.309,-175.647,69.181,178.450,
4929922.000,4.098,28.638,130.703,-175.620,69.396,178.456,
4929923.000,4.098,28.638,130.703,-175.620,69.396,178.456,
4929926.000,4.141,28.402,131.224,-175.583,69.682,178.463,
4929928.000,4.162,28.285,131.483,-175.565,69.824,178.467,
4929931.000,4.194,28.111,131.870,-175.536,70.037,178.473,
4929934.000,4.227,27.938,132.254,-175.507,70.249,178.479,
4929937.000,4.260,27.767,132.636,-175.478,70.460,178.485,
4929939.000,4.282,27.654,132.890,-175.459,70.601,178.489,
4929940.000,4.293,27.597,133.016,-175.449,70.671,178.490,
4929943.000,4.327,27.429,133.393,-175.419,70.880,178.496,
4929946.000,4.361,27.263,133.768,-175.389,71.088,178.502,
4929950.000,4.407,27.044,134.263,-175.348,71.364,178.510,
4929952.000,4.430,26.935,134.508,-175.327,71.501,178.514,
4929955.000,4.477,26.720,134.996,-175.285,71.774,178.522,
4929959.000,4.512,26.561,135.358,-175.253,71.977,178.528,
4929961.000,4.536,26.456,135.597,-175.232,72.112,178.532,
4929965.000,4.584,26.249,136.072,-175.189,72.380,178.540,
4929968.000,4.621,26.096,136.424,-175.156,72.579,178.546,
4929970.000,4.645,25.995,136.657,-175.134,72.711,178.550,
4929974.000,4.694,25.796,137.117,-175.089,72.973,178.558,
4929977.000,4.731,25.649,137.459,-175.056,73.167,178.565,
4929981.000,4.781,25.456,137.907,-175.010,73.423,178.573,
4929984.000,4.806,25.361,138.129,-174.987,73.550,178.577,
4929987.000,4.856,25.174,138.567,-174.942,73.802,178.585,
4929991.000,4.907,24.992,138.997,-174.895,74.050,178.593,
4929994.000,4.945,24.858,139.314,-174.861,74.233,178.600,
4929998.000,4.995,24.683,139.730,-174.814,74.474,178.608,
4930000.000,5.008,24.640,139.833,-174.802,74.534,178.610,
4930001.000,5.021,24.597,139.935,-174.791,74.593,178.612,
4930004.000,5.072,24.429,140.338,-174.744,74.828,178.620,
4930007.000,5.110,24.305,140.634,-174.709,75.001,178.627,
4930011.000,5.160,24.145,141.020,-174.662,75.228,178.635,
4930013.000,5.186,24.067,141.210,-174.638,75.339,178.639,
4930016.000,5.223,23.952,141.490,-174.603,75.504,178.645,
4930017.000,5.223,23.952,141.490,-174.603,75.504,178.645,
4930019.000,5.261,23.839,141.765,-174.568,75.666,178.651,
4930022.000,5.298,23.729,142.034,-174.534,75.826,178.657,
4930025.000,5.335,23.623,142.297,-174.499,75.982,178.663,
4930028.000,5.372,23.518,142.554,-174.465,76.135,178.669,
4930031.000,5.409,23.417,142.805,-174.431,76.285,178.675,
4930032.000,5.421,23.384,142.887,-174.420,76.334,178.677,
4930033.000,5.433,23.351,142.969,-174.408,76.383,178.679,
4930037.000,5.481,23.223,143.288,-174.364,76.575,178.687,
4930039.000,5.516,23.130,143.521,-174.331,76.715,178.693,
4930042.000,5.539,23.070,143.673,-174.309,76.806,178.697,
4930044.000,5.562,23.011,143.821,-174.287,76.896,178.700,
4930045.000,5.574,22.982,143.895,-174.277,76.940,178.702,
4930046.000,5.585,22.953,143.967,-174.266,76.984,178.704,
4930048.000,5.608,22.897,144.110,-174.245,77.071,178.708,
4930052.000,5.652,22.788,144.388,-174.203,77.240,178.715,
4930055.000,5.685,22.709,144.589,-174.173,77.362,178.721,
4930057.000,5.706,22.658,144.720,-174.153,77.442,178.724,
4930058.000,5.717,22.633,144.784,-174.143,77.481,178.726,
4930059.000,5.717,22.633,144.784,-174.143,77.481,178.726,
4930061.000,5.758,22.536,145.033,-174.104,77.634,178.733,
4930067.000,5.808,22.422,145.330,-174.057,77.816,178.741,
4930070.000,5.837,22.357,145.499,-174.029,77.920,178.746,
4930071.000,5.847,22.336,145.554,-174.020,77.954,178.747,
4930072.000,5.847,22.336,145.554,-174.020,77.954,178.747,
4930074.000,5.875,22.274,145.715,-173.994,78.054,178.752,
4930077.000,5.902,22.215,145.871,-173.968,78.150,178.757,
4930081.000,5.937,22.140,146.068,-173.935,78.273,178.762,
4930082.000,5.937,22.140,146.068,-173.935,78.273,178.762,
4930084.000,5.963,22.086,146.210,-173.911,78.361,178.767,
4930086.000,5.979,22.052,146.301,-173.895,78.418,178.769,
4930088.000,5.995,22.019,146.389,-173.880,78.473,178.772,
4930089.000,6.003,22.002,146.433,-173.872,78.500,178.773,
4930093.000,6.034,21.940,146.600,-173.843,78.605,178.779,
4930094.000,6.034,21.940,146.600,-173.843,78.605,178.779,
4930096.000,6.049,21.910,146.680,-173.829,78.655,178.781,
4930098.000,6.071,21.867,146.796,-173.809,78.727,178.785,
4930100.000,6.085,21.839,146.870,-173.795,78.774,178.787,
4930102.000,6.098,21.812,146.942,-173.782,78.819,178.789,
4930106.000,6.124,21.761,147.080,-173.758,78.906,178.794,
4930108.000,6.137,21.737,147.145,-173.746,78.947,178.796,
4930110.000,6.149,21.713,147.209,-173.734,78.987,178.798,
4930113.000,6.167,21.680,147.300,-173.717,79.045,178.801,
4930115.000,6.178,21.658,147.359,-173.706,79.082,178.803,
4930117.000,6.189,21.637,147.416,-173.696,79.118,178.805,
4930119.000,6.200,21.617,147.470,-173.686,79.153,178.807,
4930122.000,6.216,21.588,147.549,-173.671,79.203,178.809,
4930124.000,6.226,21.570,147.600,-173.661,79.235,178.811,
4930126.000,6.235,21.552,147.648,-173.652,79.266,178.813,
4930129.000,6.249,21.527,147.718,-173.639,79.310,178.815,
4930131.000,6.258,21.511,147.763,-173.631,79.339,178.817,
4930134.000,6.271,21.487,147.827,-173.618,79.379,178.819,
4930137.000,6.279,21.473,147.868,-173.611,79.406,178.820,
4930141.000,6.299,21.438,147.964,-173.592,79.467,178.823,
4930143.000,6.306,21.425,148.000,-173.585,79.490,178.825,
4930146.000,6.316,21.406,148.051,-173.575,79.523,178.827,
4930148.000,6.323,21.394,148.084,-173.569,79.544,178.828,
4930150.000,6.330,21.383,148.116,-173.563,79.564,178.829,
4930153.000,6.339,21.367,148.161,-173.554,79.593,178.830,
4930155.000,6.345,21.356,148.190,-173.548,79.611,178.831,
4930158.000,6.353,21.342,148.231,-173.540,79.638,178.833,
4930160.000,6.359,21.332,148.257,-173.535,79.655,178.834,
4930162.000,6.364,21.323,148.282,-173.530,79.671,178.835,
4930165.000,6.371,21.310,148.319,-173.523,79.694,178.836,
4930167.000,6.376,21.302,148.341,-173.518,79.709,178.837,
4930169.000,6.381,21.294,148.364,-173.514,79.723,178.838,
4930171.000,6.385,21.287,148.385,-173.509,79.737,178.838,
4930174.000,6.392,21.276,148.415,-173.503,79.756,178.839,
4930177.000,6.398,21.266,148.444,-173.498,79.774,178.841,
4930179.000,6.401,21.259,148.462,-173.494,79.786,178.841,
4930181.000,6.405,21.253,148.479,-173.491,79.797,178.842,
4930184.000,6.410,21.244,148.504,-173.486,79.813,178.843,
4930186.000,6.414,21.238,148.520,-173.482,79.824,178.843,
4930190.000,6.420,21.228,148.550,-173.476,79.843,178.844,
4930193.000,6.424,21.220,148.571,-173.472,79.856,178.845,
4930195.000,6.427,21.216,148.584,-173.470,79.865,178.846,
4930197.000,6.430,21.211,148.596,-173.467,79.873,178.846,
4930200.000,6.434,21.205,148.615,-173.463,79.885,178.847,
4930202.000,6.436,21.201,148.626,-173.461,79.892,178.847,
4930203.000,6.437,21.199,148.632,-173.460,79.896,178.847,
4930206.000,6.441,21.193,148.648,-173.457,79.906,178.848,
4930209.000,6.444,21.188,148.663,-173.454,79.916,178.849,
4930211.000,6.446,21.184,148.672,-173.452,79.922,178.849,
4930214.000,6.449,21.180,148.686,-173.449,79.931,178.849,
4930215.000,6.449,21.180,148.686,-173.449,79.931,178.849,
4930216.000,6.450,21.178,148.690,-173.448,79.933,178.850,
4930219.000,6.453,21.172,148.707,-173.445,79.944,178.850,
4930221.000,6.455,21.169,148.715,-173.443,79.949,178.850,
4930223.000,6.457,21.167,148.722,-173.441,79.954,178.851,
4930225.000,6.458,21.164,148.729,-173.440,79.959,178.851,
4930226.000,6.459,21.163,148.733,-173.439,79.961,178.851,
4930227.000,6.460,21.162,148.736,-173.439,79.963,178.851,
4930229.000,6.461,21.159,148.743,-173.437,79.967,178.851,
4930234.000,6.464,21.154,148.758,-173.434,79.977,178.852,
4930235.000,6.465,21.153,148.761,-173.433,79.979,178.852,
4930236.000,6.465,21.153,148.761,-173.433,79.979,178.852,
4930238.000,6.467,21.150,148.769,-173.432,79.985,178.852,
4930240.000,6.468,21.148,148.775,-173.431,79.988,178.853,
4930242.000,6.469,21.146,148.780,-173.430,79.991,178.853,
4930245.000,6.470,21.144,148.787,-173.428,79.996,178.853,
4930247.000,6.471,21.142,148.791,-173.427,79.999,178.853,
4930248.000,6.471,21.142,148.791,-173.427,79.999,178.853,
4930249.000,6.472,21.141,148.794,-173.427,80.000,178.853,
4930251.000,6.473,21.139,148.800,-173.425,80.004,178.854,
4930253.000,6.474,21.138,148.804,-173.425,80.007,178.854,
4930256.000,6.475,21.136,148.810,-173.423,80.011,178.854,
4930258.000,6.476,21.134,148.813,-173.423,80.013,178.854,
4930260.000,6.477,21.133,148.817,-173.422,80.015,178.854,
4930261.000,6.477,21.133,148.818,-173.422,80.016,178.854,
4930262.000,6.477,21.133,148.818,-173.422,80.016,178.854,
4930264.000,6.478,21.131,148.823,-173.421,80.020,178.854,
4930268.000,6.480,21.129,148.829,-173.419,80.023,178.855,
4930271.000,6.481,21.127,148.833,-173.419,80.026,178.855,
4930272.000,6.481,21.127,148.833,-173.419,80.026,178.855,
4930273.000,6.481,21.127,148.835,-173.418,80.027,178.855,
4930274.000,6.481,21.126,148.837,-173.418,80.029,178.855,
4930277.000,6.482,21.125,148.841,-173.417,80.031,178.855,
4930281.000,6.483,21.123,148.846,-173.416,80.034,178.855,
4930282.000,6.483,21.123,148.847,-173.416,80.035,178.855,
4930283.000,6.484,21.122,148.848,-173.416,80.035,178.855,
4930284.000,6.484,21.122,148.849,-173.415,80.036,178.855,
4930286.000,6.484,21.121,148.851,-173.415,80.037,178.856,
4930288.000,6.485,21.121,148.853,-173.415,80.039,178.856,
4930290.000,6.485,21.120,148.855,-173.414,80.040,178.856,
4930293.000,6.486,21.119,148.857,-173.414,80.042,178.856,
4930294.000,6.486,21.119,148.858,-173.413,80.042,178.856,
4930295.000,6.486,21.118,148.859,-173.413,80.043,178.856,
4930297.000,6.486,21.118,148.861,-173.413,80.044,178.856,
4930299.000,6.487,21.117,148.862,-173.413,80.045,178.856,
4930301.000,6.487,21.117,148.864,-173.412,80.046,178.856,
4930304.000,6.488,21.116,148.866,-173.412,80.047,178.856,
4930306.000,6.488,21.116,148.867,-173.412,80.048,178.856,
4930307.000,6.488,21.115,148.868,-173.412,80.048,178.856,
4930309.000,6.488,21.115,148.869,-173.411,80.049,178.856,
4930312.000,6.489,21.114,148.871,-173.411,80.050,178.856,
4930314.000,6.489,21.114,148.872,-173.411,80.051,178.856,
4930318.000,6.489,21.113,148.874,-173.410,80.052,178.856,
4930322.000,6.490,21.112,148.876,-173.410,80.054,178.856,
4930324.000,6.490,21.112,148.877,-173.410,80.054,178.856,
4930327.000,6.490,21.112,148.878,-173.409,80.055,178.857,
4930329.000,6.490,21.111,148.879,-173.409,80.056,178.857,
4930332.000,6.491,21.111,148.880,-173.409,80.056,178.857,
4930334.000,6.491,21.111,148.881,-173.409,80.057,178.857,
4930336.000,6.491,21.110,148.881,-173.409,80.057,178.857,
4930339.000,6.491,21.110,148.882,-173.408,80.058,178.857,
4930342.000,6.491,21.110,148.883,-173.408,80.058,178.857,
4930344.000,6.491,21.110,148.884,-173.408,80.059,178.857,
4930347.000,6.492,21.109,148.885,-173.408,80.059,178.857,
4930349.000,6.492,21.109,148.885,-173.408,80.060,178.857,
4930350.000,6.492,21.109,148.886,-173.408,80.060,178.857,
4930351.000,6.492,21.109,148.886,-173.408,80.060,178.857,
4930354.000,6.492,21.109,148.887,-173.408,80.061,178.857,
4930356.000,6.492,21.108,148.887,-173.408,80.061,178.857,
4930359.000,6.492,21.108,148.888,-173.407,80.061,178.857,
4930361.000,6.492,21.108,148.888,-173.407,80.062,178.857,
4930363.000,6.492,21.108,148.889,-173.407,80.062,178.857,
4930364.000,6.492,21.108,148.889,-173.407,80.062,178.857,
4930365.000,6.492,21.108,148.889,-173.407,80.062,178.857,
4930368.000,6.493,21.108,148.889,-173.407,80.062,178.857,
4930371.000,6.493,21.107,148.890,-173.407,80.063,178.857,
4930373.000,6.493,21.107,148.890,-173.407,80.063,178.857,
4930375.000,6.493,21.107,148.891,-173.407,80.063,178.857,
4930376.000,6.493,21.107,148.891,-173.407,80.063,178.857,
4930377.000,6.493,21.107,148.891,-173.407,80.063,178.857,
4930381.000,6.493,21.107,148.891,-173.407,80.064,178.857,
4930383.000,6.493,21.107,148.892,-173.407,80.064,178.857,
4930385.000,6.493,21.107,148.892,-173.406,80.064,178.857,
4930386.000,6.493,21.107,148.892,-173.406,80.064,178.857,
4930387.000,6.493,21.107,148.892,-173.406,80.064,178.857,
4930389.000,6.493,21.107,148.892,-173.406,80.064,178.857,
4930393.000,6.493,21.107,148.892,-173.406,80.064,178.857,
4930395.000,6.493,21.107,148.892,-173.407,80.064,178.857,
4930397.000,6.493,21.107,148.892,-173.407,80.064,178.857,
4930398.000,6.493,21.107,148.891,-173.407,80.064,178.857,
4930399.000,6.493,21.107,148.891,-173.407,80.064,178.857,
4930401.000,6.493,21.107,148.891,-173.407,80.063,178.857,
4930403.000,6.493,21.107,148.891,-173.407,80.063,178.857,
4930407.000,6.493,21.107,148.890,-173.407,80.063,178.857,
4930408.000,6.493,21.107,148.890,-173.407,80.063,178.857,
4930409.000,6.493,21.107,148.890,-173.407,80.063,178.857,
4930411.000,6.493,21.108,148.890,-173.407,80.063,178.857,
4930413.000,6.493,21.108,148.889,-173.407,80.062,178.857,
4930415.000,6.492,21.108,148.889,-173.407,80.062,178.857,
4930418.000,6.492,21.108,148.888,-173.407,80.062,178.857,
4930420.000,6.492,21.108,148.888,-173.407,80.061,178.857,
4930422.000,6.492,21.108,148.887,-173.407,80.061,178.857,
4930423.000,6.492,21.109,148.887,-173.408,80.061,178.857,
4930425.000,6.492,21.109,148.887,-173.408,80.061,178.857,
4930428.000,6.492,21.109,148.886,-173.408,80.060,178.857,
4930430.000,6.492,21.109,148.885,-173.408,80.060,178.857,
4930434.000,6.492,21.110,148.884,-173.408,80.059,178.857,
4930435.000,6.492,21.110,148.884,-173.408,80.059,178.857,
4930436.000,6.491,21.110,148.884,-173.408,80.059,178.857,
4930438.000,6.491,21.110,148.883,-173.408,80.058,178.857,
4930440.000,6.491,21.110,148.882,-173.408,80.058,178.857,
4930442.000,6.491,21.110,148.882,-173.409,80.057,178.857,
4930446.000,6.491,21.111,148.881,-173.409,80.057,178.857,
4930447.000,6.491,21.111,148.880,-173.409,80.056,178.857,
4930449.000,6.490,21.111,148.879,-173.409,80.056,178.857,
4930451.000,6.490,21.112,148.878,-173.409,80.055,178.857,
4930453.000,6.490,21.112,148.877,-173.410,80.055,178.857,
4930455.000,6.490,21.112,148.877,-173.410,80.054,178.856,
4930457.000,6.490,21.113,148.876,-173.410,80.053,178.856,
4930462.000,6.489,21.113,148.873,-173.410,80.052,178.856,
4930464.000,6.489,21.114,148.872,-173.411,80.051,178.856,
4930466.000,6.489,21.114,148.871,-173.411,80.050,178.856,
4930468.000,6.488,21.115,148.870,-173.411,80.050,178.856,
4930470.000,6.488,21.115,148.869,-173.411,80.049,178.856,
4930473.000,6.488,21.116,148.867,-173.412,80.048,178.856,
4930475.000,6.487,21.116,148.865,-173.412,80.047,178.856,
4930477.000,6.487,21.117,148.864,-173.412,80.046,178.856,
4930479.000,6.487,21.117,148.863,-173.413,80.045,178.856,
4930481.000,6.487,21.118,148.861,-173.413,80.044,178.856,
4930484.000,6.486,21.118,148.859,-173.413,80.042,178.856,
4930486.000,6.486,21.119,148.857,-173.414,80.041,178.856,
4930487.000,6.485,21.119,148.856,-173.414,80.041,178.856,
4930490.000,6.485,21.120,148.853,-173.414,80.039,178.856,
4930493.000,6.484,21.121,148.851,-173.415,80.037,178.855,
4930495.000,6.484,21.122,148.848,-173.415,80.036,178.855,
4930497.000,6.483,21.123,148.846,-173.416,80.034,178.855,
4930499.000,6.483,21.124,148.844,-173.416,80.033,178.855,
4930501.000,6.482,21.124,148.842,-173.417,80.032,178.855,
4930503.000,6.482,21.125,148.839,-173.417,80.030,178.855,
4930505.000,6.481,21.126,148.837,-173.418,80.028,178.855,
4930507.000,6.481,21.127,148.834,-173.418,80.027,178.855,
4930509.000,6.480,21.128,148.832,-173.419,80.025,178.855,
4930511.000,6.480,21.129,148.829,-173.420,80.023,178.855,
4930513.000,6.479,21.130,148.826,-173.420,80.021,178.855,
4930515.000,6.478,21.131,148.823,-173.421,80.019,178.854,
4930518.000,6.477,21.133,148.818,-173.422,80.016,178.854,
4930519.000,6.477,21.133,148.816,-173.422,80.015,178.854,
4930522.000,6.476,21.135,148.811,-173.423,80.011,178.854,
4930524.000,6.475,21.137,148.807,-173.424,80.009,178.854,
4930526.000,6.474,21.138,148.803,-173.425,80.007,178.854,
4930528.000,6.473,21.139,148.799,-173.426,80.004,178.854,
4930531.000,6.472,21.142,148.793,-173.427,80.000,178.853,
4930533.000,6.471,21.143,148.788,-173.428,79.997,178.853,
4930536.000,6.469,21.146,148.781,-173.429,79.992,178.853,
4930538.000,6.468,21.148,148.776,-173.430,79.989,178.853,
4930540.000,6.467,21.149,148.771,-173.431,79.986,178.853,
4930542.000,6.466,21.151,148.766,-173.433,79.982,178.852,
4930545.000,6.464,21.154,148.757,-173.434,79.977,178.852,
4930547.000,6.463,21.156,148.751,-173.435,79.973,178.852,
4930550.000,6.461,21.160,148.742,-173.437,79.967,178.851,
4930552.000,6.459,21.162,148.735,-173.439,79.962,178.851,
4930554.000,6.458,21.165,148.728,-173.440,79.958,178.851,
4930557.000,6.456,21.168,148.717,-173.442,79.951,178.851,
4930559.000,6.454,21.171,148.709,-173.444,79.946,178.850,
4930562.000,6.451,21.175,148.697,-173.446,79.938,178.850,
4930564.000,6.449,21.178,148.689,-173.448,79.933,178.849,
4930568.000,6.446,21.185,148.671,-173.452,79.921,178.849,
4930571.000,6.443,21.190,148.656,-173.455,79.911,178.848,
4930573.000,6.440,21.194,148.646,-173.457,79.905,178.848,
4930576.000,6.437,21.199,148.630,-173.460,79.894,178.847,
4930578.000,6.435,21.203,148.618,-173.463,79.887,178.847,
4930579.000,6.433,21.205,148.613,-173.464,79.883,178.847,
4930581.000,6.431,21.210,148.601,-173.466,79.876,178.846,
4930583.000,6.428,21.214,148.588,-173.469,79.868,178.846,
4930585.000,6.425,21.219,148.575,-173.471,79.859,178.845,
4930588.000,6.421,21.226,148.555,-173.475,79.846,178.845,
4930589.000,6.419,21.229,148.547,-173.477,79.841,178.844,
4930592.000,6.415,21.237,148.525,-173.481,79.827,178.843,
4930593.000,6.415,21.237,148.525,-173.481,79.827,178.843,
4930596.000,6.408,21.248,148.493,-173.488,79.806,178.842,
4930598.000,6.404,21.254,148.476,-173.491,79.796,178.842,
4930600.000,6.401,21.260,148.459,-173.495,79.784,178.841,
4930603.000,6.395,21.270,148.431,-173.500,79.766,178.840,
4930605.000,6.391,21.277,148.412,-173.504,79.754,178.839,
4930606.000,6.389,21.280,148.402,-173.506,79.748,178.839,
4930607.000,6.387,21.284,148.392,-173.508,79.741,178.839,
4930610.000,6.380,21.295,148.360,-173.514,79.721,178.837,
4930613.000,6.373,21.307,148.326,-173.521,79.699,178.836,
4930615.000,6.368,21.316,148.303,-173.526,79.684,178.835,
4930617.000,6.363,21.325,148.278,-173.531,79.668,178.835,
4930619.000,6.358,21.334,148.253,-173.536,79.652,178.834,
4930620.000,6.355,21.338,148.240,-173.538,79.644,178.833,
4930622.000,6.350,21.348,148.213,-173.543,79.626,178.832,
4930624.000,6.344,21.358,148.185,-173.549,79.608,178.831,
4930626.000,6.338,21.368,148.156,-173.555,79.590,178.830,
4930628.000,6.332,21.379,148.126,-173.561,79.571,178.829,
4930630.000,6.325,21.391,148.095,-173.567,79.551,178.828,
4930632.000,6.319,21.402,148.062,-173.573,79.530,178.827,
4930633.000,6.319,21.402,148.062,-173.573,79.530,178.827,
4930636.000,6.305,21.427,147.994,-173.586,79.486,178.825,
4930639.000,6.297,21.440,147.958,-173.593,79.463,178.823,
4930640.000,6.290,21.454,147.920,-173.600,79.439,178.822,
4930641.000,6.286,21.461,147.901,-173.604,79.427,178.821,
4930642.000,6.282,21.468,147.881,-173.608,79.414,178.821,
4930644.000,6.274,21.482,147.841,-173.616,79.388,178.819,
4930648.000,6.257,21.513,147.756,-173.632,79.334,178.816,
4930649.000,6.252,21.521,147.734,-173.636,79.320,178.816,
4930650.000,6.248,21.530,147.711,-173.640,79.306,178.815,
4930651.000,6.243,21.538,147.688,-173.645,79.291,178.814,
4930653.000,6.234,21.555,147.641,-173.654,79.261,178.812,
4930655.000,6.224,21.573,147.592,-173.663,79.230,178.811,
4930657.000,6.214,21.592,147.541,-173.673,79.198,178.809,
4930660.000,6.198,21.621,147.462,-173.687,79.147,178.806,
4930661.000,6.198,21.621,147.462,-173.687,79.147,178.806,
4930662.000,6.193,21.631,147.434,-173.692,79.130,178.806,
4930663.000,6.182,21.651,147.378,-173.703,79.095,178.804,
4930666.000,6.165,21.683,147.291,-173.719,79.039,178.801,
4930668.000,6.153,21.706,147.230,-173.730,79.001,178.799,
4930671.000,6.135,21.741,147.135,-173.748,78.941,178.796,
4930672.000,6.129,21.753,147.102,-173.753,78.920,178.795,
4930673.000,6.129,21.753,147.102,-173.753,78.920,178.795,
4930674.000,6.116,21.778,147.035,-173.766,78.878,178.792,
4930677.000,6.096,21.816,146.931,-173.784,78.812,178.789,
4930679.000,6.082,21.843,146.858,-173.797,78.766,178.787,
4930682.000,6.061,21.885,146.745,-173.817,78.696,178.783,
4930683.000,6.054,21.900,146.707,-173.824,78.671,178.782,
4930684.000,6.047,21.915,146.667,-173.831,78.647,178.781,
4930685.000,6.039,21.929,146.627,-173.838,78.622,178.780,
4930687.000,6.024,21.960,146.546,-173.853,78.571,178.777,
4930689.000,6.009,21.992,146.462,-173.867,78.518,178.774,
4930692.000,5.985,22.041,146.331,-173.890,78.436,178.770,
4930696.000,5.952,22.110,146.148,-173.921,78.322,178.765,
4930697.000,5.952,22.110,146.148,-173.921,78.322,178.765,
4930698.000,5.943,22.128,146.101,-173.929,78.293,178.763,
4930700.000,5.917,22.183,145.955,-173.954,78.202,178.759,
4930702.000,5.899,22.221,145.854,-173.971,78.140,178.756,
4930706.000,5.863,22.301,145.645,-174.005,78.011,178.750,
4930708.000,5.844,22.343,145.536,-174.023,77.943,178.747,
4930709.000,5.834,22.364,145.481,-174.032,77.909,178.745,
4930710.000,5.834,22.364,145.481,-174.032,77.909,178.745,
4930712.000,5.805,22.429,145.311,-174.060,77.804,178.740,
4930715.000,5.775,22.497,145.135,-174.088,77.696,178.735,
4930717.000,5.755,22.544,145.014,-174.107,77.622,178.732,
4930721.000,5.713,22.641,144.763,-174.146,77.468,178.725,
4930722.000,5.713,22.641,144.763,-174.146,77.468,178.725,
4930723.000,5.703,22.666,144.699,-174.156,77.429,178.723,
4930725.000,5.670,22.743,144.501,-174.186,77.309,178.718,
4930727.000,5.649,22.796,144.366,-174.207,77.226,178.715,
4930729.000,5.626,22.851,144.228,-174.227,77.143,178.711,
4930733.000,5.581,22.963,143.944,-174.270,76.970,178.704,
4930734.000,5.570,22.991,143.871,-174.280,76.926,178.702,
4930735.000,5.559,23.021,143.797,-174.291,76.882,178.700,
4930737.000,5.536,23.080,143.648,-174.313,76.791,178.696,
4930740.000,5.512,23.140,143.496,-174.334,76.700,178.692,
