shooxitoo/ProjetRobotVision/00_Labo_NE043_TX60L_base_2524/RobotMotionSpySingu2Js.txt
J1,J2,J3,J4,J5,J6,empty
8801517.000,21.439,-5.000,80.000,0.055,70.872,-6.645,
8801534.000,21.439,-5.000,80.000,0.055,70.872,-6.645,
8801536.000,21.439,-5.000,80.000,0.055,70.872,-6.645,
8801538.000,21.439,-5.000,80.000,0.055,70.872,-6.645,
8801540.000,21.439,-5.000,80.000,0.055,70.872,-6.645,
8801541.000,21.439,-5.000,80.000,0.055,70.872,-6.645,
8801543.000,21.439,-5.000,80.000,0.055,70.872,-6.645,
8801547.000,21.441,-5.000,80.001,0.053,70.867,-6.642,
8801549.000,21.441,-5.000,80.001,0.053,70.867,-6.642,
8801552.000,21.441,-5.000,80.001,0.053,70.867,-6.642,
8801554.000,21.441,-5.000,80.001,0.053,70.867,-6.642,
8801556.000,21.441,-5.000,80.001,0.053,70.867,-6.642,
8801558.000,21.441,-5.000,80.001,0.053,70.867,-6.642,
8801561.000,21.441,-5.000,80.001,0.053,70.867,-6.642,
8801580.000,21.452,-5.008,80.014,0.036,70.829,-6.617,
8801584.000,21.452,-5.008,80.014,0.036,70.829,-6.617,
8801587.000,21.452,-5.008,80.014,0.036,70.829,-6.617,
8801590.000,21.452,-5.008,80.014,0.036,70.829,-6.617,
8801593.000,21.452,-5.008,80.014,0.036,70.829,-6.617,
8801595.000,21.471,-5.019,80.033,0.009,70.771,-6.579,
8801598.000,21.471,-5.019,80.033,0.009,70.771,-6.579,
8801613.000,21.511,-5.045,80.077,-0.049,70.641,-6.493,
8801616.000,21.511,-5.045,80.077,-0.049,70.641,-6.493,
8801620.000,21.511,-5.045,80.077,-0.049,70.641,-6.493,
8801623.000,21.511,-5.045,80.077,-0.049,70.641,-6.493,
8801626.000,21.591,-5.095,80.163,-0.167,70.384,-6.324,
8801629.000,21.591,-5.095,80.163,-0.167,70.384,-6.324,
8801641.000,21.749,-5.193,80.334,-0.404,69.875,-5.984,
8801643.000,21.749,-5.193,80.334,-0.404,69.875,-5.984,
8801646.000,21.749,-5.193,80.334,-0.404,69.875,-5.984,
8801648.000,21.749,-5.193,80.334,-0.404,69.875,-5.984,
8801650.000,21.749,-5.193,80.334,-0.404,69.875,-5.984,
8801652.000,21.749,-5.193,80.334,-0.404,69.875,-5.984,
8801655.000,21.749,-5.193,80.334,-0.404,69.875,-5.984,
8801673.000,22.615,-5.700,81.244,-1.770,67.151,-4.089,
8801675.000,22.615,-5.700,81.244,-1.770,67.151,-4.089,
8801677.000,22.615,-5.700,81.244,-1.770,67.151,-4.089,
8801679.000,22.615,-5.700,81.244,-1.770,67.151,-4.089,
8801681.000,22.615,-5.700,81.244,-1.770,67.151,-4.089,
8801682.000,22.615,-5.700,81.244,-1.770,67.151,-4.089,
8801684.000,22.615,-5.700,81.244,-1.770,67.151,-4.089,
8801688.000,23.358,-6.099,81.999,-3.042,64.887,-2.399,
8801689.000,23.358,-6.099,81.999,-3.042,64.887,-2.399,
8801690.000,23.358,-6.099,81.999,-3.042,64.887,-2.399,
8801691.000,23.358,-6.099,81.999,-3.042,64.887,-2.399,
8801692.000,23.358,-6.099,81.999,-3.042,64.887,-2.399,
8801693.000,23.358,-6.099,81.999,-3.042,64.887,-2.399,
8801704.000,24.363,-6.587,82.983,-4.921,61.924,0.000,
8801706.000,24.363,-6.587,82.983,-4.921,61.924,0.000,
8801708.000,24.363,-6.587,82.983,-4.921,61.924,0.000,
8801710.000,24.363,-6.587,82.983,-4.921,61.924,0.000,
8801712.000,24.363,-6.587,82.983,-4.921,61.924,0.000,
8801714.000,24.363,-6.587,82.983,-4.921,61.924,0.000,
8801716.000,24.363,-6.587,82.983,-4.921,61.924,0.000,
8801721.000,25.521,-7.078,84.069,-7.333,58.650,2.956,
8801723.000,25.521,-7.078,84.069,-7.333,58.650,2.956,
8801725.000,25.521,-7.078,84.069,-7.333,58.650,2.956,
8801727.000,25.521,-7.078,84.069,-7.333,58.650,2.956,
8801729.000,25.521,-7.078,84.069,-7.333,58.650,2.956,
8801731.000,25.521,-7.078,84.069,-7.333,58.650,2.956,
8801733.000,25.521,-7.078,84.069,-7.333,58.650,2.956,
8801737.000,26.774,-7.525,85.187,-10.270,55.282,6.422,
8801739.000,26.774,-7.525,85.187,-10.270,55.282,6.422,
8801741.000,26.774,-7.525,85.187,-10.270,55.282,6.422,
8801743.000,26.774,-7.525,85.187,-10.270,55.282,6.422,
8801745.000,26.774,-7.525,85.187,-10.270,55.282,6.422,
8801747.000,26.774,-7.525,85.187,-10.270,55.282,6.422,
8801748.000,26.774,-7.525,85.187,-10.270,55.282,6.422,
8801753.000,27.999,-7.880,86.225,-13.514,52.171,10.131,
8801755.000,27.999,-7.880,86.225,-13.514,52.171,10.131,
8801756.000,27.999,-7.880,86.225,-13.514,52.171,10.131,
8801759.000,27.999,-7.880,86.225,-13.514,52.171,10.131,
8801760.000,27.999,-7.880,86.225,-13.514,52.171,10.131,
8801762.000,27.999,-7.880,86.225,-13.514,52.171,10.131,
8801767.000,29.335,-8.174,87.299,-17.528,49.000,14.603,
8801769.000,29.335,-8.174,87.299,-17.528,49.000,14.603,
8801771.000,29.335,-8.174,87.299,-17.528,49.000,14.603,
8801772.000,29.335,-8.174,87.299,-17.528,49.000,14.603,
8801774.000,29.335,-8.174,87.299,-17.528,49.000,14.603,
8801776.000,29.335,-8.174,87.299,-17.528,49.000,14.603,
8801778.000,29.335,-8.174,87.299,-17.528,49.000,14.603,
8801784.000,30.685,-8.372,88.324,-22.158,46.060,19.650,
8801786.000,30.685,-8.372,88.324,-22.158,46.060,19.650,
8801788.000,30.685,-8.372,88.324,-22.158,46.060,19.650,
8801790.000,30.685,-8.372,88.324,-22.158,46.060,19.650,
8801792.000,30.685,-8.372,88.324,-22.158,46.060,19.650,
8801794.000,30.685,-8.372,88.324,-22.158,46.060,19.650,
8801796.000,30.685,-8.372,88.324,-22.158,46.060,19.650,
8801800.000,32.037,-8.469,89.289,-27.441,43.428,25.312,
8801802.000,32.037,-8.469,89.289,-27.441,43.428,25.312,
8801804.000,32.037,-8.469,89.289,-27.441,43.428,25.312,
8801805.000,32.037,-8.469,89.289,-27.441,43.428,25.312,
8801807.000,32.037,-8.469,89.289,-27.441,43.428,25.312,
8801809.000,32.037,-8.469,89.289,-27.441,43.428,25.312,
8801811.000,32.037,-8.469,89.289,-27.441,43.428,25.312,
8801816.000,33.380,-8.460,90.188,-33.392,41.180,31.604,
8801818.000,33.380,-8.460,90.188,-33.392,41.180,31.604,
8801820.000,33.380,-8.460,90.188,-33.392,41.180,31.604,
8801822.000,33.380,-8.460,90.188,-33.392,41.180,31.604,
8801824.000,33.380,-8.460,90.188,-33.392,41.180,31.604,
8801827.000,33.380,-8.460,90.188,-33.392,41.180,31.604,
8801828.000,33.380,-8.460,90.188,-33.392,41.180,31.604,
8801832.000,34.622,-8.353,90.962,-39.542,39.492,38.044,
8801834.000,34.622,-8.353,90.962,-39.542,39.492,38.044,
8801836.000,34.622,-8.353,90.962,-39.542,39.492,38.044,
8801838.000,34.622,-8.353,90.962,-39.542,39.492,38.044,
8801841.000,34.622,-8.353,90.962,-39.542,39.492,38.044,
8801843.000,34.622,-8.353,90.962,-39.542,39.492,38.044,
8801846.000,35.918,-8.132,91.709,-46.611,38.204,45.391,
8801848.000,35.918,-8.132,91.709,-46.611,38.204,45.391,
8801850.000,35.918,-8.132,91.709,-46.611,38.204,45.391,
8801853.000,35.918,-8.132,91.709,-46.611,38.204,45.391,
8801855.000,35.918,-8.132,91.709,-46.611,38.204,45.391,
8801858.000,35.918,-8.132,91.709,-46.611,38.204,45.391,
8801860.000,35.918,-8.132,91.709,-46.611,38.204,45.391,
8801878.000,38.374,-7.371,92.932,-61.480,37.389,60.729,
8801880.000,38.374,-7.371,92.932,-61.480,37.389,60.729,
8801882.000,38.374,-7.371,92.932,-61.480,37.389,60.729,
8801884.000,38.374,-7.371,92.932,-61.480,37.389,60.729,
8801886.000,38.374,-7.371,92.932,-61.480,37.389,60.729,
8801888.000,38.374,-7.371,92.932,-61.480,37.389,60.729,
8801890.000,38.374,-7.371,92.932,-61.480,37.389,60.729,
8801895.000,39.498,-6.851,93.392,-68.649,37.845,68.090,
8801897.000,39.498,-6.851,93.392,-68.649,37.845,68.090,
8801899.000,39.498,-6.851,93.392,-68.649,37.845,68.090,
8801901.000,39.498,-6.851,93.392,-68.649,37.845,68.090,
8801903.000,39.498,-6.851,93.392,-68.649,37.845,68.090,
8801905.000,39.498,-6.851,93.392,-68.649,37.845,68.090,
8801907.000,39.498,-6.851,93.392,-68.649,37.845,68.090,
8801911.000,40.509,-6.273,93.743,-75.126,38.753,74.729,
8801913.000,40.509,-6.273,93.743,-75.126,38.753,74.729,
8801915.000,40.509,-6.273,93.743,-75.126,38.753,74.729,
8801917.000,40.509,-6.273,93.743,-75.126,38.753,74.729,
8801919.000,40.509,-6.273,93.743,-75.126,38.753,74.729,
8801922.000,40.509,-6.273,93.743,-75.126,38.753,74.729,
8801923.000,41.362,-5.696,93.984,-80.509,39.902,80.240,
8801928.000,41.362,-5.696,93.984,-80.509,39.902,80.240,
8801930.000,41.362,-5.696,93.984,-80.509,39.902,80.240,
8801932.000,41.362,-5.696,93.984,-80.509,39.902,80.240,
8801934.000,41.362,-5.696,93.984,-80.509,39.902,80.240,
8801936.000,41.362,-5.696,93.984,-80.509,39.902,80.240,
8801938.000,41.362,-5.696,93.984,-80.509,39.902,80.240,
8801942.000,42.007,-5.198,94.127,-84.497,41.013,84.320,
8801944.000,42.007,-5.198,94.127,-84.497,41.013,84.320,
8801946.000,42.007,-5.198,94.127,-84.497,41.013,84.320,
8801948.000,42.007,-5.198,94.127,-84.497,41.013,84.320,
8801951.000,42.007,-5.198,94.127,-84.497,41.013,84.320,
8801952.000,42.007,-5.198,94.127,-84.497,41.013,84.320,
8801954.000,42.007,-5.198,94.127,-84.497,41.013,84.320,
8801957.000,42.409,-4.857,94.198,-86.941,41.814,86.818,
8801959.000,42.409,-4.857,94.198,-86.941,41.814,86.818,
8801961.000,42.409,-4.857,94.198,-86.941,41.814,86.818,
8801964.000,42.409,-4.857,94.198,-86.941,41.814,86.818,
8801966.000,42.409,-4.857,94.198,-86.941,41.814,86.818,
8801968.000,42.409,-4.857,94.198,-86.941,41.814,86.818,
8801970.000,42.409,-4.857,94.198,-86.941,41.814,86.818,
8801988.000,42.775,-4.527,94.249,-89.125,42.616,89.050,
8801990.000,42.775,-4.527,94.249,-89.125,42.616,89.050,
8801992.000,42.775,-4.527,94.249,-89.125,42.616,89.050,
8801994.000,42.775,-4.527,94.249,-89.125,42.616,89.050,
8801996.000,42.775,-4.527,94.249,-89.125,42.616,89.050,
8801999.000,42.775,-4.527,94.249,-89.125,42.616,89.050,
8802001.000,42.775,-4.527,94.249,-89.125,42.616,89.050,
8802004.000,42.842,-4.464,94.256,-89.518,42.769,89.452,
8802006.000,42.842,-4.464,94.256,-89.518,42.769,89.452,
8802009.000,42.842,-4.464,94.256,-89.518,42.769,89.452,
8802011.000,42.842,-4.464,94.256,-89.518,42.769,89.452,
8802013.000,42.842,-4.464,94.256,-89.518,42.769,89.452,
8802015.000,42.842,-4.464,94.256,-89.518,42.769,89.452,
8802019.000,42.872,-4.435,94.260,-89.698,42.841,89.636,
8802020.000,42.872,-4.435,94.260,-89.698,42.841,89.636,
8802021.000,42.872,-4.435,94.260,-89.698,42.841,89.636,
8802022.000,42.872,-4.435,94.260,-89.698,42.841,89.636,
8802023.000,42.872,-4.435,94.260,-89.698,42.841,89.636,
8802024.000,42.872,-4.435,94.260,-89.698,42.841,89.636,
8802025.000,42.872,-4.435,94.260,-89.698,42.841,89.636,
8802036.000,42.886,-4.422,94.261,-89.779,42.873,89.718,
8802038.000,42.886,-4.422,94.261,-89.779,42.873,89.718,
8802040.000,42.886,-4.422,94.261,-89.779,42.873,89.718,
8802042.000,42.886,-4.422,94.261,-89.779,42.873,89.718,
8802044.000,42.886,-4.422,94.261,-89.779,42.873,89.718,
8802046.000,42.886,-4.422,94.261,-89.779,42.873,89.718,
8802048.000,42.886,-4.422,94.261,-89.779,42.873,89.718,
8802051.000,42.892,-4.417,94.262,-89.813,42.886,89.754,
8802053.000,42.892,-4.417,94.262,-89.813,42.886,89.754,
8802055.000,42.892,-4.417,94.262,-89.813,42.886,89.754,
8802057.000,42.892,-4.417,94.262,-89.813,42.886,89.754,
8802059.000,42.892,-4.417,94.262,-89.813,42.886,89.754,
8802061.000,42.892,-4.417,94.262,-89.813,42.886,89.754,
8802063.000,42.892,-4.417,94.262,-89.813,42.886,89.754,
8802067.000,42.894,-4.414,94.262,-89.829,42.893,89.770,
8802069.000,42.894,-4.414,94.262,-89.829,42.893,89.770,
8802071.000,42.894,-4.414,94.262,-89.829,42.893,89.770,
8802073.000,42.894,-4.414,94.262,-89.829,42.893,89.770,
8802075.000,42.894,-4.414,94.262,-89.829,42.893,89.770,
8802077.000,42.894,-4.414,94.262,-89.829,42.893,89.770,
8802095.000,42.896,-4.413,94.262,-89.837,42.896,89.778,
8802097.000,42.896,-4.413,94.262,-89.837,42.896,89.778,
8802099.000,42.896,-4.413,94.262,-89.837,42.896,89.778,
8802101.000,42.896,-4.413,94.262,-89.837,42.896,89.778,
8802103.000,42.896,-4.413,94.262,-89.837,42.896,89.778,
8802105.000,42.896,-4.413,94.262,-89.837,42.896,89.778,
8802107.000,42.896,-4.413,94.262,-89.837,42.896,89.778,
8802110.000,42.896,-4.413,94.262,-89.837,42.896,89.778,
8802113.000,42.896,-4.413,94.262,-89.837,42.896,89.778,
8802115.000,42.896,-4.413,94.262,-89.837,42.896,89.778,
8802117.000,42.896,-4.413,94.262,-89.837,42.896,89.778,
8802119.000,42.896,-4.413,94.262,-89.837,42.896,89.778,
8802121.000,42.896,-4.413,94.262,-89.837,42.896,89.778,
8802123.000,42.896,-4.413,94.262,-89.837,42.896,89.778,
8802126.000,42.896,-4.413,94.262,-89.837,42.896,89.778,
8802128.000,42.896,-4.413,94.262,-89.837,42.896,89.778,
8802131.000,42.896,-4.413,94.262,-89.837,42.896,89.778,
8802133.000,42.896,-4.413,94.262,-89.837,42.896,89.778,
8802136.000,42.896,-4.413,94.262,-89.837,42.896,89.778,
8802138.000,42.896,-4.413,94.262,-89.837,42.896,89.778,
8802139.000,42.896,-4.413,94.262,-89.837,42.896,89.778,
8802157.000,42.892,-4.417,94.266,-89.837,42.892,89.777,
8802160.000,42.892,-4.417,94.266,-89.837,42.892,89.777,
8802162.000,42.892,-4.417,94.266,-89.837,42.892,89.777,
8802164.000,42.892,-4.417,94.266,-89.837,42.892,89.777,
8802167.000,42.892,-4.417,94.266,-89.837,42.892,89.777,
8802169.000,42.892,-4.417,94.266,-89.837,42.892,89.777,
8802172.000,42.889,-4.420,94.269,-89.836,42.889,89.777,
8802174.000,42.889,-4.420,94.269,-89.836,42.889,89.777,
8802176.000,42.889,-4.420,94.269,-89.836,42.889,89.777,
8802179.000,42.889,-4.420,94.269,-89.836,42.889,89.777,
8802181.000,42.889,-4.420,94.269,-89.836,42.889,89.777,
8802183.000,42.889,-4.420,94.269,-89.836,42.889,89.777,
8802186.000,42.889,-4.420,94.269,-89.836,42.889,89.777,
8802203.000,42.878,-4.431,94.278,-89.836,42.879,89.776,
8802204.000,42.878,-4.431,94.278,-89.836,42.879,89.776,
8802205.000,42.878,-4.431,94.278,-89.836,42.879,89.776,
8802206.000,42.878,-4.431,94.278,-89.836,42.879,89.776,
8802207.000,42.878,-4.431,94.278,-89.836,42.879,89.776,
8802208.000,42.878,-4.431,94.278,-89.836,42.879,89.776,
8802209.000,42.878,-4.431,94.278,-89.836,42.879,89.776,
8802220.000,42.870,-4.440,94.287,-89.835,42.870,89.775,
8802222.000,42.870,-4.440,94.287,-89.835,42.870,89.775,
8802224.000,42.870,-4.440,94.287,-89.835,42.870,89.775,
8802226.000,42.870,-4.440,94.287,-89.835,42.870,89.775,
8802229.000,42.870,-4.440,94.287,-89.835,42.870,89.775,
8802231.000,42.870,-4.440,94.287,-89.835,42.870,89.775,
8802233.000,42.870,-4.440,94.287,-89.835,42.870,89.775,
8802251.000,42.842,-4.468,94.314,-89.833,42.842,89.772,
8802253.000,42.842,-4.468,94.314,-89.833,42.842,89.772,
8802256.000,42.842,-4.468,94.314,-89.833,42.842,89.772,
8802258.000,42.842,-4.468,94.314,-89.833,42.842,89.772,
8802261.000,42.842,-4.468,94.314,-89.833,42.842,89.772,
8802263.000,42.842,-4.468,94.314,-89.833,42.842,89.772,
8802266.000,42.820,-4.491,94.335,-89.831,42.820,89.769,
8802282.000,42.787,-4.524,94.366,-89.828,42.787,89.766,
8802285.000,42.787,-4.524,94.366,-89.828,42.787,89.766,
8802288.000,42.787,-4.524,94.366,-89.828,42.787,89.766,
8802290.000,42.787,-4.524,94.366,-89.828,42.787,89.766,
8802293.000,42.787,-4.524,94.366,-89.828,42.787,89.766,
8802295.000,42.787,-4.524,94.366,-89.828,42.787,89.766,
8802313.000,42.677,-4.636,94.469,-89.819,42.678,89.754,
8802315.000,42.677,-4.636,94.469,-89.819,42.678,89.754,
8802317.000,42.677,-4.636,94.469,-89.819,42.678,89.754,
8802320.000,42.677,-4.636,94.469,-89.819,42.678,89.754,
8802322.000,42.677,-4.636,94.469,-89.819,42.678,89.754,
8802324.000,42.677,-4.636,94.469,-89.819,42.678,89.754,
8802326.000,42.677,-4.636,94.469,-89.819,42.678,89.754,
8802329.000,42.588,-4.726,94.553,-89.811,42.589,89.744,
8802331.000,42.588,-4.726,94.553,-89.811,42.589,89.744,
8802334.000,42.588,-4.726,94.553,-89.811,42.589,89.744,
8802336.000,42.588,-4.726,94.553,-89.811,42.589,89.744,
8802338.000,42.588,-4.726,94.553,-89.811,42.589,89.744,
8802340.000,42.588,-4.726,94.553,-89.811,42.589,89.744,
8802342.000,42.588,-4.726,94.553,-89.811,42.589,89.744,
8802345.000,42.474,-4.841,94.659,-89.801,42.475,89.730,
8802347.000,42.474,-4.841,94.659,-89.801,42.475,89.730,
8802349.000,42.474,-4.841,94.659,-89.801,42.475,89.730,
8802352.000,42.474,-4.841,94.659,-89.801,42.475,89.730,
8802354.000,42.474,-4.841,94.659,-89.801,42.475,89.730,
8802356.000,42.474,-4.841,94.659,-89.801,42.475,89.730,
8802357.000,42.474,-4.841,94.659,-89.801,42.475,89.730,
8802361.000,42.309,-5.007,94.813,-89.786,42.309,89.711,
8802363.000,42.309,-5.007,94.813,-89.786,42.309,89.711,
8802365.000,42.309,-5.007,94.813,-89.786,42.309,89.711,
8802367.000,42.309,-5.007,94.813,-89.786,42.309,89.711,
8802369.000,42.309,-5.007,94.813,-89.786,42.309,89.711,
8802371.000,42.309,-5.007,94.813,-89.786,42.309,89.711,
8802373.000,42.309,-5.007,94.813,-89.786,42.309,89.711,
8802377.000,42.083,-5.231,95.019,-89.765,42.084,89.683,
8802380.000,42.083,-5.231,95.019,-89.765,42.084,89.683,
8802382.000,42.083,-5.231,95.019,-89.765,42.084,89.683,
8802384.000,42.083,-5.231,95.019,-89.765,42.084,89.683,
8802387.000,42.083,-5.231,95.019,-89.765,42.084,89.683,
8802389.000,42.083,-5.231,95.019,-89.765,42.084,89.683,
8802392.000,41.781,-5.527,95.290,-89.734,41.782,89.644,
8802394.000,41.781,-5.527,95.290,-89.734,41.782,89.644,
8802396.000,41.781,-5.527,95.290,-89.734,41.782,89.644,
8802398.000,41.781,-5.527,95.290,-89.734,41.782,89.644,
8802400.000,41.781,-5.527,95.290,-89.734,41.782,89.644,
8802401.000,41.781,-5.527,95.290,-89.734,41.782,89.644,
8802403.000,41.781,-5.527,95.290,-89.734,41.782,89.644,
8802407.000,41.410,-5.885,95.617,-89.695,41.411,89.594,
8802409.000,41.410,-5.885,95.617,-89.695,41.411,89.594,
8802411.000,41.410,-5.885,95.617,-89.695,41.411,89.594,
8802414.000,41.410,-5.885,95.617,-89.695,41.411,89.594,
8802416.000,41.410,-5.885,95.617,-89.695,41.411,89.594,
8802418.000,41.410,-5.885,95.617,-89.695,41.411,89.594,
8802420.000,41.410,-5.885,95.617,-89.695,41.411,89.594,
8802423.000,40.937,-6.333,96.022,-89.641,40.938,89.525,
8802425.000,40.937,-6.333,96.022,-89.641,40.938,89.525,
8802427.000,40.937,-6.333,96.022,-89.641,40.938,89.525,
8802429.000,40.937,-6.333,96.022,-89.641,40.938,89.525,
8802432.000,40.937,-6.333,96.022,-89.641,40.938,89.525,
8802434.000,40.937,-6.333,96.022,-89.641,40.938,89.525,
8802435.000,40.937,-6.333,96.022,-89.641,40.938,89.525,
8802438.000,40.344,-6.879,96.512,-89.568,40.346,89.433,
8802440.000,40.344,-6.879,96.512,-89.568,40.346,89.433,
8802441.000,40.344,-6.879,96.512,-89.568,40.346,89.433,
8802443.000,40.344,-6.879,96.512,-89.568,40.346,89.433,
8802445.000,40.344,-6.879,96.512,-89.568,40.346,89.433,
8802448.000,40.344,-6.879,96.512,-89.568,40.346,89.433,
8802450.000,40.344,-6.879,96.512,-89.568,40.346,89.433,
8802455.000,39.566,-7.575,97.130,-89.462,39.568,89.302,
8802457.000,39.566,-7.575,97.130,-89.462,39.568,89.302,
8802460.000,39.566,-7.575,97.130,-89.462,39.568,89.302,
8802462.000,39.566,-7.575,97.130,-89.462,39.568,89.302,
8802465.000,39.566,-7.575,97.130,-89.462,39.568,89.302,
8802467.000,39.566,-7.575,97.130,-89.462,39.568,89.302,
8802485.000,37.512,-9.294,98.625,-89.129,37.518,88.902,
8802487.000,37.512,-9.294,98.625,-89.129,37.518,88.902,
8802489.000,37.512,-9.294,98.625,-89.129,37.518,88.902,
8802491.000,37.512,-9.294,98.625,-89.129,37.518,88.902,
8802493.000,37.512,-9.294,98.625,-89.129,37.518,88.902,
8802495.000,37.512,-9.294,98.625,-89.129,37.518,88.902,
8802497.000,37.512,-9.294,98.625,-89.129,37.518,88.902,
8802500.000,36.316,-10.224,99.415,-88.899,36.324,88.634,
8802501.000,36.316,-10.224,99.415,-88.899,36.324,88.634,
8802502.000,36.316,-10.224,99.415,-88.899,36.324,88.634,
8802503.000,36.316,-10.224,99.415,-88.899,36.324,88.634,
8802505.000,36.316,-10.224,99.415,-88.899,36.324,88.634,
8802507.000,36.316,-10.224,99.415,-88.899,36.324,88.634,
8802509.000,36.316,-10.224,99.415,-88.899,36.324,88.634,
8802516.000,34.975,-11.208,100.237,-88.611,34.987,88.305,
8802518.000,34.975,-11.208,100.237,-88.611,34.987,88.305,
8802520.000,34.975,-11.208,100.237,-88.611,34.987,88.305,
8802522.000,34.975,-11.208,100.237,-88.611,34.987,88.305,
8802524.000,34.975,-11.208,100.237,-88.611,34.987,88.305,
8802526.000,34.975,-11.208,100.237,-88.611,34.987,88.305,
8802527.000,34.975,-11.208,100.237,-88.611,34.987,88.305,
8802531.000,33.494,-12.228,101.073,-88.254,33.512,87.906,
8802533.000,33.494,-12.228,101.073,-88.254,33.512,87.906,
8802535.000,33.494,-12.228,101.073,-88.254,33.512,87.906,
8802537.000,33.494,-12.228,101.073,-88.254,33.512,87.906,
8802539.000,33.494,-12.228,101.073,-88.254,33.512,87.906,
8802542.000,33.494,-12.228,101.073,-88.254,33.512,87.906,
8802543.000,33.494,-12.228,101.073,-88.254,33.512,87.906,
8802547.000,31.770,-13.334,101.961,-87.783,31.796,87.393,
8802549.000,31.770,-13.334,101.961,-87.783,31.796,87.393,
8802551.000,31.770,-13.334,101.961,-87.783,31.796,87.393,
8802553.000,31.770,-13.334,101.961,-87.783,31.796,87.393,
8802555.000,31.770,-13.334,101.961,-87.783,31.796,87.393,
8802558.000,31.770,-13.334,101.961,-87.783,31.796,87.393,
8802562.000,29.904,-14.438,102.830,-87.205,29.944,86.775,
8802563.000,29.904,-14.438,102.830,-87.205,29.944,86.775,
8802564.000,29.904,-14.438,102.830,-87.205,29.944,86.775,
8802565.000,29.904,-14.438,102.830,-87.205,29.944,86.775,
8802566.000,29.904,-14.438,102.830,-87.205,29.944,86.775,
8802579.000,27.906,-15.522,103.664,-86.496,27.963,86.035,
8802581.000,27.906,-15.522,103.664,-86.496,27.963,86.035,
8802584.000,27.906,-15.522,103.664,-86.496,27.963,86.035,
8802587.000,27.906,-15.522,103.664,-86.496,27.963,86.035,
8802590.000,27.906,-15.522,103.664,-86.496,27.963,86.035,
8802592.000,27.906,-15.522,103.664,-86.496,27.963,86.035,
8802594.000,25.784,-16.570,104.454,-85.630,25.865,85.145,
8802611.000,23.545,-17.569,105.192,-84.564,23.658,84.069,
8802613.000,23.545,-17.569,105.192,-84.564,23.658,84.069,
8802615.000,23.545,-17.569,105.192,-84.564,23.658,84.069,
8802618.000,23.545,-17.569,105.192,-84.564,23.658,84.069,
8802620.000,23.545,-17.569,105.192,-84.564,23.658,84.069,
8802622.000,23.545,-17.569,105.192,-84.564,23.658,84.069,
8802623.000,23.545,-17.569,105.192,-84.564,23.658,84.069,
8802628.000,21.197,-18.507,105.872,-83.240,21.352,82.746,
8802630.000,21.197,-18.507,105.872,-83.240,21.352,82.746,
8802632.000,21.197,-18.507,105.872,-83.240,21.352,82.746,
8802634.000,21.197,-18.507,105.872,-83.240,21.352,82.746,
8802636.000,21.197,-18.507,105.872,-83.240,21.352,82.746,
8802638.000,21.197,-18.507,105.872,-83.240,21.352,82.746,
8802642.000,18.746,-19.374,106.489,-81.563,18.959,81.086,
8802644.000,18.746,-19.374,106.489,-81.563,18.959,81.086,
8802646.000,18.746,-19.374,106.489,-81.563,18.959,81.086,
8802648.000,18.746,-19.374,106.489,-81.563,18.959,81.086,
8802651.000,18.746,-19.374,106.489,-81.563,18.959,81.086,
8802652.000,18.746,-19.374,106.489,-81.563,18.959,81.086,
8802654.000,18.746,-19.374,106.489,-81.563,18.959,81.086,
8802657.000,16.363,-20.116,107.008,-79.536,16.648,79.089,
8802659.000,16.363,-20.116,107.008,-79.536,16.648,79.089,
8802661.000,16.363,-20.116,107.008,-79.536,16.648,79.089,
8802663.000,16.363,-20.116,107.008,-79.536,16.648,79.089,
8802665.000,16.363,-20.116,107.008,-79.536,16.648,79.089,
8802668.000,16.363,-20.116,107.008,-79.536,16.648,79.089,
8802669.000,16.363,-20.116,107.008,-79.536,16.648,79.089,
8802673.000,13.905,-20.783,107.467,-76.850,14.288,76.446,
8802674.000,13.905,-20.783,107.467,-76.850,14.288,76.446,
8802676.000,13.905,-20.783,107.467,-76.850,14.288,76.446,
8802678.000,13.905,-20.783,107.467,-76.850,14.288,76.446,
8802680.000,13.905,-20.783,107.467,-76.850,14.288,76.446,
8802682.000,13.905,-20.783,107.467,-76.850,14.288,76.446,
8802684.000,13.905,-20.783,107.467,-76.850,14.288,76.446,
8802689.000,11.210,-21.404,107.889,-72.810,11.741,72.465,
8802691.000,11.210,-21.404,107.889,-72.810,11.741,72.465,
8802693.000,11.210,-21.404,107.889,-72.810,11.741,72.465,
8802695.000,11.210,-21.404,107.889,-72.810,11.741,72.465,
8802697.000,11.210,-21.404,107.889,-72.810,11.741,72.465,
8802699.000,11.210,-21.404,107.889,-72.810,11.741,72.465,
8802701.000,8.623,-21.898,108.221,-67.075,9.369,66.797,
8802718.000,5.988,-22.302,108.489,-57.632,7.095,57.432,
8802719.000,5.988,-22.302,108.489,-57.632,7.095,57.432,
8802720.000,5.988,-22.302,108.489,-57.632,7.095,57.432,
8802721.000,5.988,-22.302,108.489,-57.632,7.095,57.432,
8802722.000,5.988,-22.302,108.489,-57.632,7.095,57.432,
8802723.000,5.988,-22.302,108.489,-57.632,7.095,57.432,
8802733.000,3.317,-22.612,108.694,-40.310,5.132,40.197,
8802735.000,3.317,-22.612,108.694,-40.310,5.132,40.197,
8802737.000,3.317,-22.612,108.694,-40.310,5.132,40.197,
8802739.000,3.317,-22.612,108.694,-40.310,5.132,40.197,
8802741.000,3.317,-22.612,108.694,-40.310,5.132,40.197,
8802742.000,3.317,-22.612,108.694,-40.310,5.132,40.197,
8802745.000,3.317,-22.612,108.694,-40.310,5.132,40.197,
8802750.000,0.441,-22.836,108.841,-6.309,4.019,6.293,
8802752.000,0.441,-22.836,108.841,-6.309,4.019,6.293,
8802754.000,0.441,-22.836,108.841,-6.309,4.019,6.293,
8802756.000,0.441,-22.836,108.841,-6.309,4.019,6.293,
8802758.000,0.441,-22.836,108.841,-6.309,4.019,6.293,
8802760.000,0.441,-22.836,108.841,-6.309,4.019,6.293,
8802761.000,0.441,-22.836,108.841,-6.309,4.019,6.293,
8802766.000,-2.448,-22.950,108.915,31.289,4.718,-31.203,
8802768.000,-2.448,-22.950,108.915,31.289,4.718,-31.203,
8802770.000,-2.448,-22.950,108.915,31.289,4.718,-31.203,
8802772.000,-2.448,-22.950,108.915,31.289,4.718,-31.203,
8802774.000,-2.448,-22.950,108.915,31.289,4.718,-31.203,
8802776.000,-2.448,-22.950,108.915,31.289,4.718,-31.203,
8802777.000,-2.448,-22.950,108.915,31.289,4.718,-31.203,
8802782.000,-5.336,-22.950,108.915,53.012,6.686,-52.824,
8802784.000,-5.336,-22.950,108.915,53.012,6.686,-52.824,
8802786.000,-5.336,-22.950,108.915,53.012,6.686,-52.824,
8802788.000,-5.336,-22.950,108.915,53.012,6.686,-52.824,
8802790.000,-5.336,-22.950,108.915,53.012,6.686,-52.824,
8802793.000,-5.336,-22.950,108.915,53.012,6.686,-52.824,
8802797.000,-8.207,-22.838,108.842,64.212,9.122,-63.925,
8802799.000,-8.207,-22.838,108.842,64.212,9.122,-63.925,
8802801.000,-8.207,-22.838,108.842,64.212,9.122,-63.925,
8802803.000,-8.207,-22.838,108.842,64.212,9.122,-63.925,
8802805.000,-8.207,-22.838,108.842,64.212,9.122,-63.925,
8802808.000,-8.207,-22.838,108.842,64.212,9.122,-63.925,
8802809.000,-8.207,-22.838,108.842,64.212,9.122,-63.925,
8802813.000,-11.044,-22.614,108.695,70.702,11.711,-70.323,
8802815.000,-11.044,-22.614,108.695,70.702,11.711,-70.323,
8802817.000,-11.044,-22.614,108.695,70.702,11.711,-70.323,
8802819.000,-11.044,-22.614,108.695,70.702,11.711,-70.323,
8802821.000,-11.044,-22.614,108.695,70.702,11.711,-70.323,
8802823.000,-11.044,-22.614,108.695,70.702,11.711,-70.323,
8802825.000,-11.044,-22.614,108.695,70.702,11.711,-70.323,
8802829.000,-13.835,-22.281,108.475,74.917,14.339,-74.455,
8802831.000,-13.835,-22.281,108.475,74.917,14.339,-74.455,
8802834.000,-13.835,-22.281,108.475,74.917,14.339,-74.455,
8802836.000,-13.835,-22.281,108.475,74.917,14.339,-74.455,
8802838.000,-13.835,-22.281,108.475,74.917,14.339,-74.455,
8802840.000,-13.835,-22.281,108.475,74.917,14.339,-74.455,
8802841.000,-13.835,-22.281,108.475,74.917,14.339,-74.455,
8802845.000,-16.398,-21.872,108.204,77.732,16.792,-77.203,
8802846.000,-16.398,-21.872,108.204,77.732,16.792,-77.203,
8802847.000,-16.398,-21.872,108.204,77.732,16.792,-77.203,
8802848.000,-16.398,-21.872,108.204,77.732,16.792,-77.203,
8802849.000,-16.398,-21.872,108.204,77.732,16.792,-77.203,
8802850.000,-16.398,-21.872,108.204,77.732,16.792,-77.203,
8802852.000,-16.398,-21.872,108.204,77.732,16.792,-77.203,
8802860.000,-18.898,-21.373,107.868,79.875,19.209,-79.291,
8802863.000,-18.898,-21.373,107.868,79.875,19.209,-79.291,
8802865.000,-18.898,-21.373,107.868,79.875,19.209,-79.291,
8802867.000,-18.898,-21.373,107.868,79.875,19.209,-79.291,
8802870.000,-18.898,-21.373,107.868,79.875,19.209,-79.291,
8802872.000,-18.898,-21.373,107.868,79.875,19.209,-79.291,
8802874.000,-21.329,-20.789,107.471,81.569,21.574,-80.944,
8802876.000,-21.329,-20.789,107.471,81.569,21.574,-80.944,
8802878.000,-21.329,-20.789,107.471,81.569,21.574,-80.944,
8802880.000,-21.329,-20.789,107.471,81.569,21.574,-80.944,
8802882.000,-21.329,-20.789,107.471,81.569,21.574,-80.944,
8802884.000,-21.329,-20.789,107.471,81.569,21.574,-80.944,
8802886.000,-21.329,-20.789,107.471,81.569,21.574,-80.944,
8802890.000,-23.836,-20.076,106.980,83.029,24.024,-82.376,
8802892.000,-23.836,-20.076,106.980,83.029,24.024,-82.376,
8802895.000,-23.836,-20.076,106.980,83.029,24.024,-82.376,
8802897.000,-23.836,-20.076,106.980,83.029,24.024,-82.376,
8802899.000,-23.836,-20.076,106.980,83.029,24.024,-82.376,
8802901.000,-23.836,-20.076,106.980,83.029,24.024,-82.376,
8802903.000,-23.836,-20.076,106.980,83.029,24.024,-82.376,
8802905.000,-26.099,-19.330,106.458,84.159,26.245,-83.493,
8802908.000,-26.099,-19.330,106.458,84.159,26.245,-83.493,
8802910.000,-26.099,-19.330,106.458,84.159,26.245,-83.493,
8802912.000,-26.099,-19.330,106.458,84.159,26.245,-83.493,
8802915.000,-26.099,-19.330,106.458,84.159,26.245,-83.493,
8802917.000,-26.099,-19.330,106.458,84.159,26.245,-83.493,
8802919.000,-26.099,-19.330,106.458,84.159,26.245,-83.493,
8802936.000,-30.350,-17.638,105.243,85.917,30.436,-85.268,
8802938.000,-30.350,-17.638,105.243,85.917,30.436,-85.268,
8802940.000,-30.350,-17.638,105.243,85.917,30.436,-85.268,
8802942.000,-30.350,-17.638,105.243,85.917,30.436,-85.268,
8802944.000,-30.350,-17.638,105.243,85.917,30.436,-85.268,
8802946.000,-30.350,-17.638,105.243,85.917,30.436,-85.268,
8802948.000,-30.350,-17.638,105.243,85.917,30.436,-85.268,
8802952.000,-32.458,-16.643,104.509,86.649,32.521,-86.027,
8802954.000,-32.458,-16.643,104.509,86.649,32.521,-86.027,
8802956.000,-32.458,-16.643,104.509,86.649,32.521,-86.027,
8802958.000,-32.458,-16.643,104.509,86.649,32.521,-86.027,
8802960.000,-32.458,-16.643,104.509,86.649,32.521,-86.027,
8802962.000,-32.458,-16.643,104.509,86.649,32.521,-86.027,
8802967.000,-34.448,-15.599,103.722,87.267,34.493,-86.685,
8802969.000,-34.448,-15.599,103.722,87.267,34.493,-86.685,
8802971.000,-34.448,-15.599,103.722,87.267,34.493,-86.685,
8802973.000,-34.448,-15.599,103.722,87.267,34.493,-86.685,
8802975.000,-34.448,-15.599,103.722,87.267,34.493,-86.685,
8802977.000,-34.448,-15.599,103.722,87.267,34.493,-86.685,
8802979.000,-34.448,-15.599,103.722,87.267,34.493,-86.685,
8802983.000,-36.315,-14.517,102.891,87.788,36.346,-87.255,
8802985.000,-36.315,-14.517,102.891,87.788,36.346,-87.255,
8802987.000,-36.315,-14.517,102.891,87.788,36.346,-87.255,
8802989.000,-36.315,-14.517,102.891,87.788,36.346,-87.255,
8802991.000,-36.315,-14.517,102.891,87.788,36.346,-87.255,
8802993.000,-36.315,-14.517,102.891,87.788,36.346,-87.255,
8802995.000,-36.315,-14.517,102.891,87.788,36.346,-87.255,
8802998.000,-37.948,-13.483,102.079,88.200,37.970,-87.717,
8802999.000,-37.948,-13.483,102.079,88.200,37.970,-87.717,
8803000.000,-37.948,-13.483,102.079,88.200,37.970,-87.717,
8803001.000,-37.948,-13.483,102.079,88.200,37.970,-87.717,
8803002.000,-37.948,-13.483,102.079,88.200,37.970,-87.717,
8803003.000,-37.948,-13.483,102.079,88.200,37.970,-87.717,
8803004.000,-37.948,-13.483,102.079,88.200,37.970,-87.717,
8803014.000,-39.462,-12.445,101.248,88.546,39.477,-88.117,
8803016.000,-39.462,-12.445,101.248,88.546,39.477,-88.117,
8803019.000,-39.462,-12.445,101.248,88.546,39.477,-88.117,
8803021.000,-39.462,-12.445,101.248,88.546,39.477,-88.117,
8803023.000,-39.462,-12.445,101.248,88.546,39.477,-88.117,
8803025.000,-39.462,-12.445,101.248,88.546,39.477,-88.117,
8803026.000,-39.462,-12.445,101.248,88.546,39.477,-88.117,
8803029.000,-40.940,-11.353,100.356,88.851,40.950,-88.479,
8803031.000,-40.940,-11.353,100.356,88.851,40.950,-88.479,
8803033.000,-40.940,-11.353,100.356,88.851,40.950,-88.479,
8803035.000,-40.940,-11.353,100.356,88.851,40.950,-88.479,
8803037.000,-40.940,-11.353,100.356,88.851,40.950,-88.479,
8803040.000,-40.940,-11.353,100.356,88.851,40.950,-88.479,
8803044.000,-42.190,-10.362,99.531,89.083,42.197,-88.763,
8803046.000,-42.190,-10.362,99.531,89.083,42.197,-88.763,
8803048.000,-42.190,-10.362,99.531,89.083,42.197,-88.763,
8803050.000,-42.190,-10.362,99.531,89.083,42.197,-88.763,
8803052.000,-42.190,-10.362,99.531,89.083,42.197,-88.763,
8803054.000,-42.190,-10.362,99.531,89.083,42.197,-88.763,
8803056.000,-42.190,-10.362,99.531,89.083,42.197,-88.763,
8803059.000,-43.306,-9.423,98.736,89.270,43.310,-88.998,
8803062.000,-43.306,-9.423,98.736,89.270,43.310,-88.998,
8803064.000,-43.306,-9.423,98.736,89.270,43.310,-88.998,
8803066.000,-43.306,-9.423,98.736,89.270,43.310,-88.998,
8803068.000,-43.306,-9.423,98.736,89.270,43.310,-88.998,
8803071.000,-43.306,-9.423,98.736,89.270,43.310,-88.998,
8803072.000,-43.306,-9.423,98.736,89.270,43.310,-88.998,
8803075.000,-44.283,-8.555,97.988,89.418,44.286,-89.188,
8803077.000,-44.283,-8.555,97.988,89.418,44.286,-89.188,
8803079.000,-44.283,-8.555,97.988,89.418,44.286,-89.188,
8803081.000,-44.283,-8.555,97.988,89.418,44.286,-89.188,
8803083.000,-44.283,-8.555,97.988,89.418,44.286,-89.188,
8803085.000,-44.283,-8.555,97.988,89.418,44.286,-89.188,
8803086.000,-44.283,-8.555,97.988,89.418,44.286,-89.188,
8803090.000,-45.173,-7.725,97.263,89.540,45.175,-89.348,
8803092.000,-45.173,-7.725,97.263,89.540,45.175,-89.348,
8803094.000,-45.173,-7.725,97.263,89.540,45.175,-89.348,
8803096.000,-45.173,-7.725,97.263,89.540,45.175,-89.348,
8803098.000,-45.173,-7.725,97.263,89.540,45.175,-89.348,
8803101.000,-45.173,-7.725,97.263,89.540,45.175,-89.348,
8803102.000,-45.173,-7.725,97.263,89.540,45.175,-89.348,
8803106.000,-45.870,-7.048,96.663,89.626,45.871,-89.463,
8803109.000,-45.870,-7.048,96.663,89.626,45.871,-89.463,
8803111.000,-45.870,-7.048,96.663,89.626,45.871,-89.463,
8803113.000,-45.870,-7.048,96.663,89.626,45.871,-89.463,
8803115.000,-45.870,-7.048,96.663,89.626,45.871,-89.463,
8803117.000,-45.870,-7.048,96.663,89.626,45.871,-89.463,
8803121.000,-46.475,-6.439,96.118,89.694,46.476,-89.556,
8803123.000,-46.475,-6.439,96.118,89.694,46.476,-89.556,
8803125.000,-46.475,-6.439,96.118,89.694,46.476,-89.556,
8803127.000,-46.475,-6.439,96.118,89.694,46.476,-89.556,
8803129.000,-46.475,-6.439,96.118,89.694,46.476,-89.556,
8803131.000,-46.475,-6.439,96.118,89.694,46.476,-89.556,
8803133.000,-46.475,-6.439,96.118,89.694,46.476,-89.556,
8803137.000,-46.954,-5.943,95.670,89.744,46.954,-89.625,
8803139.000,-46.954,-5.943,95.670,89.744,46.954,-89.625,
8803142.000,-46.954,-5.943,95.670,89.744,46.954,-89.625,
8803144.000,-46.954,-5.943,95.670,89.744,46.954,-89.625,
8803146.000,-46.954,-5.943,95.670,89.744,46.954,-89.625,
8803149.000,-46.954,-5.943,95.670,89.744,46.954,-89.625,
8803151.000,-46.954,-5.943,95.670,89.744,46.954,-89.625,
8803153.000,-47.324,-5.552,95.313,89.779,47.324,-89.675,
8803155.000,-47.324,-5.552,95.313,89.779,47.324,-89.675,
8803157.000,-47.324,-5.552,95.313,89.779,47.324,-89.675,
8803159.000,-47.324,-5.552,95.313,89.779,47.324,-89.675,
8803161.000,-47.324,-5.552,95.313,89.779,47.324,-89.675,
8803163.000,-47.324,-5.552,95.313,89.779,47.324,-89.675,
8803165.000,-47.324,-5.552,95.313,89.779,47.324,-89.675,
8803169.000,-47.589,-5.266,95.051,89.803,47.589,-89.708,
8803171.000,-47.589,-5.266,95.051,89.803,47.589,-89.708,
8803173.000,-47.589,-5.266,95.051,89.803,47.589,-89.708,
8803175.000,-47.589,-5.266,95.051,89.803,47.589,-89.708,
8803178.000,-47.589,-5.266,95.051,89.803,47.589,-89.708,
8803180.000,-47.589,-5.266,95.051,89.803,47.589,-89.708,
8803181.000,-47.589,-5.266,95.051,89.803,47.589,-89.708,
8803184.000,-47.790,-5.046,94.849,89.820,47.791,-89.733,
8803186.000,-47.790,-5.046,94.849,89.820,47.791,-89.733,
8803188.000,-47.790,-5.046,94.849,89.820,47.791,-89.733,
8803190.000,-47.790,-5.046,94.849,89.820,47.791,-89.733,
8803193.000,-47.790,-5.046,94.849,89.820,47.791,-89.733,
8803195.000,-47.790,-5.046,94.849,89.820,47.791,-89.733,
8803198.000,-47.942,-4.879,94.695,89.833,47.942,-89.751,
8803200.000,-47.942,-4.879,94.695,89.833,47.942,-89.751,
8803202.000,-47.942,-4.879,94.695,89.833,47.942,-89.751,
8803204.000,-47.942,-4.879,94.695,89.833,47.942,-89.751,
8803206.000,-47.942,-4.879,94.695,89.833,47.942,-89.751,
8803208.000,-47.942,-4.879,94.695,89.833,47.942,-89.751,
8803211.000,-47.942,-4.879,94.695,89.833,47.942,-89.751,
8803214.000,-48.061,-4.747,94.573,89.842,48.061,-89.765,
8803216.000,-48.061,-4.747,94.573,89.842,48.061,-89.765,
8803218.000,-48.061,-4.747,94.573,89.842,48.061,-89.765,
8803220.000,-48.061,-4.747,94.573,89.842,48.061,-89.765,
8803222.000,-48.061,-4.747,94.573,89.842,48.061,-89.765,
8803224.000,-48.061,-4.747,94.573,89.842,48.061,-89.765,
8803225.000,-48.061,-4.747,94.573,89.842,48.061,-89.765,
8803231.000,-48.147,-4.651,94.484,89.849,48.147,-89.774,
8803233.000,-48.147,-4.651,94.484,89.849,48.147,-89.774,
8803235.000,-48.147,-4.651,94.484,89.849,48.147,-89.774,
8803237.000,-48.147,-4.651,94.484,89.849,48.147,-89.774,
8803239.000,-48.147,-4.651,94.484,89.849,48.147,-89.774,
8803241.000,-48.147,-4.651,94.484,89.849,48.147,-89.774,
8803244.000,-48.147,-4.651,94.484,89.849,48.147,-89.774,
8803247.000,-48.208,-4.582,94.419,89.854,48.209,-89.781,
8803250.000,-48.208,-4.582,94.419,89.854,48.209,-89.781,
8803252.000,-48.208,-4.582,94.419,89.854,48.209,-89.781,
8803255.000,-48.208,-4.582,94.419,89.854,48.209,-89.781,
8803257.000,-48.208,-4.582,94.419,89.854,48.209,-89.781,
8803260.000,-48.208,-4.582,94.419,89.854,48.209,-89.781,
8803276.000,-48.281,-4.500,94.343,89.859,48.281,-89.789,
8803278.000,-48.281,-4.500,94.343,89.859,48.281,-89.789,
8803280.000,-48.281,-4.500,94.343,89.859,48.281,-89.789,
8803282.000,-48.281,-4.500,94.343,89.859,48.281,-89.789,
8803284.000,-48.281,-4.500,94.343,89.859,48.281,-89.789,
8803286.000,-48.281,-4.500,94.343,89.859,48.281,-89.789,
8803288.000,-48.281,-4.500,94.343,89.859,48.281,-89.789,
8803307.000,-48.320,-4.456,94.302,89.862,48.321,-89.793,
8803309.000,-48.320,-4.456,94.302,89.862,48.321,-89.793,
8803311.000,-48.320,-4.456,94.302,89.862,48.321,-89.793,
8803313.000,-48.320,-4.456,94.302,89.862,48.321,-89.793,
8803316.000,-48.320,-4.456,94.302,89.862,48.321,-89.793,
8803318.000,-48.320,-4.456,94.302,89.862,48.321,-89.793,
8803319.000,-48.320,-4.456,94.302,89.862,48.321,-89.793,
8803322.000,-48.332,-4.443,94.290,89.863,48.332,-89.795,
8803324.000,-48.332,-4.443,94.290,89.863,48.332,-89.795,
8803326.000,-48.332,-4.443,94.290,89.863,48.332,-89.795,
8803328.000,-48.332,-4.443,94.290,89.863,48.332,-89.795,
8803330.000,-48.332,-4.443,94.290,89.863,48.332,-89.795,
8803331.000,-48.332,-4.443,94.290,89.863,48.332,-89.795,
8803333.000,-48.332,-4.443,94.290,89.863,48.332,-89.795,
8803338.000,-48.340,-4.434,94.281,89.864,48.340,-89.795,
8803340.000,-48.340,-4.434,94.281,89.864,48.340,-89.795,
8803341.000,-48.340,-4.434,94.281,89.864,48.340,-89.795,
8803343.000,-48.340,-4.434,94.281,89.864,48.340,-89.795,
8803345.000,-48.340,-4.434,94.281,89.864,48.340,-89.795,
8803347.000,-48.340,-4.434,94.281,89.864,48.340,-89.795,
8803348.000,-48.340,-4.434,94.281,89.864,48.340,-89.795,
8803353.000,-48.346,-4.427,94.275,89.864,48.346,-89.796,
8803355.000,-48.346,-4.427,94.275,89.864,48.346,-89.796,
8803357.000,-48.346,-4.427,94.275,89.864,48.346,-89.796,
8803359.000,-48.346,-4.427,94.275,89.864,48.346,-89.796,
8803361.000,-48.346,-4.427,94.275,89.864,48.346,-89.796,
8803363.000,-48.346,-4.427,94.275,89.864,48.346,-89.796,
8803367.000,-48.346,-4.427,94.275,89.864,48.346,-89.796,
8803368.000,-48.351,-4.422,94.270,89.865,48.351,-89.797,
8803369.000,-48.351,-4.422,94.270,89.865,48.351,-89.797,
8803370.000,-48.351,-4.422,94.270,89.865,48.351,-89.797,
8803371.000,-48.351,-4.422,94.270,89.865,48.351,-89.797,
8803372.000,-48.351,-4.422,94.270,89.865,48.351,-89.797,
8803373.000,-48.351,-4.422,94.270,89.865,48.351,-89.797,
8803383.000,-48.354,-4.418,94.267,89.865,48.354,-89.797,
8803386.000,-48.354,-4.418,94.267,89.865,48.354,-89.797,
8803388.000,-48.354,-4.418,94.267,89.865,48.354,-89.797,
8803390.000,-48.354,-4.418,94.267,89.865,48.354,-89.797,
8803392.000,-48.354,-4.418,94.267,89.865,48.354,-89.797,
8803393.000,-48.354,-4.418,94.267,89.865,48.354,-89.797,
8803394.000,-48.354,-4.418,94.267,89.865,48.354,-89.797,
8803400.000,-48.356,-4.416,94.264,89.865,48.356,-89.797,
8803402.000,-48.356,-4.416,94.264,89.865,48.356,-89.797,
8803404.000,-48.356,-4.416,94.264,89.865,48.356,-89.797,
8803406.000,-48.356,-4.416,94.264,89.865,48.356,-89.797,
8803409.000,-48.356,-4.416,94.264,89.865,48.356,-89.797,
8803410.000,-48.356,-4.416,94.264,89.865,48.356,-89.797,
8803414.000,-48.358,-4.414,94.263,89.865,48.358,-89.797,
8803417.000,-48.358,-4.414,94.263,89.865,48.358,-89.797,
8803419.000,-48.358,-4.414,94.263,89.865,48.358,-89.797,
8803421.000,-48.358,-4.414,94.263,89.865,48.358,-89.797,
8803424.000,-48.358,-4.414,94.263,89.865,48.358,-89.797,
8803427.000,-48.358,-4.414,94.263,89.865,48.358,-89.797,
8803429.000,-48.358,-4.414,94.263,89.865,48.358,-89.797,
8803446.000,-48.358,-4.413,94.262,89.865,48.359,-89.797,
8803448.000,-48.358,-4.413,94.262,89.865,48.359,-89.797,
8803450.000,-48.358,-4.413,94.262,89.865,48.359,-89.797,
8803452.000,-48.358,-4.413,94.262,89.865,48.359,-89.797,
8803455.000,-48.358,-4.413,94.262,89.865,48.359,-89.797,
8803457.000,-48.358,-4.413,94.262,89.865,48.359,-89.797,
8803458.000,-48.358,-4.413,94.262,89.865,48.359,-89.797,
8803463.000,-48.358,-4.413,94.262,89.865,48.359,-89.797,
8803465.000,-48.358,-4.413,94.262,89.865,48.359,-89.797,
8803466.000,-48.358,-4.413,94.262,89.865,48.359,-89.797,
8803468.000,-48.358,-4.413,94.262,89.865,48.359,-89.797,
8803470.000,-48.358,-4.413,94.262,89.865,48.359,-89.797,
8803472.000,-48.358,-4.413,94.262,89.865,48.359,-89.797,
8803473.000,-48.358,-4.413,94.262,89.865,48.359,-89.797,
8803479.000,-48.358,-4.413,94.262,89.865,48.359,-89.797,
8803482.000,-48.358,-4.413,94.262,89.865,48.359,-89.797,
8803483.000,-48.358,-4.413,94.262,89.865,48.359,-89.797,
8803486.000,-48.358,-4.413,94.262,89.865,48.359,-89.797,
8803488.000,-48.358,-4.413,94.262,89.865,48.359,-89.797,
8803490.000,-48.358,-4.413,94.262,89.865,48.359,-89.797,
8803491.000,-48.358,-4.413,94.262,89.865,48.359,-89.797,
8803495.000,-48.358,-4.413,94.262,89.865,48.359,-89.797,
8803497.000,-48.358,-4.413,94.262,89.865,48.359,-89.797,
8803499.000,-48.358,-4.413,94.262,89.865,48.359,-89.797,
8803501.000,-48.358,-4.413,94.262,89.865,48.359,-89.797,
8803503.000,-48.358,-4.413,94.262,89.865,48.359,-89.797,
8803505.000,-48.358,-4.413,94.262,89.865,48.359,-89.797,
8803510.000,-48.358,-4.413,94.262,89.865,48.359,-89.797,
8803512.000,-48.358,-4.413,94.262,89.865,48.359,-89.797,
8803514.000,-48.358,-4.413,94.262,89.865,48.359,-89.797,
8803516.000,-48.358,-4.413,94.262,89.865,48.359,-89.797,
8803518.000,-48.358,-4.413,94.262,89.865,48.359,-89.797,
8803520.000,-48.358,-4.413,94.262,89.865,48.359,-89.797,
8803522.000,-48.358,-4.413,94.262,89.865,48.359,-89.797,
8803526.000,-48.358,-4.413,94.262,89.865,48.359,-89.797,
8803527.000,-48.358,-4.413,94.262,89.865,48.359,-89.797,
8803528.000,-48.358,-4.413,94.262,89.865,48.359,-89.797,
8803529.000,-48.358,-4.413,94.262,89.865,48.359,-89.797,
8803530.000,-48.358,-4.413,94.262,89.865,48.359,-89.797,
8803531.000,-48.358,-4.413,94.262,89.865,48.359,-89.797,
8803532.000,-48.358,-4.413,94.262,89.865,48.359,-89.797,
8803543.000,-48.358,-4.413,94.262,89.865,48.359,-89.797,
8803545.000,-48.358,-4.413,94.262,89.865,48.359,-89.797,
8803548.000,-48.358,-4.413,94.262,89.865,48.359,-89.797,
8803550.000,-48.358,-4.413,94.262,89.865,48.359,-89.797,
8803553.000,-48.358,-4.413,94.262,89.865,48.359,-89.797,
8803555.000,-48.358,-4.413,94.262,89.865,48.359,-89.797,
8803557.000,-48.358,-4.413,94.262,89.865,48.359,-89.797,
8803573.000,-48.358,-4.413,94.262,89.865,48.359,-89.797,
8803575.000,-48.358,-4.413,94.262,89.865,48.359,-89.797,
8803577.000,-48.358,-4.413,94.262,89.865,48.359,-89.797,
8803579.000,-48.358,-4.413,94.262,89.865,48.359,-89.797,
8803581.000,-48.358,-4.413,94.262,89.865,48.359,-89.797,
8803583.000,-48.358,-4.413,94.262,89.865,48.359,-89.797,
8803585.000,-48.358,-4.413,94.262,89.865,48.359,-89.797,
8803590.000,-48.358,-4.413,94.262,89.865,48.359,-89.797,
8803592.000,-48.358,-4.413,94.262,89.865,48.359,-89.797,
8803594.000,-48.358,-4.413,94.262,89.865,48.359,-89.797,
8803596.000,-48.358,-4.413,94.262,89.865,48.359,-89.797,
8803598.000,-48.358,-4.413,94.262,89.865,48.359,-89.797,
8803599.000,-48.358,-4.413,94.262,89.865,48.359,-89.797,
8803603.000,-48.358,-4.413,94.262,89.865,48.359,-89.797,
8803605.000,-48.358,-4.413,94.262,89.865,48.359,-89.797,
8803607.000,-48.358,-4.413,94.262,89.865,48.359,-89.797,
8803609.000,-48.358,-4.413,94.262,89.865,48.359,-89.797,
8803611.000,-48.358,-4.413,94.262,89.865,48.359,-89.797,
8803613.000,-48.358,-4.413,94.262,89.865,48.359,-89.797,
8803615.000,-48.358,-4.413,94.262,89.865,48.359,-89.797,
8803618.000,-48.358,-4.413,94.262,89.865,48.359,-89.797,
8803620.000,-48.358,-4.413,94.262,89.865,48.359,-89.797,
8803622.000,-48.358,-4.413,94.262,89.865,48.359,-89.797,
8803624.000,-48.358,-4.413,94.262,89.865,48.359,-89.797,
8803627.000,-48.358,-4.413,94.262,89.865,48.359,-89.797,
8803629.000,-48.358,-4.413,94.262,89.865,48.359,-89.797,
8803630.000,-48.358,-4.413,94.262,89.865,48.359,-89.797,
8803634.000,-48.358,-4.413,94.262,89.865,48.359,-89.797,
8803636.000,-48.358,-4.413,94.262,89.865,48.359,-89.797,
8803638.000,-48.358,-4.413,94.262,89.865,48.359,-89.797,
8803640.000,-48.358,-4.413,94.262,89.865,48.359,-89.797,
8803642.000,-48.358,-4.413,94.262,89.865,48.359,-89.797,
8803644.000,-48.358,-4.413,94.262,89.865,48.359,-89.797,
8803646.000,-48.358,-4.413,94.262,89.865,48.359,-89.797,
8803650.000,-48.358,-4.413,94.262,89.865,48.359,-89.797,
8803652.000,-48.358,-4.413,94.262,89.865,48.359,-89.797,
8803654.000,-48.358,-4.413,94.262,89.865,48.359,-89.797,
8803656.000,-48.358,-4.413,94.262,89.865,48.359,-89.797,
8803658.000,-48.358,-4.413,94.262,89.865,48.359,-89.797,
8803660.000,-48.358,-4.413,94.262,89.865,48.359,-89.797,
8803661.000,-48.358,-4.413,94.262,89.865,48.359,-89.797,
8803666.000,-48.358,-4.413,94.262,89.865,48.359,-89.797,
8803668.000,-48.358,-4.413,94.262,89.865,48.359,-89.797,
8803670.000,-48.358,-4.413,94.262,89.865,48.359,-89.797,
8803672.000,-48.358,-4.413,94.262,89.865,48.359,-89.797,
8803675.000,-48.358,-4.413,94.262,89.865,48.359,-89.797,
8803677.000,-48.358,-4.413,94.262,89.865,48.359,-89.797,
8803681.000,-48.358,-4.413,94.262,89.865,48.359,-89.797,
8803683.000,-48.358,-4.413,94.262,89.865,48.359,-89.797,
8803685.000,-48.358,-4.413,94.262,89.865,48.359,-89.797,
8803687.000,-48.358,-4.413,94.262,89.865,48.359,-89.797,
8803689.000,-48.358,-4.413,94.262,89.865,48.359,-89.797,
8803691.000,-48.358,-4.413,94.262,89.865,48.359,-89.797,
8803694.000,-48.358,-4.413,94.262,89.865,48.359,-89.797,
8803698.000,-48.358,-4.413,94.262,89.865,48.359,-89.797,
8803700.000,-48.358,-4.413,94.262,89.865,48.359,-89.797,
8803702.000,-48.358,-4.413,94.262,89.865,48.359,-89.797,
8803704.000,-48.358,-4.413,94.262,89.865,48.359,-89.797,
8803706.000,-48.358,-4.413,94.262,89.865,48.359,-89.797,
8803708.000,-48.358,-4.413,94.262,89.865,48.359,-89.797,
8803710.000,-48.358,-4.413,94.262,89.865,48.359,-89.797,
8803714.000,-48.358,-4.413,94.262,89.865,48.359,-89.797,
8803716.000,-48.358,-4.413,94.262,89.865,48.359,-89.797,
8803718.000,-48.358,-4.413,94.262,89.865,48.359,-89.797,
8803720.000,-48.358,-4.413,94.262,89.865,48.359,-89.797,
8803722.000,-48.358,-4.413,94.262,89.865,48.359,-89.797,
8803724.000,-48.358,-4.413,94.262,89.865,48.359,-89.797,
8803726.000,-48.358,-4.413,94.262,89.865,48.359,-89.797,
8803730.000,-48.358,-4.413,94.262,89.865,48.359,-89.797,
8803733.000,-48.358,-4.413,94.262,89.865,48.359,-89.797,
8803736.000,-48.358,-4.413,94.262,89.865,48.359,-89.797,
8803738.000,-48.358,-4.413,94.262,89.865,48.359,-89.797,
8803741.000,-48.358,-4.413,94.262,89.865,48.359,-89.797,
8803743.000,-48.358,-4.413,94.262,89.865,48.359,-89.797,
8803760.000,-48.358,-4.413,94.262,89.865,48.359,-89.797,
8803761.000,-48.358,-4.413,94.262,89.865,48.359,-89.797,
8803762.000,-48.358,-4.413,94.262,89.865,48.359,-89.797,
8803763.000,-48.358,-4.413,94.262,89.865,48.359,-89.797,
8803764.000,-48.358,-4.413,94.262,89.865,48.359,-89.797,
8803765.000,-48.358,-4.413,94.262,89.865,48.359,-89.797,
8803775.000,-48.358,-4.413,94.262,89.865,48.359,-89.797,
8803777.000,-48.358,-4.413,94.262,89.865,48.359,-89.797,
8803778.000,-48.358,-4.413,94.262,89.865,48.359,-89.797,
8803780.000,-48.358,-4.413,94.262,89.865,48.359,-89.797,
8803782.000,-48.358,-4.413,94.262,89.865,48.359,-89.797,
8803784.000,-48.358,-4.413,94.262,89.865,48.359,-89.797,
8803786.000,-48.358,-4.413,94.262,89.865,48.359,-89.797,
8803790.000,-48.358,-4.413,94.262,89.865,48.359,-89.797,
8803792.000,-48.358,-4.413,94.262,89.865,48.359,-89.797,
8803794.000,-48.358,-4.413,94.262,89.865,48.359,-89.797,
8803796.000,-48.358,-4.413,94.262,89.865,48.359,-89.797,
8803798.000,-48.358,-4.413,94.262,89.865,48.359,-89.797,
8803799.000,-48.358,-4.413,94.262,89.865,48.359,-89.797,
8803802.000,-48.358,-4.413,94.262,89.865,48.359,-89.797,
8803806.000,-48.358,-4.413,94.262,89.865,48.359,-89.797,
8803808.000,-48.358,-4.413,94.262,89.865,48.359,-89.797,
8803810.000,-48.358,-4.413,94.262,89.865,48.359,-89.797,
8803812.000,-48.358,-4.413,94.262,89.865,48.359,-89.797,
8803814.000,-48.358,-4.413,94.262,89.865,48.359,-89.797,
8803816.000,-48.358,-4.413,94.262,89.865,48.359,-89.797,
8803818.000,-48.358,-4.413,94.262,89.865,48.359,-89.797,
8803822.000,-48.358,-4.413,94.262,89.865,48.359,-89.797,
8803824.000,-48.358,-4.413,94.262,89.865,48.359,-89.797,
8803826.000,-48.358,-4.413,94.262,89.865,48.359,-89.797,
8803828.000,-48.358,-4.413,94.262,89.865,48.359,-89.797,
8803829.000,-48.358,-4.413,94.262,89.865,48.359,-89.797,
8803831.000,-48.358,-4.413,94.262,89.865,48.359,-89.797,
8803833.000,-48.358,-4.413,94.262,89.865,48.359,-89.797,
8803837.000,-48.358,-4.413,94.262,89.865,48.359,-89.797,
8803839.000,-48.358,-4.413,94.262,89.865,48.359,-89.797,
8803841.000,-48.358,-4.413,94.262,89.865,48.359,-89.797,
8803843.000,-48.358,-4.413,94.262,89.865,48.359,-89.797,
8803845.000,-48.358,-4.413,94.262,89.865,48.359,-89.797,
8803847.000,-48.358,-4.413,94.262,89.865,48.359,-89.797,
8803851.000,-48.358,-4.413,94.262,89.865,48.359,-89.797,
8803853.000,-48.358,-4.413,94.262,89.865,48.359,-89.797,
8803855.000,-48.358,-4.413,94.262,89.865,48.359,-89.797,
8803857.000,-48.358,-4.413,94.262,89.865,48.359,-89.797,
8803859.000,-48.358,-4.413,94.262,89.865,48.359,-89.797,
8803861.000,-48.358,-4.413,94.262,89.865,48.359,-89.797,
8803863.000,-48.358,-4.413,94.262,89.865,48.359,-89.797,
8803867.000,-48.358,-4.413,94.262,89.865,48.359,-89.797,
8803869.000,-48.358,-4.413,94.262,89.865,48.359,-89.797,
8803871.000,-48.358,-4.413,94.262,89.865,48.359,-89.797,
8803873.000,-48.358,-4.413,94.262,89.865,48.359,-89.797,
8803875.000,-48.358,-4.413,94.262,89.865,48.359,-89.797,
8803877.000,-48.358,-4.413,94.262,89.865,48.359,-89.797,
8803879.000,-48.358,-4.413,94.262,89.865,48.359,-89.797,
8803883.000,-48.358,-4.413,94.262,89.865,48.359,-89.797,
8803886.000,-48.358,-4.413,94.262,89.865,48.359,-89.797,
8803888.000,-48.358,-4.413,94.262,89.865,48.359,-89.797,
8803890.000,-48.358,-4.413,94.262,89.865,48.359,-89.797,
8803892.000,-48.358,-4.413,94.262,89.865,48.359,-89.797,
8803894.000,-48.358,-4.413,94.262,89.865,48.359,-89.797,
8803895.000,-48.358,-4.413,94.262,89.865,48.359,-89.797,
8803900.000,-48.358,-4.413,94.262,89.865,48.359,-89.797,
8803902.000,-48.358,-4.413,94.262,89.865,48.359,-89.797,
8803904.000,-48.358,-4.413,94.262,89.865,48.359,-89.797,
8803906.000,-48.358,-4.413,94.262,89.865,48.359,-89.797,
8803908.000,-48.358,-4.413,94.262,89.865,48.359,-89.797,
8803910.000,-48.358,-4.413,94.262,89.865,48.359,-89.797,
8803911.000,-48.358,-4.413,94.262,89.865,48.359,-89.797,
8803916.000,-48.358,-4.413,94.262,89.865,48.359,-89.797,
8803918.000,-48.358,-4.413,94.262,89.865,48.359,-89.797,
8803920.000,-48.358,-4.413,94.262,89.865,48.359,-89.797,
8803922.000,-48.358,-4.413,94.262,89.865,48.359,-89.797,
8803924.000,-48.358,-4.413,94.262,89.865,48.359,-89.797,
8803926.000,-48.358,-4.413,94.262,89.865,48.359,-89.797,
8803931.000,-48.358,-4.413,94.262,89.865,48.359,-89.797,
8803933.000,-48.358,-4.413,94.262,89.865,48.359,-89.797,
8803935.000,-48.358,-4.413,94.262,89.865,48.359,-89.797,
8803937.000,-48.358,-4.413,94.262,89.865,48.359,-89.797,
8803939.000,-48.358,-4.413,94.262,89.865,48.359,-89.797,
8803940.000,-48.358,-4.413,94.262,89.865,48.359,-89.797,
8803943.000,-48.358,-4.413,94.262,89.865,48.359,-89.797,
8803947.000,-48.358,-4.413,94.262,89.865,48.359,-89.797,
8803949.000,-48.358,-4.413,94.262,89.865,48.359,-89.797,
8803951.000,-48.358,-4.413,94.262,89.865,48.359,-89.797,
8803953.000,-48.358,-4.413,94.262,89.865,48.359,-89.797,
8803955.000,-48.358,-4.413,94.262,89.865,48.359,-89.797,
8803957.000,-48.358,-4.413,94.262,89.865,48.359,-89.797,
8803959.000,-48.358,-4.413,94.262,89.865,48.359,-89.797,
8803962.000,-48.358,-4.413,94.262,89.865,48.359,-89.797,
8803965.000,-48.358,-4.413,94.262,89.865,48.359,-89.797,
8803967.000,-48.358,-4.413,94.262,89.865,48.359,-89.797,
8803969.000,-48.358,-4.413,94.262,89.865,48.359,-89.797,
8803971.000,-48.358,-4.413,94.262,89.865,48.359,-89.797,
8803973.000,-48.358,-4.413,94.262,89.865,48.359,-89.797,
8803974.000,-48.358,-4.413,94.262,89.865,48.359,-89.797,
8803978.000,-48.358,-4.413,94.262,89.865,48.359,-89.797,
8803980.000,-48.358,-4.413,94.262,89.865,48.359,-89.797,
8803982.000,-48.358,-4.413,94.262,89.865,48.359,-89.797,
8803984.000,-48.358,-4.413,94.262,89.865,48.359,-89.797,
8803985.000,-48.358,-4.413,94.262,89.865,48.359,-89.797,
8803987.000,-48.358,-4.413,94.262,89.865,48.359,-89.797,
8803989.000,-48.358,-4.413,94.262,89.865,48.359,-89.797,
8803994.000,-48.358,-4.413,94.262,89.865,48.359,-89.797,
8803996.000,-48.358,-4.413,94.262,89.865,48.359,-89.797,
8803999.000,-48.358,-4.413,94.262,89.865,48.359,-89.797,
8804001.000,-48.358,-4.413,94.262,89.865,48.359,-89.797,
8804005.000,-48.358,-4.413,94.262,89.865,48.359,-89.797,
8804008.000,-48.358,-4.413,94.262,89.865,48.359,-89.797,
8804024.000,-48.358,-4.413,94.262,89.865,48.359,-89.797,
8804026.000,-48.358,-4.413,94.262,89.865,48.359,-89.797,
8804028.000,-48.358,-4.413,94.262,89.865,48.359,-89.797,
8804030.000,-48.358,-4.413,94.262,89.865,48.359,-89.797,
8804032.000,-48.358,-4.413,94.262,89.865,48.359,-89.797,
8804034.000,-48.358,-4.413,94.262,89.865,48.359,-89.797,
8804036.000,-48.358,-4.413,94.262,89.865,48.359,-89.797,
8804040.000,-48.358,-4.413,94.262,89.865,48.359,-89.797,
8804042.000,-48.358,-4.413,94.262,89.865,48.359,-89.797,
8804044.000,-48.358,-4.413,94.262,89.865,48.359,-89.797,
8804046.000,-48.358,-4.413,94.262,89.865,48.359,-89.797,
8804047.000,-48.358,-4.413,94.262,89.865,48.359,-89.797,
8804049.000,-48.358,-4.413,94.262,89.865,48.359,-89.797,
8804051.000,-48.358,-4.413,94.262,89.865,48.359,-89.797,
8804055.000,-48.358,-4.413,94.262,89.865,48.359,-89.797,
8804056.000,-48.358,-4.413,94.262,89.865,48.359,-89.797,
8804057.000,-48.358,-4.413,94.262,89.865,48.359,-89.797,
8804058.000,-48.358,-4.413,94.262,89.865,48.359,-89.797,
8804059.000,-48.358,-4.413,94.262,89.865,48.359,-89.797,
8804060.000,-48.358,-4.413,94.262,89.865,48.359,-89.797,
8804071.000,-48.358,-4.413,94.262,89.865,48.359,-89.797,
8804072.000,-48.358,-4.413,94.262,89.865,48.359,-89.797,
8804073.000,-48.358,-4.413,94.262,89.865,48.359,-89.797,
8804074.000,-48.358,-4.413,94.262,89.865,48.359,-89.797,
8804075.000,-48.358,-4.413,94.262,89.865,48.359,-89.797,
8804076.000,-48.358,-4.413,94.262,89.865,48.359,-89.797,
8804077.000,-48.358,-4.413,94.262,89.865,48.359,-89.797,
8804088.000,-48.358,-4.413,94.262,89.865,48.359,-89.797,
8804090.000,-48.358,-4.413,94.262,89.865,48.359,-89.797,
8804092.000,-48.358,-4.413,94.262,89.865,48.359,-89.797,
8804094.000,-48.358,-4.413,94.262,89.865,48.359,-89.797,
8804096.000,-48.358,-4.413,94.262,89.865,48.359,-89.797,
8804097.000,-48.358,-4.413,94.262,89.865,48.359,-89.797,
8804099.000,-48.358,-4.413,94.262,89.865,48.359,-89.797,
8804103.000,-48.358,-4.413,94.262,89.865,48.359,-89.797,
8804105.000,-48.358,-4.413,94.262,89.865,48.359,-89.797,
8804107.000,-48.358,-4.413,94.262,89.865,48.359,-89.797,
8804109.000,-48.358,-4.413,94.262,89.865,48.359,-89.797,
8804111.000,-48.358,-4.413,94.262,89.865,48.359,-89.797,
8804113.000,-48.358,-4.413,94.262,89.865,48.359,-89.797,
8804117.000,-48.358,-4.413,94.262,89.865,48.359,-89.797,
8804119.000,-48.358,-4.413,94.262,89.865,48.359,-89.797,
8804120.000,-48.358,-4.413,94.262,89.865,48.359,-89.797,
8804122.000,-48.358,-4.413,94.262,89.865,48.359,-89.797,
8804124.000,-48.358,-4.413,94.262,89.865,48.359,-89.797,
8804126.000,-48.358,-4.413,94.262,89.865,48.359,-89.797,
8804128.000,-48.358,-4.413,94.262,89.865,48.359,-89.797,
8804132.000,-48.358,-4.413,94.262,89.865,48.359,-89.797,
8804134.000,-48.358,-4.413,94.262,89.865,48.359,-89.797,
8804136.000,-48.358,-4.413,94.262,89.865,48.359,-89.797,
8804138.000,-48.358,-4.413,94.262,89.865,48.359,-89.797,
8804140.000,-48.358,-4.413,94.262,89.865,48.359,-89.797,
8804141.000,-48.358,-4.413,94.262,89.865,48.359,-89.797,
8804144.000,-48.358,-4.413,94.262,89.865,48.359,-89.797,
8804149.000,-48.358,-4.413,94.262,89.865,48.359,-89.797,
8804151.000,-48.358,-4.413,94.262,89.865,48.359,-89.797,
8804153.000,-48.358,-4.413,94.262,89.865,48.359,-89.797,
8804155.000,-48.358,-4.413,94.262,89.865,48.359,-89.797,
8804158.000,-48.358,-4.413,94.262,89.865,48.359,-89.797,
8804160.000,-48.358,-4.413,94.262,89.865,48.359,-89.797,
8804161.000,-48.358,-4.413,94.262,89.865,48.359,-89.797,
8804165.000,-48.358,-4.413,94.262,89.865,48.359,-89.797,
8804168.000,-48.358,-4.413,94.262,89.865,48.359,-89.797,
8804170.000,-48.358,-4.413,94.262,89.865,48.359,-89.797,
8804173.000,-48.358,-4.413,94.262,89.865,48.359,-89.797,
8804176.000,-48.358,-4.413,94.262,89.865,48.359,-89.797,
8804178.000,-48.358,-4.413,94.262,89.865,48.359,-89.797,
8804179.000,-48.358,-4.413,94.262,89.865,48.359,-89.797,
8804196.000,-48.358,-4.413,94.262,89.865,48.359,-89.797,
8804197.000,-48.358,-4.413,94.262,89.865,48.359,-89.797,
8804198.000,-48.358,-4.413,94.262,89.865,48.359,-89.797,
8804199.000,-48.358,-4.413,94.262,89.865,48.359,-89.797,
8804200.000,-48.358,-4.413,94.262,89.865,48.359,-89.797,
8804201.000,-48.358,-4.413,94.262,89.865,48.359,-89.797,
8804212.000,-48.358,-4.413,94.262,89.865,48.359,-89.797,
8804214.000,-48.358,-4.413,94.262,89.865,48.359,-89.797,
8804216.000,-48.358,-4.413,94.262,89.865,48.359,-89.797,
8804218.000,-48.358,-4.413,94.262,89.865,48.359,-89.797,
8804220.000,-48.358,-4.413,94.262,89.865,48.359,-89.797,
8804222.000,-48.358,-4.413,94.262,89.865,48.359,-89.797,
8804224.000,-48.358,-4.413,94.262,89.865,48.359,-89.797,
8804228.000,-48.358,-4.413,94.262,89.865,48.359,-89.797,
8804229.000,-48.358,-4.413,94.262,89.865,48.359,-89.797,
8804230.000,-48.358,-4.413,94.262,89.865,48.359,-89.797,
8804231.000,-48.358,-4.413,94.262,89.865,48.359,-89.797,
8804232.000,-48.358,-4.413,94.262,89.865,48.359,-89.797,
8804233.000,-48.358,-4.413,94.262,89.865,48.359,-89.797,
8804243.000,-48.358,-4.413,94.262,89.865,48.359,-89.797,
8804245.000,-48.358,-4.413,94.262,89.865,48.359,-89.797,
8804247.000,-48.358,-4.413,94.262,89.865,48.359,-89.797,
8804249.000,-48.358,-4.413,94.262,89.865,48.359,-89.797,
8804251.000,-48.358,-4.413,94.262,89.865,48.359,-89.797,
8804253.000,-48.358,-4.413,94.262,89.865,48.359,-89.797,
8804255.000,-48.358,-4.413,94.262,89.865,48.359,-89.797,
8804258.000,-48.358,-4.413,94.262,89.865,48.359,-89.797,
8804260.000,-48.358,-4.413,94.262,89.865,48.359,-89.797,
8804262.000,-48.358,-4.413,94.262,89.865,48.359,-89.797,
8804264.000,-48.358,-4.413,94.262,89.865,48.359,-89.797,
8804267.000,-48.358,-4.413,94.262,89.865,48.359,-89.797,
8804269.000,-48.358,-4.413,94.262,89.865,48.359,-89.797,
8804270.000,-48.358,-4.413,94.262,89.865,48.359,-89.797,
8804274.000,-48.358,-4.413,94.262,89.865,48.359,-89.797,
8804276.000,-48.358,-4.413,94.262,89.865,48.359,-89.797,
8804277.000,-48.358,-4.413,94.262,89.865,48.359,-89.797,
8804279.000,-48.358,-4.413,94.262,89.865,48.359,-89.797,
8804281.000,-48.358,-4.413,94.262,89.865,48.359,-89.797,
8804283.000,-48.358,-4.413,94.262,89.865,48.359,-89.797,
8804285.000,-48.358,-4.413,94.262,89.865,48.359,-89.797,
8804290.000,-48.358,-4.413,94.262,89.865,48.359,-89.797,
8804292.000,-48.358,-4.413,94.262,89.865,48.359,-89.797,
8804294.000,-48.358,-4.413,94.262,89.865,48.359,-89.797,
8804296.000,-48.358,-4.413,94.262,89.865,48.359,-89.797,
8804298.000,-48.358,-4.413,94.262,89.865,48.359,-89.797,
8804300.000,-48.358,-4.413,94.262,89.865,48.359,-89.797,
8804304.000,-48.358,-4.413,94.262,89.865,48.359,-89.797,
8804306.000,-48.358,-4.413,94.262,89.865,48.359,-89.797,
8804308.000,-48.358,-4.413,94.262,89.865,48.359,-89.797,
8804310.000,-48.358,-4.413,94.262,89.865,48.359,-89.797,
8804312.000,-48.358,-4.413,94.262,89.865,48.359,-89.797,
8804314.000,-48.358,-4.413,94.262,89.865,48.359,-89.797,
8804315.000,-48.358,-4.413,94.262,89.865,48.359,-89.797,
8804319.000,-48.358,-4.413,94.262,89.865,48.359,-89.797,
8804320.000,-48.358,-4.413,94.262,89.865,48.359,-89.797,
8804322.000,-48.358,-4.413,94.262,89.865,48.359,-89.797,
8804325.000,-48.358,-4.413,94.262,89.865,48.359,-89.797,
8804327.000,-48.358,-4.413,94.262,89.865,48.359,-89.797,
8804329.000,-48.358,-4.413,94.262,89.865,48.359,-89.797,
8804331.000,-48.358,-4.413,94.262,89.865,48.359,-89.797,
8804334.000,-48.358,-4.413,94.262,89.865,48.359,-89.797,
8804335.000,-48.358,-4.413,94.262,89.865,48.359,-89.797,
8804336.000,-48.358,-4.413,94.262,89.865,48.359,-89.797,
8804337.000,-48.358,-4.413,94.262,89.865,48.359,-89.797,
8804338.000,-48.358,-4.413,94.262,89.865,48.359,-89.797,
8804339.000,-48.358,-4.413,94.262,89.865,48.359,-89.797,
8804340.000,-48.358,-4.413,94.262,89.865,48.359,-89.797,
8804351.000,-48.358,-4.413,94.262,89.865,48.359,-89.797,
8804353.000,-48.358,-4.413,94.262,89.865,48.359,-89.797,
8804355.000,-48.358,-4.413,94.262,89.865,48.359,-89.797,
8804357.000,-48.358,-4.413,94.262,89.865,48.359,-89.797,
8804360.000,-48.358,-4.413,94.262,89.865,48.359,-89.797,
8804362.000,-48.358,-4.413,94.262,89.865,48.359,-89.797,
8804363.000,-48.358,-4.413,94.262,89.865,48.359,-89.797,
8804367.000,-48.358,-4.413,94.262,89.865,48.359,-89.797,
8804369.000,-48.358,-4.413,94.262,89.865,48.359,-89.797,
8804372.000,-48.358,-4.413,94.262,89.865,48.359,-89.797,
8804374.000,-48.358,-4.413,94.262,89.865,48.359,-89.797,
8804376.000,-48.358,-4.413,94.262,89.865,48.359,-89.797,
8804379.000,-48.358,-4.413,94.262,89.865,48.359,-89.797,
8804382.000,-48.358,-4.413,94.262,89.865,48.359,-89.797,
8804384.000,-48.358,-4.413,94.262,89.865,48.359,-89.797,
8804385.000,-48.358,-4.413,94.262,89.865,48.359,-89.797,
8804387.000,-48.358,-4.413,94.262,89.865,48.359,-89.797,
8804390.000,-48.358,-4.413,94.262,89.865,48.359,-89.797,
8804393.000,-48.358,-4.413,94.262,89.865,48.359,-89.797,
8804395.000,-48.358,-4.413,94.262,89.865,48.359,-89.797,
8804397.000,-48.358,-4.413,94.262,89.865,48.359,-89.797,
8804399.000,-48.358,-4.413,94.262,89.865,48.359,-89.797,
8804402.000,-48.358,-4.413,94.262,89.865,48.359,-89.797,
8804405.000,-48.358,-4.413,94.262,89.865,48.359,-89.797,
8804407.000,-48.358,-4.413,94.262,89.865,48.359,-89.797,
8804410.000,-48.358,-4.413,94.262,89.865,48.359,-89.797,
8804412.000,-48.358,-4.413,94.262,89.865,48.359,-89.797,
8804428.000,-48.358,-4.413,94.262,89.865,48.359,-89.797,
8804429.000,-48.358,-4.413,94.262,89.865,48.359,-89.797,
8804430.000,-48.358,-4.413,94.262,89.865,48.359,-89.797,
8804431.000,-48.358,-4.413,94.262,89.865,48.359,-89.797,
8804432.000,-48.358,-4.413,94.262,89.865,48.359,-89.797,
8804433.000,-48.358,-4.413,94.262,89.865,48.359,-89.797,
8804434.000,-48.358,-4.413,94.262,89.865,48.359,-89.797,
8804444.000,-48.358,-4.413,94.262,89.865,48.359,-89.797,
8804446.000,-48.358,-4.413,94.262,89.865,48.359,-89.797,
8804448.000,-48.358,-4.413,94.262,89.865,48.359,-89.797,
8804451.000,-48.358,-4.413,94.262,89.865,48.359,-89.797,
8804453.000,-48.358,-4.413,94.262,89.865,48.359,-89.797,
8804455.000,-48.358,-4.413,94.262,89.865,48.359,-89.797,
8804456.000,-48.358,-4.413,94.262,89.865,48.359,-89.797,
8804460.000,-48.358,-4.413,94.262,89.865,48.359,-89.797,
8804462.000,-48.358,-4.413,94.262,89.865,48.359,-89.797,
8804463.000,-48.358,-4.413,94.262,89.865,48.359,-89.797,
8804465.000,-48.358,-4.413,94.262,89.865,48.359,-89.797,
8804467.000,-48.358,-4.413,94.262,89.865,48.359,-89.797,
8804469.000,-48.358,-4.413,94.262,89.865,48.359,-89.797,
8804473.000,-48.357,-4.415,94.263,89.865,48.357,-89.797,
8804475.000,-48.357,-4.415,94.263,89.865,48.357,-89.797,
8804477.000,-48.357,-4.415,94.263,89.865,48.357,-89.797,
8804479.000,-48.357,-4.415,94.263,89.865,48.357,-89.797,
8804481.000,-48.357,-4.415,94.263,89.865,48.357,-89.797,
8804483.000,-48.357,-4.415,94.263,89.865,48.357,-89.797,
8804485.000,-48.357,-4.415,94.263,89.865,48.357,-89.797,
8804489.000,-48.355,-4.417,94.266,89.865,48.355,-89.797,
8804491.000,-48.355,-4.417,94.266,89.865,48.355,-89.797,
8804493.000,-48.355,-4.417,94.266,89.865,48.355,-89.797,
8804495.000,-48.355,-4.417,94.266,89.865,48.355,-89.797,
8804497.000,-48.355,-4.417,94.266,89.865,48.355,-89.797,
8804498.000,-48.355,-4.417,94.266,89.865,48.355,-89.797,
8804500.000,-48.355,-4.417,94.266,89.865,48.355,-89.797,
8804505.000,-48.352,-4.420,94.268,89.865,48.353,-89.797,
8804507.000,-48.352,-4.420,94.268,89.865,48.353,-89.797,
8804509.000,-48.352,-4.420,94.268,89.865,48.353,-89.797,
8804511.000,-48.352,-4.420,94.268,89.865,48.353,-89.797,
8804513.000,-48.352,-4.420,94.268,89.865,48.353,-89.797,
8804515.000,-48.352,-4.420,94.268,89.865,48.353,-89.797,
8804516.000,-48.352,-4.420,94.268,89.865,48.353,-89.797,
8804520.000,-48.349,-4.424,94.272,89.865,48.349,-89.796,
8804522.000,-48.349,-4.424,94.272,89.865,48.349,-89.796,
8804525.000,-48.349,-4.424,94.272,89.865,48.349,-89.796,
8804527.000,-48.349,-4.424,94.272,89.865,48.349,-89.796,
8804529.000,-48.349,-4.424,94.272,89.865,48.349,-89.796,
8804531.000,-48.349,-4.424,94.272,89.865,48.349,-89.796,
8804534.000,-48.343,-4.430,94.278,89.864,48.343,-89.796,
8804536.000,-48.343,-4.430,94.278,89.864,48.343,-89.796,
8804538.000,-48.343,-4.430,94.278,89.864,48.343,-89.796,
8804541.000,-48.343,-4.430,94.278,89.864,48.343,-89.796,
8804543.000,-48.343,-4.430,94.278,89.864,48.343,-89.796,
8804546.000,-48.343,-4.430,94.278,89.864,48.343,-89.796,
8804547.000,-48.343,-4.430,94.278,89.864,48.343,-89.796,
8804550.000,-48.336,-4.438,94.286,89.864,48.336,-89.795,
8804552.000,-48.336,-4.438,94.286,89.864,48.336,-89.795,
8804554.000,-48.336,-4.438,94.286,89.864,48.336,-89.795,
8804556.000,-48.336,-4.438,94.286,89.864,48.336,-89.795,
8804558.000,-48.336,-4.438,94.286,89.864,48.336,-89.795,
8804560.000,-48.336,-4.438,94.286,89.864,48.336,-89.795,
8804562.000,-48.336,-4.438,94.286,89.864,48.336,-89.795,
8804566.000,-48.325,-4.450,94.297,89.863,48.326,-89.794,
8804568.000,-48.325,-4.450,94.297,89.863,48.326,-89.794,
8804570.000,-48.325,-4.450,94.297,89.863,48.326,-89.794,
8804572.000,-48.325,-4.450,94.297,89.863,48.326,-89.794,
8804574.000,-48.325,-4.450,94.297,89.863,48.326,-89.794,
8804576.000,-48.325,-4.450,94.297,89.863,48.326,-89.794,
8804578.000,-48.325,-4.450,94.297,89.863,48.326,-89.794,
8804583.000,-48.311,-4.467,94.312,89.862,48.311,-89.792,
8804585.000,-48.311,-4.467,94.312,89.862,48.311,-89.792,
8804586.000,-48.311,-4.467,94.312,89.862,48.311,-89.792,
8804588.000,-48.311,-4.467,94.312,89.862,48.311,-89.792,
8804590.000,-48.311,-4.467,94.312,89.862,48.311,-89.792,
8804592.000,-48.311,-4.467,94.312,89.862,48.311,-89.792,
8804594.000,-48.311,-4.467,94.312,89.862,48.311,-89.792,
8804599.000,-48.289,-4.491,94.335,89.860,48.290,-89.790,
8804601.000,-48.289,-4.491,94.335,89.860,48.290,-89.790,
8804603.000,-48.289,-4.491,94.335,89.860,48.290,-89.790,
8804605.000,-48.289,-4.491,94.335,89.860,48.290,-89.790,
8804607.000,-48.289,-4.491,94.335,89.860,48.290,-89.790,
8804609.000,-48.289,-4.491,94.335,89.860,48.290,-89.790,
8804614.000,-48.260,-4.524,94.366,89.858,48.260,-89.787,
8804616.000,-48.260,-4.524,94.366,89.858,48.260,-89.787,
8804618.000,-48.260,-4.524,94.366,89.858,48.260,-89.787,
8804620.000,-48.260,-4.524,94.366,89.858,48.260,-89.787,
8804622.000,-48.260,-4.524,94.366,89.858,48.260,-89.787,
8804624.000,-48.260,-4.524,94.366,89.858,48.260,-89.787,
8804626.000,-48.260,-4.524,94.366,89.858,48.260,-89.787,
8804630.000,-48.218,-4.571,94.409,89.855,48.219,-89.782,
8804632.000,-48.218,-4.571,94.409,89.855,48.219,-89.782,
8804634.000,-48.218,-4.571,94.409,89.855,48.219,-89.782,
8804636.000,-48.218,-4.571,94.409,89.855,48.219,-89.782,
8804638.000,-48.218,-4.571,94.409,89.855,48.219,-89.782,
8804639.000,-48.218,-4.571,94.409,89.855,48.219,-89.782,
8804641.000,-48.218,-4.571,94.409,89.855,48.219,-89.782,
8804645.000,-48.165,-4.631,94.465,89.851,48.165,-89.776,
8804647.000,-48.165,-4.631,94.465,89.851,48.165,-89.776,
8804649.000,-48.165,-4.631,94.465,89.851,48.165,-89.776,
8804651.000,-48.165,-4.631,94.465,89.851,48.165,-89.776,
8804653.000,-48.165,-4.631,94.465,89.851,48.165,-89.776,
8804655.000,-48.165,-4.631,94.465,89.851,48.165,-89.776,
8804657.000,-48.165,-4.631,94.465,89.851,48.165,-89.776,
8804661.000,-48.091,-4.713,94.541,89.845,48.092,-89.768,
8804662.000,-48.091,-4.713,94.541,89.845,48.092,-89.768,
8804664.000,-48.091,-4.713,94.541,89.845,48.092,-89.768,
8804666.000,-48.091,-4.713,94.541,89.845,48.092,-89.768,
8804668.000,-48.091,-4.713,94.541,89.845,48.092,-89.768,
8804670.000,-48.091,-4.713,94.541,89.845,48.092,-89.768,
8804672.000,-48.091,-4.713,94.541,89.845,48.092,-89.768,
8804676.000,-47.992,-4.824,94.643,89.837,47.992,-89.757,
8804678.000,-47.992,-4.824,94.643,89.837,47.992,-89.757,
8804680.000,-47.992,-4.824,94.643,89.837,47.992,-89.757,
8804682.000,-47.992,-4.824,94.643,89.837,47.992,-89.757,
8804685.000,-47.992,-4.824,94.643,89.837,47.992,-89.757,
8804687.000,-47.992,-4.824,94.643,89.837,47.992,-89.757,
8804691.000,-47.847,-4.984,94.791,89.825,47.848,-89.740,
8804692.000,-47.847,-4.984,94.791,89.825,47.848,-89.740,
8804693.000,-47.847,-4.984,94.791,89.825,47.848,-89.740,
8804694.000,-47.847,-4.984,94.791,89.825,47.848,-89.740,
8804695.000,-47.847,-4.984,94.791,89.825,47.848,-89.740,
8804696.000,-47.847,-4.984,94.791,89.825,47.848,-89.740,
8804706.000,-47.847,-4.984,94.791,89.825,47.848,-89.740,
8804707.000,-47.664,-5.184,94.975,89.810,47.665,-89.718,
8804708.000,-47.664,-5.184,94.975,89.810,47.665,-89.718,
8804709.000,-47.664,-5.184,94.975,89.810,47.665,-89.718,
8804710.000,-47.664,-5.184,94.975,89.810,47.665,-89.718,
8804711.000,-47.664,-5.184,94.975,89.810,47.665,-89.718,
8804712.000,-47.664,-5.184,94.975,89.810,47.665,-89.718,
8804721.000,-47.423,-5.445,95.215,89.788,47.423,-89.687,
8804723.000,-47.423,-5.445,95.215,89.788,47.423,-89.687,
8804725.000,-47.423,-5.445,95.215,89.788,47.423,-89.687,
8804727.000,-47.423,-5.445,95.215,89.788,47.423,-89.687,
8804729.000,-47.423,-5.445,95.215,89.788,47.423,-89.687,
8804731.000,-47.423,-5.445,95.215,89.788,47.423,-89.687,
8804733.000,-47.423,-5.445,95.215,89.788,47.423,-89.687,
8804737.000,-47.108,-5.781,95.522,89.759,47.108,-89.646,
8804739.000,-47.108,-5.781,95.522,89.759,47.108,-89.646,
8804741.000,-47.108,-5.781,95.522,89.759,47.108,-89.646,
8804743.000,-47.108,-5.781,95.522,89.759,47.108,-89.646,
8804745.000,-47.108,-5.781,95.522,89.759,47.108,-89.646,
8804748.000,-47.108,-5.781,95.522,89.759,47.108,-89.646,
8804749.000,-47.108,-5.781,95.522,89.759,47.108,-89.646,
8804753.000,-46.673,-6.236,95.934,89.715,46.674,-89.585,
8804755.000,-46.673,-6.236,95.934,89.715,46.674,-89.585,
8804757.000,-46.673,-6.236,95.934,89.715,46.674,-89.585,
8804759.000,-46.673,-6.236,95.934,89.715,46.674,-89.585,
8804761.000,-46.673,-6.236,95.934,89.715,46.674,-89.585,
8804764.000,-46.673,-6.236,95.934,89.715,46.674,-89.585,
8804766.000,-46.673,-6.236,95.934,89.715,46.674,-89.585,
8804769.000,-46.118,-6.800,96.442,89.655,46.119,-89.502,
8804771.000,-46.118,-6.800,96.442,89.655,46.119,-89.502,
8804773.000,-46.118,-6.800,96.442,89.655,46.119,-89.502,
8804775.000,-46.118,-6.800,96.442,89.655,46.119,-89.502,
8804777.000,-46.118,-6.800,96.442,89.655,46.119,-89.502,
8804779.000,-46.118,-6.800,96.442,89.655,46.119,-89.502,
8804784.000,-45.427,-7.481,97.048,89.572,45.429,-89.391,
8804785.000,-45.427,-7.481,97.048,89.572,45.429,-89.391,
8804787.000,-45.427,-7.481,97.048,89.572,45.429,-89.391,
8804789.000,-45.427,-7.481,97.048,89.572,45.429,-89.391,
8804791.000,-45.427,-7.481,97.048,89.572,45.429,-89.391,
8804793.000,-45.427,-7.481,97.048,89.572,45.429,-89.391,
8804795.000,-45.427,-7.481,97.048,89.572,45.429,-89.391,
8804800.000,-44.586,-8.276,97.746,89.461,44.589,-89.244,
8804802.000,-44.586,-8.276,97.746,89.461,44.589,-89.244,
8804804.000,-44.586,-8.276,97.746,89.461,44.589,-89.244,
8804806.000,-44.586,-8.276,97.746,89.461,44.589,-89.244,
8804809.000,-44.586,-8.276,97.746,89.461,44.589,-89.244,
8804811.000,-44.586,-8.276,97.746,89.461,44.589,-89.244,
8804813.000,-44.586,-8.276,97.746,89.461,44.589,-89.244,
8804816.000,-43.590,-9.175,98.523,89.315,43.594,-89.054,
8804818.000,-43.590,-9.175,98.523,89.315,43.594,-89.054,
8804821.000,-43.590,-9.175,98.523,89.315,43.594,-89.054,
8804823.000,-43.590,-9.175,98.523,89.315,43.594,-89.054,
8804826.000,-43.590,-9.175,98.523,89.315,43.594,-89.054,
8804828.000,-43.590,-9.175,98.523,89.315,43.594,-89.054,
8804830.000,-43.590,-9.175,98.523,89.315,43.594,-89.054,
8804832.000,-42.436,-10.160,99.361,89.126,42.442,-88.816,
8804833.000,-42.436,-10.160,99.361,89.126,42.442,-88.816,
8804834.000,-42.436,-10.160,99.361,89.126,42.442,-88.816,
8804835.000,-42.436,-10.160,99.361,89.126,42.442,-88.816,
8804836.000,-42.436,-10.160,99.361,89.126,42.442,-88.816,
8804837.000,-42.436,-10.160,99.361,89.126,42.442,-88.816,
8804838.000,-42.436,-10.160,99.361,89.126,42.442,-88.816,
8804849.000,-41.127,-11.208,100.237,88.887,41.136,-88.523,
8804852.000,-41.127,-11.208,100.237,88.887,41.136,-88.523,
8804854.000,-41.127,-11.208,100.237,88.887,41.136,-88.523,
8804856.000,-41.127,-11.208,100.237,88.887,41.136,-88.523,
8804858.000,-41.127,-11.208,100.237,88.887,41.136,-88.523,
8804860.000,-41.127,-11.208,100.237,88.887,41.136,-88.523,
8804863.000,-39.764,-12.228,101.073,88.611,39.778,-88.193,
8804864.000,-39.764,-12.228,101.073,88.611,39.778,-88.193,
8804865.000,-39.764,-12.228,101.073,88.611,39.778,-88.193,
8804866.000,-39.764,-12.228,101.073,88.611,39.778,-88.193,
8804868.000,-39.764,-12.228,101.073,88.611,39.778,-88.193,
8804871.000,-39.764,-12.228,101.073,88.611,39.778,-88.193,
8804873.000,-39.764,-12.228,101.073,88.611,39.778,-88.193,
8804878.000,-38.275,-13.265,101.906,88.278,38.296,-87.806,
8804881.000,-38.275,-13.265,101.906,88.278,38.296,-87.806,
8804883.000,-38.275,-13.265,101.906,88.278,38.296,-87.806,
8804884.000,-38.275,-13.265,101.906,88.278,38.296,-87.806,
8804887.000,-38.275,-13.265,101.906,88.278,38.296,-87.806,
8804889.000,-38.275,-13.265,101.906,88.278,38.296,-87.806,
8804891.000,-38.275,-13.265,101.906,88.278,38.296,-87.806,
8804908.000,-34.944,-15.321,103.511,87.411,34.985,-86.841,
8804909.000,-34.944,-15.321,103.511,87.411,34.985,-86.841,
8804910.000,-34.944,-15.321,103.511,87.411,34.985,-86.841,
8804911.000,-34.944,-15.321,103.511,87.411,34.985,-86.841,
8804912.000,-34.944,-15.321,103.511,87.411,34.985,-86.841,
8804913.000,-34.944,-15.321,103.511,87.411,34.985,-86.841,
8804914.000,-34.944,-15.321,103.511,87.411,34.985,-86.841,
8804925.000,-32.986,-16.377,104.310,86.819,33.043,-86.207,
8804927.000,-32.986,-16.377,104.310,86.819,33.043,-86.207,
8804929.000,-32.986,-16.377,104.310,86.819,33.043,-86.207,
8804931.000,-32.986,-16.377,104.310,86.819,33.043,-86.207,
8804933.000,-32.986,-16.377,104.310,86.819,33.043,-86.207,
8804936.000,-32.986,-16.377,104.310,86.819,33.043,-86.207,
8804937.000,-32.986,-16.377,104.310,86.819,33.043,-86.207,
8804942.000,-30.908,-17.386,105.058,86.119,30.987,-85.475,
8804944.000,-30.908,-17.386,105.058,86.119,30.987,-85.475,
8804946.000,-30.908,-17.386,105.058,86.119,30.987,-85.475,
8804948.000,-30.908,-17.386,105.058,86.119,30.987,-85.475,
8804950.000,-30.908,-17.386,105.058,86.119,30.987,-85.475,
8804952.000,-30.908,-17.386,105.058,86.119,30.987,-85.475,
8804955.000,-28.856,-18.278,105.708,85.346,28.961,-84.685,
8804956.000,-28.856,-18.278,105.708,85.346,28.961,-84.685,
8804957.000,-28.856,-18.278,105.708,85.346,28.961,-84.685,
8804958.000,-28.856,-18.278,105.708,85.346,28.961,-84.685,
8804959.000,-28.856,-18.278,105.708,85.346,28.961,-84.685,
8804960.000,-28.856,-18.278,105.708,85.346,28.961,-84.685,
8804961.000,-28.856,-18.278,105.708,85.346,28.961,-84.685,
8804971.000,-26.562,-19.164,106.341,84.372,26.701,-83.705,
8804974.000,-26.562,-19.164,106.341,84.372,26.701,-83.705,
8804976.000,-26.562,-19.164,106.341,84.372,26.701,-83.705,
8804978.000,-26.562,-19.164,106.341,84.372,26.701,-83.705,
8804980.000,-26.562,-19.164,106.341,84.372,26.701,-83.705,
8804983.000,-26.562,-19.164,106.341,84.372,26.701,-83.705,
8804985.000,-26.562,-19.164,106.341,84.372,26.701,-83.705,
8805003.000,-21.829,-20.656,107.380,81.881,22.062,-81.249,
8805005.000,-21.829,-20.656,107.380,81.881,22.062,-81.249,
8805007.000,-21.829,-20.656,107.380,81.881,22.062,-81.249,
8805009.000,-21.829,-20.656,107.380,81.881,22.062,-81.249,
8805011.000,-21.829,-20.656,107.380,81.881,22.062,-81.249,
8805013.000,-21.829,-20.656,107.380,81.881,22.062,-81.249,
8805015.000,-21.829,-20.656,107.380,81.881,22.062,-81.249,
8805018.000,-19.251,-21.295,107.815,80.141,19.551,-79.551,
8805019.000,-19.251,-21.295,107.815,80.141,19.551,-79.551,
8805020.000,-19.251,-21.295,107.815,80.141,19.551,-79.551,
8805021.000,-19.251,-21.295,107.815,80.141,19.551,-79.551,
8805022.000,-19.251,-21.295,107.815,80.141,19.551,-79.551,
8805023.000,-19.251,-21.295,107.815,80.141,19.551,-79.551,
8805024.000,-19.251,-21.295,107.815,80.141,19.551,-79.551,
8805036.000,-16.591,-21.837,108.180,77.916,16.979,-77.383,
8805038.000,-16.591,-21.837,108.180,77.916,16.979,-77.383,
8805041.000,-16.591,-21.837,108.180,77.916,16.979,-77.383,
8805043.000,-16.591,-21.837,108.180,77.916,16.979,-77.383,
8805045.000,-16.591,-21.837,108.180,77.916,16.979,-77.383,
8805046.000,-16.591,-21.837,108.180,77.916,16.979,-77.383,
8805049.000,-14.033,-22.253,108.457,75.164,14.528,-74.696,
8805051.000,-14.033,-22.253,108.457,75.164,14.528,-74.696,
8805053.000,-14.033,-22.253,108.457,75.164,14.528,-74.696,
8805055.000,-14.033,-22.253,108.457,75.164,14.528,-74.696,
8805058.000,-14.033,-22.253,108.457,75.164,14.528,-74.696,
8805060.000,-14.033,-22.253,108.457,75.164,14.528,-74.696,
8805063.000,-14.033,-22.253,108.457,75.164,14.528,-74.696,
8805064.000,-11.422,-22.576,108.670,71.369,12.063,-70.978,
8805066.000,-11.422,-22.576,108.670,71.369,12.063,-70.978,
8805068.000,-11.422,-22.576,108.670,71.369,12.063,-70.978,
8805071.000,-11.422,-22.576,108.670,71.369,12.063,-70.978,
8805073.000,-11.422,-22.576,108.670,71.369,12.063,-70.978,
8805075.000,-11.422,-22.576,108.670,71.369,12.063,-70.978,
8805077.000,-11.422,-22.576,108.670,71.369,12.063,-70.978,
8805095.000,-6.083,-22.932,108.903,56.607,7.292,-56.393,
8805097.000,-6.083,-22.932,108.903,56.607,7.292,-56.393,
8805099.000,-6.083,-22.932,108.903,56.607,7.292,-56.393,
8805101.000,-6.083,-22.932,108.903,56.607,7.292,-56.393,
8805103.000,-6.083,-22.932,108.903,56.607,7.292,-56.393,
8805106.000,-6.083,-22.932,108.903,56.607,7.292,-56.393,
8805107.000,-6.083,-22.932,108.903,56.607,7.292,-56.393,
8805110.000,-3.378,-22.962,108.923,39.970,5.264,-39.851,
8805112.000,-3.378,-22.962,108.923,39.970,5.264,-39.851,
8805114.000,-3.378,-22.962,108.923,39.970,5.264,-39.851,
8805116.000,-3.378,-22.962,108.923,39.970,5.264,-39.851,
8805119.000,-3.378,-22.962,108.923,39.970,5.264,-39.851,
8805121.000,-3.378,-22.962,108.923,39.970,5.264,-39.851,
8805122.000,-3.378,-22.962,108.923,39.970,5.264,-39.851,
8805124.000,-0.668,-22.893,108.878,9.458,4.070,-9.434,
8805125.000,-0.668,-22.893,108.878,9.458,4.070,-9.434,
8805127.000,-0.668,-22.893,108.878,9.458,4.070,-9.434,
8805128.000,-0.668,-22.893,108.878,9.458,4.070,-9.434,
8805129.000,-0.668,-22.893,108.878,9.458,4.070,-9.434,
8805130.000,-0.668,-22.893,108.878,9.458,4.070,-9.434,
8805139.000,2.035,-22.726,108.768,-27.246,4.449,27.176,
8805141.000,2.035,-22.726,108.768,-27.246,4.449,27.176,
8805143.000,2.035,-22.726,108.768,-27.246,4.449,27.176,
8805145.000,2.035,-22.726,108.768,-27.246,4.449,27.176,
8805147.000,2.035,-22.726,108.768,-27.246,4.449,27.176,
8805150.000,2.035,-22.726,108.768,-27.246,4.449,27.176,
8805152.000,2.035,-22.726,108.768,-27.246,4.449,27.176,
8805155.000,4.897,-22.440,108.581,-51.850,6.232,51.684,
8805157.000,4.897,-22.440,108.581,-51.850,6.232,51.684,
8805159.000,4.897,-22.440,108.581,-51.850,6.232,51.684,
8805161.000,4.897,-22.440,108.581,-51.850,6.232,51.684,
8805164.000,4.897,-22.440,108.581,-51.850,6.232,51.684,
8805166.000,4.897,-22.440,108.581,-51.850,6.232,51.684,
8805168.000,4.897,-22.440,108.581,-51.850,6.232,51.684,
8805172.000,7.723,-22.047,108.320,-64.393,8.571,64.142,
8805174.000,7.723,-22.047,108.320,-64.393,8.571,64.142,
8805176.000,7.723,-22.047,108.320,-64.393,8.571,64.142,
8805178.000,7.723,-22.047,108.320,-64.393,8.571,64.142,
8805180.000,7.723,-22.047,108.320,-64.393,8.571,64.142,
8805183.000,7.723,-22.047,108.320,-64.393,8.571,64.142,
8805184.000,7.723,-22.047,108.320,-64.393,8.571,64.142,
8805187.000,10.328,-21.584,108.010,-71.118,10.922,70.795,
8805189.000,10.328,-21.584,108.010,-71.118,10.922,70.795,
8805191.000,10.328,-21.584,108.010,-71.118,10.922,70.795,
8805194.000,10.328,-21.584,108.010,-71.118,10.922,70.795,
8805195.000,10.328,-21.584,108.010,-71.118,10.922,70.795,
8805199.000,10.328,-21.584,108.010,-71.118,10.922,70.795,
8805200.000,10.328,-21.584,108.010,-71.118,10.922,70.795,
8805203.000,13.046,-20.993,107.610,-75.714,13.470,75.327,
8805206.000,13.046,-20.993,107.610,-75.714,13.470,75.327,
8805208.000,13.046,-20.993,107.610,-75.714,13.470,75.327,
8805210.000,13.046,-20.993,107.610,-75.714,13.470,75.327,
8805212.000,13.046,-20.993,107.610,-75.714,13.470,75.327,
8805214.000,13.046,-20.993,107.610,-75.714,13.470,75.327,
8805232.000,17.937,-19.637,106.674,-80.926,18.173,80.458,
8805234.000,17.937,-19.637,106.674,-80.926,18.173,80.458,
8805237.000,17.937,-19.637,106.674,-80.926,18.173,80.458,
8805239.000,17.937,-19.637,106.674,-80.926,18.173,80.458,
8805241.000,17.937,-19.637,106.674,-80.926,18.173,80.458,
8805243.000,17.937,-19.637,106.674,-80.926,18.173,80.458,
8805245.000,17.937,-19.637,106.674,-80.926,18.173,80.458,
8805262.000,22.509,-17.996,105.503,-84.009,22.640,83.513,
8805265.000,22.509,-17.996,105.503,-84.009,22.640,83.513,
8805267.000,22.509,-17.996,105.503,-84.009,22.640,83.513,
8805270.000,22.509,-17.996,105.503,-84.009,22.640,83.513,
8805272.000,22.509,-17.996,105.503,-84.009,22.640,83.513,
8805275.000,22.509,-17.996,105.503,-84.009,22.640,83.513,
8805277.000,24.658,-17.085,104.837,-85.115,24.754,84.624,
8805293.000,26.841,-16.061,104.073,-86.077,26.909,85.602,
8805295.000,27.105,-15.930,103.974,-86.184,27.170,85.712,
8805297.000,27.368,-15.798,103.874,-86.288,27.430,85.820,
8805300.000,27.758,-15.599,103.722,-86.440,27.817,85.976,
8805302.000,28.016,-15.465,103.621,-86.538,28.072,86.078,
8805304.000,28.272,-15.331,103.518,-86.633,28.325,86.177,
8805306.000,28.526,-15.197,103.415,-86.726,28.577,86.274,
8805309.000,28.903,-14.994,103.260,-86.862,28.950,86.415,
8805311.000,29.152,-14.858,103.155,-86.949,29.197,86.506,
8805313.000,29.399,-14.722,103.050,-87.035,29.442,86.596,
8805315.000,29.644,-14.586,102.944,-87.118,29.685,86.683,
8805317.000,29.886,-14.449,102.837,-87.199,29.926,86.769,
8805319.000,30.127,-14.311,102.731,-87.278,30.165,86.852,
8805321.000,30.366,-14.174,102.623,-87.355,30.402,86.934,
8805325.000,30.837,-13.898,102.407,-87.503,30.869,87.092,
8805327.000,31.069,-13.760,102.298,-87.575,31.100,87.168,
8805329.000,31.299,-13.622,102.189,-87.645,31.329,87.243,
8805331.000,31.527,-13.483,102.079,-87.712,31.555,87.316,
8805332.000,31.641,-13.414,102.024,-87.746,31.668,87.352,
8805333.000,31.753,-13.345,101.969,-87.779,31.780,87.387,
8805335.000,31.977,-13.206,101.859,-87.843,32.002,87.457,
8805337.000,32.198,-13.068,101.749,-87.906,32.222,87.525,
8805339.000,32.417,-12.929,101.638,-87.967,32.440,87.592,
8805341.000,32.634,-12.791,101.527,-88.027,32.656,87.657,
8805343.000,32.849,-12.652,101.415,-88.085,32.870,87.720,
8805345.000,33.061,-12.514,101.304,-88.141,33.081,87.782,
8805347.000,33.271,-12.376,101.193,-88.196,33.290,87.843,
8805348.000,33.376,-12.307,101.137,-88.223,33.394,87.872,
8805351.000,33.685,-12.101,100.969,-88.302,33.701,87.959,
8805353.000,33.888,-11.964,100.858,-88.353,33.903,88.016,
8805355.000,34.088,-11.827,100.746,-88.402,34.103,88.071,
8805357.000,34.286,-11.691,100.634,-88.450,34.301,88.124,
8805358.000,34.286,-11.691,100.634,-88.450,34.301,88.124,
8805361.000,34.676,-11.420,100.412,-88.542,34.688,88.227,
8805363.000,34.867,-11.285,100.300,-88.586,34.879,88.277,
8805365.000,35.055,-11.151,100.190,-88.629,35.066,88.326,
8805367.000,35.241,-11.018,100.079,-88.671,35.252,88.373,
8805368.000,35.333,-10.951,100.024,-88.691,35.344,88.396,
8805369.000,35.333,-10.951,100.024,-88.691,35.344,88.396,
8805372.000,35.695,-10.687,99.804,-88.770,35.704,88.485,
8805374.000,35.872,-10.556,99.694,-88.808,35.881,88.529,
8805376.000,36.047,-10.426,99.585,-88.844,36.055,88.570,
8805378.000,36.219,-10.297,99.477,-88.880,36.227,88.611,
8805379.000,36.304,-10.233,99.423,-88.897,36.312,88.631,
8805380.000,36.388,-10.169,99.369,-88.914,36.396,88.651,
8805381.000,36.388,-10.169,99.369,-88.914,36.396,88.651,
8805384.000,36.719,-9.916,99.155,-88.980,36.726,88.727,
8805387.000,36.881,-9.791,99.049,-89.011,36.887,88.763,
8805388.000,37.040,-9.667,98.944,-89.041,37.046,88.799,
8805389.000,37.119,-9.606,98.891,-89.056,37.125,88.816,
8805390.000,37.197,-9.544,98.839,-89.071,37.202,88.833,
8805391.000,37.197,-9.544,98.839,-89.071,37.202,88.833,
8805395.000,37.576,-9.243,98.582,-89.140,37.581,88.915,
8805397.000,37.723,-9.125,98.480,-89.166,37.728,88.946,
8805399.000,37.868,-9.008,98.380,-89.192,37.872,88.976,
8805400.000,37.939,-8.950,98.330,-89.204,37.943,88.991,
8805401.000,37.939,-8.950,98.330,-89.204,37.943,88.991,
8805403.000,38.148,-8.779,98.182,-89.240,38.152,89.034,
8805406.000,38.352,-8.610,98.036,-89.274,38.356,89.074,
8805408.000,38.485,-8.500,97.941,-89.296,38.488,89.100,
8805410.000,38.614,-8.391,97.846,-89.317,38.618,89.126,
8805411.000,38.678,-8.338,97.799,-89.327,38.682,89.138,
8805412.000,38.742,-8.284,97.753,-89.337,38.745,89.150,
8805414.000,38.866,-8.179,97.661,-89.357,38.869,89.174,
8805417.000,39.048,-8.024,97.525,-89.385,39.051,89.208,
8805419.000,39.166,-7.922,97.436,-89.403,39.168,89.230,
8805421.000,39.281,-7.823,97.349,-89.420,39.283,89.251,
8805422.000,39.338,-7.774,97.306,-89.428,39.340,89.261,
8805423.000,39.338,-7.774,97.306,-89.428,39.340,89.261,
8805425.000,39.504,-7.629,97.178,-89.453,39.506,89.291,
8805427.000,39.611,-7.535,97.095,-89.468,39.613,89.310,
8805431.000,39.819,-7.351,96.933,-89.497,39.821,89.346,
8805432.000,39.869,-7.307,96.893,-89.504,39.871,89.354,
8805433.000,39.869,-7.307,96.893,-89.504,39.871,89.354,
8805435.000,40.016,-7.175,96.776,-89.524,40.018,89.379,
8805437.000,40.111,-7.090,96.701,-89.537,40.113,89.395,
8805439.000,40.204,-7.007,96.626,-89.549,40.205,89.410,
8805441.000,40.382,-6.845,96.482,-89.573,40.383,89.439,
8805443.000,40.382,-6.845,96.482,-89.573,40.383,89.439,
8805444.000,40.425,-6.806,96.447,-89.578,40.426,89.446,
8805446.000,40.509,-6.729,96.378,-89.589,40.510,89.459,
8805448.000,40.591,-6.654,96.311,-89.599,40.592,89.472,
8805450.000,40.670,-6.580,96.245,-89.609,40.671,89.485,
8805453.000,40.785,-6.474,96.149,-89.623,40.787,89.502,
8805456.000,40.896,-6.371,96.056,-89.636,40.897,89.519,
8805457.000,40.896,-6.371,96.056,-89.636,40.897,89.519,
8805459.000,41.001,-6.272,95.967,-89.649,41.002,89.535,
8805461.000,41.069,-6.209,95.910,-89.657,41.070,89.545,
8805463.000,41.135,-6.147,95.854,-89.664,41.135,89.554,
8805465.000,41.198,-6.087,95.799,-89.671,41.199,89.564,
8805468.000,41.290,-5.999,95.720,-89.682,41.291,89.577,
8805471.000,41.378,-5.916,95.645,-89.692,41.378,89.589,
8805473.000,41.434,-5.862,95.596,-89.698,41.434,89.597,
8805475.000,41.488,-5.810,95.549,-89.704,41.489,89.604,
8805477.000,41.540,-5.760,95.503,-89.709,41.541,89.612,
8805480.000,41.616,-5.687,95.437,-89.717,41.617,89.622,
8805482.000,41.664,-5.641,95.394,-89.722,41.665,89.628,
8805486.000,41.756,-5.552,95.313,-89.732,41.756,89.641,
8805488.000,41.799,-5.509,95.274,-89.736,41.800,89.646,
8805490.000,41.841,-5.468,95.236,-89.741,41.842,89.652,
8805491.000,41.862,-5.448,95.218,-89.743,41.862,89.655,
8805493.000,41.902,-5.409,95.182,-89.747,41.902,89.660,
8805496.000,41.959,-5.353,95.131,-89.752,41.959,89.667,
8805498.000,41.995,-5.317,95.098,-89.756,41.996,89.672,
8805501.000,42.048,-5.266,95.051,-89.761,42.048,89.678,
8805503.000,42.081,-5.233,95.021,-89.764,42.081,89.683,
8805505.000,42.113,-5.201,94.992,-89.767,42.113,89.687,
8805508.000,42.159,-5.156,94.950,-89.772,42.159,89.692,
8805510.000,42.188,-5.127,94.923,-89.775,42.189,89.696,
8805512.000,42.202,-5.113,94.910,-89.776,42.203,89.698,
8805514.000,42.243,-5.072,94.873,-89.780,42.244,89.703,
8805516.000,42.270,-5.046,94.849,-89.782,42.270,89.706,
8805519.000,42.307,-5.009,94.814,-89.786,42.307,89.710,
8805521.000,42.331,-4.985,94.793,-89.788,42.331,89.713,
8805523.000,42.364,-4.951,94.761,-89.791,42.365,89.717,
8805525.000,42.375,-4.941,94.751,-89.792,42.376,89.719,
8805526.000,42.386,-4.930,94.741,-89.793,42.386,89.720,
8805529.000,42.407,-4.909,94.722,-89.795,42.407,89.722,
8805531.000,42.436,-4.879,94.695,-89.798,42.437,89.726,
8805533.000,42.455,-4.861,94.677,-89.799,42.455,89.728,
8805536.000,42.482,-4.834,94.653,-89.802,42.482,89.731,
8805539.000,42.507,-4.808,94.629,-89.804,42.507,89.734,
8805540.000,42.515,-4.800,94.622,-89.805,42.515,89.735,
8805541.000,42.523,-4.792,94.614,-89.805,42.523,89.736,
8805543.000,42.538,-4.777,94.600,-89.807,42.539,89.738,
8805546.000,42.560,-4.755,94.579,-89.809,42.561,89.740,
8805548.000,42.574,-4.741,94.566,-89.810,42.574,89.742,
8805550.000,42.587,-4.727,94.554,-89.811,42.588,89.743,
8805552.000,42.600,-4.714,94.542,-89.812,42.601,89.745,
8805553.000,42.606,-4.708,94.536,-89.813,42.607,89.746,
8805554.000,42.613,-4.702,94.530,-89.813,42.613,89.746,
8805558.000,42.636,-4.678,94.508,-89.815,42.636,89.749,
8805560.000,42.647,-4.667,94.498,-89.816,42.647,89.750,
8805562.000,42.662,-4.651,94.484,-89.817,42.662,89.752,
8805563.000,42.662,-4.651,94.484,-89.817,42.662,89.752,
8805564.000,42.667,-4.646,94.479,-89.818,42.667,89.752,
8805565.000,42.667,-4.646,94.479,-89.818,42.667,89.752,
8805567.000,42.681,-4.632,94.466,-89.819,42.682,89.754,
8805570.000,42.695,-4.618,94.453,-89.820,42.695,89.756,
8805572.000,42.703,-4.610,94.445,-89.821,42.703,89.757,
8805574.000,42.711,-4.601,94.437,-89.822,42.712,89.757,
8805576.000,42.719,-4.593,94.430,-89.822,42.719,89.758,
8805577.000,42.723,-4.590,94.426,-89.823,42.723,89.759,
8805578.000,42.727,-4.586,94.423,-89.823,42.727,89.759,
8805581.000,42.737,-4.575,94.413,-89.824,42.738,89.760,
8805583.000,42.744,-4.568,94.406,-89.824,42.744,89.761,
8805585.000,42.751,-4.561,94.400,-89.825,42.751,89.762,
8805586.000,42.754,-4.558,94.397,-89.825,42.754,89.762,
8805587.000,42.757,-4.555,94.394,-89.825,42.757,89.762,
8805588.000,42.760,-4.552,94.391,-89.826,42.760,89.763,
8805590.000,42.766,-4.546,94.386,-89.826,42.766,89.763,
8805592.000,42.771,-4.540,94.381,-89.827,42.771,89.764,
8805594.000,42.777,-4.535,94.375,-89.827,42.777,89.765,
8805596.000,42.782,-4.530,94.371,-89.828,42.782,89.765,
8805598.000,42.787,-4.525,94.366,-89.828,42.787,89.766,
8805599.000,42.789,-4.522,94.364,-89.828,42.789,89.766,
8805600.000,42.791,-4.520,94.361,-89.828,42.792,89.766,
8805603.000,42.798,-4.513,94.355,-89.829,42.798,89.767,
8805605.000,42.802,-4.509,94.351,-89.829,42.803,89.768,
8805607.000,42.806,-4.504,94.347,-89.830,42.807,89.768,
8805609.000,42.810,-4.500,94.343,-89.830,42.811,89.768,
8805612.000,42.816,-4.495,94.338,-89.830,42.816,89.769,
8805613.000,42.818,-4.493,94.336,-89.831,42.818,89.769,
8805615.000,42.821,-4.489,94.333,-89.831,42.821,89.770,
8805617.000,42.824,-4.486,94.330,-89.831,42.825,89.770,
8805619.000,42.826,-4.484,94.329,-89.831,42.826,89.770,
8805621.000,42.831,-4.480,94.324,-89.832,42.831,89.771,
8805623.000,42.833,-4.477,94.321,-89.832,42.834,89.771,
8805625.000,42.836,-4.474,94.319,-89.832,42.836,89.771,
8805626.000,42.838,-4.473,94.317,-89.832,42.838,89.771,
8805628.000,42.840,-4.470,94.315,-89.832,42.840,89.772,
8805630.000,42.843,-4.467,94.313,-89.833,42.843,89.772,
8805632.000,42.845,-4.465,94.310,-89.833,42.845,89.772,
8805634.000,42.847,-4.463,94.308,-89.833,42.848,89.772,
8805637.000,42.851,-4.459,94.305,-89.833,42.851,89.773,
8805638.000,42.852,-4.458,94.304,-89.833,42.852,89.773,
8805640.000,42.854,-4.456,94.302,-89.834,42.854,89.773,
8805642.000,42.856,-4.454,94.300,-89.834,42.856,89.773,
8805644.000,42.857,-4.452,94.299,-89.834,42.858,89.774,
8805646.000,42.859,-4.450,94.297,-89.834,42.859,89.774,
8805648.000,42.861,-4.449,94.295,-89.834,42.861,89.774,
8805650.000,42.863,-4.447,94.294,-89.834,42.863,89.774,
8805652.000,42.864,-4.445,94.292,-89.834,42.864,89.774,
8805654.000,42.866,-4.444,94.291,-89.835,42.866,89.774,
8805656.000,42.867,-4.442,94.289,-89.835,42.867,89.775,
8805658.000,42.868,-4.441,94.288,-89.835,42.869,89.775,
8805660.000,42.870,-4.440,94.287,-89.835,42.870,89.775,
8805661.000,42.870,-4.439,94.286,-89.835,42.871,89.775,
8805662.000,42.870,-4.439,94.286,-89.835,42.871,89.775,
8805665.000,42.873,-4.437,94.284,-89.835,42.873,89.775,
8805667.000,42.874,-4.435,94.283,-89.835,42.874,89.775,
8805669.000,42.875,-4.434,94.282,-89.835,42.875,89.775,
8805671.000,42.876,-4.433,94.281,-89.835,42.876,89.776,
8805672.000,42.876,-4.433,94.280,-89.835,42.877,89.776,
8805673.000,42.877,-4.432,94.280,-89.835,42.877,89.776,
8805674.000,42.877,-4.432,94.280,-89.835,42.877,89.776,
8805677.000,42.879,-4.430,94.278,-89.836,42.879,89.776,
8805679.000,42.880,-4.429,94.277,-89.836,42.880,89.776,
8805682.000,42.881,-4.428,94.276,-89.836,42.881,89.776,
8805683.000,42.881,-4.428,94.276,-89.836,42.882,89.776,
8805684.000,42.881,-4.428,94.276,-89.836,42.882,89.776,
8805687.000,42.883,-4.426,94.274,-89.836,42.883,89.776,
8805689.000,42.884,-4.425,94.274,-89.836,42.884,89.776,
8805691.000,42.884,-4.425,94.273,-89.836,42.884,89.776,
8805692.000,42.885,-4.424,94.273,-89.836,42.885,89.776,
8805693.000,42.885,-4.424,94.272,-89.836,42.885,89.776,
8805694.000,42.885,-4.424,94.272,-89.836,42.885,89.776,
8805695.000,42.885,-4.423,94.272,-89.836,42.886,89.777,
8805700.000,42.887,-4.422,94.270,-89.836,42.887,89.777,
8805702.000,42.887,-4.421,94.270,-89.836,42.888,89.777,
8805703.000,42.888,-4.421,94.270,-89.836,42.888,89.777,
8805704.000,42.888,-4.421,94.270,-89.836,42.888,89.777,
8805706.000,42.888,-4.420,94.269,-89.836,42.889,89.777,
8805708.000,42.889,-4.420,94.268,-89.836,42.889,89.777,
8805711.000,42.890,-4.419,94.268,-89.836,42.890,89.777,
8805713.000,42.890,-4.419,94.267,-89.836,42.890,89.777,
8805714.000,42.890,-4.419,94.267,-89.836,42.890,89.777,
8805716.000,42.891,-4.418,94.267,-89.837,42.891,89.777,
8805718.000,42.891,-4.418,94.266,-89.837,42.891,89.777,
8805720.000,42.891,-4.417,94.266,-89.837,42.892,89.777,
8805723.000,42.892,-4.417,94.266,-89.837,42.892,89.777,
8805724.000,42.892,-4.417,94.265,-89.837,42.892,89.777,
8805725.000,42.892,-4.417,94.265,-89.837,42.892,89.777,
8805726.000,42.892,-4.416,94.265,-89.837,42.893,89.777,
8805729.000,42.893,-4.416,94.265,-89.837,42.893,89.777,
8805731.000,42.893,-4.416,94.264,-89.837,42.893,89.777,
8805733.000,42.893,-4.415,94.264,-89.837,42.894,89.777,
8805735.000,42.894,-4.415,94.264,-89.837,42.894,89.777,
8805736.000,42.894,-4.415,94.264,-89.837,42.894,89.777,
8805737.000,42.894,-4.415,94.264,-89.837,42.894,89.777,
8805738.000,42.894,-4.415,94.264,-89.837,42.894,89.777,
8805740.000,42.894,-4.415,94.263,-89.837,42.894,89.777,
8805742.000,42.894,-4.414,94.263,-89.837,42.895,89.777,
8805745.000,42.895,-4.414,94.263,-89.837,42.895,89.778,
8805746.000,42.895,-4.414,94.263,-89.837,42.895,89.778,
8805747.000,42.895,-4.414,94.263,-89.837,42.895,89.778,
8805748.000,42.895,-4.414,94.263,-89.837,42.895,89.778,
8805749.000,42.895,-4.414,94.262,-89.837,42.895,89.778,
8805751.000,42.895,-4.413,94.262,-89.837,42.896,89.778,
8805756.000,42.896,-4.413,94.262,-89.837,42.896,89.778,
8805757.000,42.896,-4.413,94.262,-89.837,42.896,89.778,
8805758.000,42.896,-4.413,94.262,-89.837,42.896,89.778,
8805760.000,42.895,-4.413,94.262,-89.837,42.896,89.778,
8805762.000,42.895,-4.413,94.262,-89.837,42.896,89.778,
8805764.000,42.895,-4.414,94.262,-89.837,42.895,89.778,
8805767.000,42.895,-4.414,94.263,-89.837,42.895,89.778,
8805768.000,42.895,-4.414,94.263,-89.837,42.895,89.778,
8805769.000,42.895,-4.414,94.263,-89.837,42.895,89.778,
8805771.000,42.894,-4.414,94.263,-89.837,42.895,89.777,
8805773.000,42.894,-4.415,94.263,-89.837,42.894,89.777,
8805775.000,42.894,-4.415,94.264,-89.837,42.894,89.777,
8805777.000,42.894,-4.415,94.264,-89.837,42.894,89.777,
8805780.000,42.893,-4.415,94.264,-89.837,42.894,89.777,
8805781.000,42.893,-4.416,94.264,-89.837,42.893,89.777,
8805783.000,42.893,-4.416,94.265,-89.837,42.893,89.777,
8805785.000,42.893,-4.416,94.265,-89.837,42.893,89.777,
8805788.000,42.892,-4.417,94.265,-89.837,42.892,89.777,
8805790.000,42.892,-4.417,94.266,-89.837,42.892,89.777,
8805793.000,42.891,-4.417,94.266,-89.837,42.892,89.777,
8805794.000,42.891,-4.417,94.266,-89.837,42.892,89.777,
8805796.000,42.891,-4.418,94.267,-89.837,42.891,89.777,
8805798.000,42.890,-4.418,94.267,-89.837,42.891,89.777,
8805800.000,42.890,-4.419,94.267,-89.836,42.890,89.777,
8805803.000,42.889,-4.419,94.268,-89.836,42.890,89.777,
8805807.000,42.889,-4.420,94.269,-89.836,42.889,89.777,
8805808.000,42.888,-4.420,94.269,-89.836,42.889,89.777,
8805810.000,42.888,-4.421,94.270,-89.836,42.888,89.777,
8805813.000,42.887,-4.422,94.270,-89.836,42.887,89.777,
8805815.000,42.886,-4.423,94.271,-89.836,42.887,89.777,
8805818.000,42.886,-4.423,94.272,-89.836,42.886,89.777,
8805820.000,42.885,-4.424,94.272,-89.836,42.885,89.776,
8805824.000,42.884,-4.425,94.274,-89.836,42.884,89.776,
8805827.000,42.883,-4.426,94.275,-89.836,42.883,89.776,
8805829.000,42.882,-4.427,94.275,-89.836,42.882,89.776,
8805831.000,42.881,-4.428,94.276,-89.836,42.881,89.776,
8805833.000,42.880,-4.429,94.277,-89.836,42.880,89.776,
8805835.000,42.879,-4.430,94.278,-89.836,42.880,89.776,
8805837.000,42.878,-4.431,94.279,-89.836,42.878,89.776,
8805842.000,42.876,-4.433,94.281,-89.835,42.876,89.776,
8805844.000,42.875,-4.434,94.282,-89.835,42.875,89.775,
8805846.000,42.874,-4.435,94.283,-89.835,42.874,89.775,
8805848.000,42.873,-4.436,94.284,-89.835,42.873,89.775,
8805850.000,42.872,-4.438,94.285,-89.835,42.872,89.775,
8805852.000,42.870,-4.439,94.286,-89.835,42.871,89.775,
8805855.000,42.868,-4.441,94.288,-89.835,42.869,89.775,
8805857.000,42.867,-4.442,94.289,-89.835,42.867,89.775,
8805859.000,42.866,-4.444,94.291,-89.835,42.866,89.774,
8805861.000,42.864,-4.445,94.292,-89.834,42.864,89.774,
8805863.000,42.863,-4.447,94.294,-89.834,42.863,89.774,
8805865.000,42.861,-4.449,94.295,-89.834,42.861,89.774,
8805867.000,42.859,-4.450,94.297,-89.834,42.860,89.774,
8805870.000,42.857,-4.453,94.299,-89.834,42.857,89.773,
8805872.000,42.855,-4.455,94.301,-89.834,42.855,89.773,
8805874.000,42.853,-4.457,94.303,-89.833,42.853,89.773,
8805877.000,42.850,-4.460,94.306,-89.833,42.850,89.773,
8805879.000,42.847,-4.462,94.308,-89.833,42.848,89.772,
8805881.000,42.845,-4.465,94.310,-89.833,42.845,89.772,
8805883.000,42.843,-4.467,94.312,-89.833,42.843,89.772,
8805885.000,42.840,-4.470,94.315,-89.832,42.841,89.772,
8805887.000,42.838,-4.472,94.317,-89.832,42.838,89.771,
8805889.000,42.835,-4.475,94.320,-89.832,42.835,89.771,
8805891.000,42.831,-4.480,94.324,-89.832,42.831,89.771,
8805894.000,42.828,-4.483,94.327,-89.831,42.828,89.770,
8805896.000,42.825,-4.486,94.330,-89.831,42.825,89.770,
8805898.000,42.821,-4.489,94.333,-89.831,42.822,89.770,
8805899.000,42.820,-4.491,94.335,-89.831,42.820,89.769,
8805902.000,42.814,-4.496,94.340,-89.830,42.815,89.769,
8805904.000,42.811,-4.500,94.343,-89.830,42.811,89.768,
8805906.000,42.807,-4.504,94.347,-89.830,42.807,89.768,
8805909.000,42.801,-4.510,94.353,-89.829,42.801,89.767,
8805911.000,42.796,-4.515,94.357,-89.829,42.796,89.767,
8805913.000,42.792,-4.519,94.361,-89.828,42.792,89.766,
8805915.000,42.789,-4.522,94.363,-89.828,42.790,89.766,
8805917.000,42.782,-4.529,94.370,-89.828,42.782,89.765,
8805919.000,42.777,-4.535,94.375,-89.827,42.777,89.765,
8805921.000,42.772,-4.540,94.380,-89.827,42.772,89.764,
8805924.000,42.763,-4.549,94.388,-89.826,42.763,89.763,
8805926.000,42.757,-4.555,94.394,-89.826,42.757,89.763,
8805928.000,42.751,-4.561,94.400,-89.825,42.751,89.762,
8805930.000,42.745,-4.568,94.406,-89.824,42.745,89.761,
8805932.000,42.738,-4.574,94.412,-89.824,42.738,89.760,
8805935.000,42.727,-4.585,94.422,-89.823,42.727,89.759,
8805937.000,42.720,-4.593,94.429,-89.822,42.720,89.758,
8805939.000,42.712,-4.601,94.437,-89.822,42.712,89.758,
